;FLAVOR:Marlin
;TIME:1230
;Filament used: 0.987508m
;Layer height: 0.2
;Generated with Cura_SteamEngine 4.0.0
M140 S60
M105
M190 S60
M104 S200
M105
M109 S200
M82 ;absolute extrusion mode
G21 ;metric values
G90 ;absolute positioning
M82 ;set extruder to absolute mode
M107 ;start with the fan off
G28 X0 Y0 ;move X/Y to min endstops
G28 Z0 ;move Z to min endstops
G1 Z15.0 F200 ;move the platform down 15mm
G92 E0 ;zero the extruded length
G1 F200 E3 ;extrude 3mm of feed stock
G92 E0 ;zero the extruded length again
G1 F200
M117 Printing...
G5
G92 E0
G1 F2700 E-0.5
;LAYER_COUNT:110
;LAYER:0
M106 S255
M204 S3000
M205 X10 Y10
G0 F6000 X86.129 Y97.098 Z0.2
M205 X8 Y8
;TYPE:SKIRT
G1 F2700 E0
G1 F2400 X89.923 Y93.916 E0.23057
G1 X90.496 Y93.488 E0.26388
G1 X91.113 Y93.126 E0.29719
G1 X91.732 Y92.849 E0.32876
G1 X96.756 Y90.91 E0.57952
G1 X96.875 Y90.866 E0.58543
G1 X97.544 Y90.623 E0.61857
G1 X98.229 Y90.416 E0.65189
G1 X98.933 Y90.288 E0.68521
G1 X99.72 Y90.238 E0.72193
G1 X119.761 Y90.21 E1.65512
G1 X120.475 Y90.249 E1.68842
G1 X121.181 Y90.367 E1.72175
G1 X121.868 Y90.564 E1.75503
G1 X122.53 Y90.836 E1.78836
G1 X123.157 Y91.18 E1.82166
G1 X123.742 Y91.592 E1.85497
G1 X124.277 Y92.066 E1.88826
G1 X124.756 Y92.597 E1.92156
G1 X125.173 Y93.179 E1.9549
G1 X125.522 Y93.803 E1.98819
G1 X125.799 Y94.462 E2.02147
G1 X126.001 Y95.149 E2.05482
G1 X126.125 Y95.853 E2.0881
G1 X126.17 Y96.61 E2.12341
G1 X126.17 Y113.391 E2.90481
G1 X126.13 Y114.105 E2.93811
G1 X126.011 Y114.81 E2.9714
G1 X125.813 Y115.498 E3.00474
G1 X125.54 Y116.159 E3.03804
G1 X125.196 Y116.786 E3.07134
G1 X124.783 Y117.37 E3.10464
G1 X124.308 Y117.904 E3.13792
G1 X123.776 Y118.383 E3.17126
G1 X123.194 Y118.798 E3.20454
G1 X122.569 Y119.147 E3.23787
G1 X121.909 Y119.423 E3.27118
G1 X121.223 Y119.624 E3.30447
G1 X120.518 Y119.747 E3.33779
G1 X119.77 Y119.791 E3.37268
G1 X99.784 Y119.79 E4.30332
G1 X99.07 Y119.75 E4.33662
G1 X98.364 Y119.631 E4.36995
G1 X97.677 Y119.433 E4.40325
G1 X97.016 Y119.16 E4.43655
G1 X96.389 Y118.815 E4.46987
G1 X95.805 Y118.403 E4.50315
G1 X95.27 Y117.927 E4.53649
G1 X94.878 Y117.5 E4.56348
G1 X85.336 Y106.112 E5.2553
G1 X84.908 Y105.539 E5.2886
G1 X84.547 Y104.922 E5.32189
G1 X84.257 Y104.268 E5.3552
G1 X84.041 Y103.586 E5.38851
G1 X83.903 Y102.885 E5.42178
G1 X83.844 Y102.172 E5.45509
G1 X83.865 Y101.457 E5.4884
G1 X83.966 Y100.749 E5.5217
G1 X84.145 Y100.056 E5.55503
G1 X84.4 Y99.388 E5.58832
G1 X84.728 Y98.752 E5.62165
G1 X85.125 Y98.157 E5.65495
G1 X85.586 Y97.611 E5.68823
G1 X86.129 Y97.098 E5.72301
M205 X10 Y10
G0 F6000 X86.489 Y97.527
M205 X8 Y8
G1 F2400 X90.283 Y94.345 E5.95358
G1 X90.831 Y93.938 E5.98537
G1 X91.424 Y93.597 E6.01722
G1 X91.933 Y93.372 E6.04313
G1 X96.957 Y91.433 E6.29389
G1 X97.066 Y91.392 E6.29931
G1 X97.735 Y91.149 E6.33246
G1 X98.39 Y90.954 E6.36428
G1 X99.063 Y90.836 E6.39609
G1 X99.721 Y90.798 E6.42679
G1 X119.762 Y90.77 E7.35998
G1 X120.444 Y90.809 E7.39179
G1 X121.117 Y90.927 E7.4236
G1 X121.771 Y91.124 E7.45541
G1 X122.398 Y91.395 E7.48721
G1 X122.989 Y91.738 E7.51903
G1 X123.536 Y92.147 E7.55084
G1 X124.032 Y92.617 E7.58265
G1 X124.469 Y93.142 E7.61446
G1 X124.842 Y93.715 E7.6463
G1 X125.145 Y94.327 E7.6781
G1 X125.375 Y94.971 E7.70994
G1 X125.528 Y95.636 E7.74171
G1 X125.61 Y96.61 E7.78723
G1 X125.61 Y113.391 E8.56862
G1 X125.57 Y114.073 E8.60043
G1 X125.451 Y114.746 E8.63226
G1 X125.254 Y115.4 E8.66406
G1 X124.981 Y116.027 E8.6959
G1 X124.638 Y116.617 E8.72768
G1 X124.228 Y117.164 E8.75951
G1 X123.757 Y117.659 E8.79133
G1 X123.231 Y118.095 E8.82314
G1 X122.658 Y118.467 E8.85495
G1 X122.045 Y118.77 E8.88679
G1 X121.402 Y118.998 E8.91856
G1 X120.736 Y119.151 E8.95038
G1 X119.77 Y119.231 E8.99551
G1 X99.784 Y119.23 E9.92615
G1 X99.102 Y119.19 E9.95796
G1 X98.429 Y119.071 E9.98978
G1 X97.775 Y118.873 E10.0216
G1 X97.148 Y118.601 E10.05342
G1 X96.558 Y118.258 E10.0852
G1 X96.011 Y117.848 E10.11703
G1 X95.308 Y117.141 E10.16346
G1 X85.766 Y105.753 E10.85527
G1 X85.358 Y105.204 E10.88712
G1 X85.018 Y104.612 E10.91891
G1 X84.749 Y103.984 E10.95072
G1 X84.555 Y103.329 E10.98253
G1 X84.439 Y102.656 E11.01433
G1 X84.402 Y101.973 E11.04618
G1 X84.445 Y101.291 E11.078
G1 X84.568 Y100.619 E11.10981
G1 X84.768 Y99.966 E11.14161
G1 X85.044 Y99.341 E11.17343
G1 X85.39 Y98.752 E11.20524
G1 X85.803 Y98.207 E11.23708
G1 X86.489 Y97.527 E11.28205
M205 X10 Y10
G0 F6000 X86.849 Y97.956
M205 X8 Y8
G1 F2400 X90.643 Y94.774 E11.51263
G1 X91.166 Y94.388 E11.5429
G1 X91.731 Y94.069 E11.57311
G1 X92.135 Y93.894 E11.59361
G1 X97.159 Y91.955 E11.84437
G1 X97.257 Y91.918 E11.84924
G1 X97.926 Y91.675 E11.88239
G1 X98.549 Y91.491 E11.91263
G1 X99.19 Y91.386 E11.94288
G1 X99.722 Y91.358 E11.96769
G1 X119.763 Y91.33 E12.90088
G1 X120.411 Y91.369 E12.93111
G1 X121.05 Y91.487 E12.96137
G1 X121.669 Y91.683 E12.9916
G1 X122.26 Y91.954 E13.02187
G1 X122.813 Y92.295 E13.05213
G1 X123.32 Y92.701 E13.08237
G1 X123.773 Y93.167 E13.11263
G1 X124.165 Y93.684 E13.14284
G1 X124.491 Y94.246 E13.1731
G1 X124.746 Y94.844 E13.20337
G1 X124.925 Y95.468 E13.2336
G1 X125.026 Y96.11 E13.26386
G1 X125.05 Y96.61 E13.28717
G1 X125.05 Y113.391 E14.06856
G1 X125.01 Y114.039 E14.09879
G1 X124.891 Y114.678 E14.12906
G1 X124.694 Y115.297 E14.15931
G1 X124.423 Y115.887 E14.18954
G1 X124.081 Y116.44 E14.21981
G1 X123.674 Y116.946 E14.25005
G1 X123.208 Y117.399 E14.28031
G1 X122.69 Y117.79 E14.31053
G1 X122.127 Y118.116 E14.34083
G1 X121.529 Y118.369 E14.37106
G1 X120.905 Y118.548 E14.40129
G1 X120.263 Y118.648 E14.43155
G1 X119.77 Y118.671 E14.45453
G1 X99.784 Y118.67 E15.38516
G1 X99.135 Y118.63 E15.41544
G1 X98.497 Y118.511 E15.44566
G1 X97.878 Y118.314 E15.4759
G1 X97.287 Y118.043 E15.50618
G1 X96.735 Y117.701 E15.53642
G1 X96.229 Y117.294 E15.56665
G1 X95.737 Y116.781 E15.59975
G1 X86.195 Y105.393 E16.29156
G1 X85.809 Y104.87 E16.32183
G1 X85.49 Y104.304 E16.35208
G1 X85.244 Y103.703 E16.38232
G1 X85.073 Y103.077 E16.41254
G1 X84.98 Y102.434 E16.44279
G1 X84.966 Y101.784 E16.47307
G1 X85.033 Y101.138 E16.50331
G1 X85.179 Y100.505 E16.53356
G1 X85.401 Y99.895 E16.56378
G1 X85.696 Y99.316 E16.59404
G1 X86.06 Y98.778 E16.62429
G1 X86.488 Y98.289 E16.65455
G1 X86.849 Y97.956 E16.67742
M205 X10 Y10
G1 F2700 E16.17742
;MESH:fan_duct (1).stl
G0 F6000 X90.449 Y100.951
G0 X91.423 Y102.113
G0 X105.079 Y101.475
M205 X8 Y8
;TYPE:WALL-INNER
G1 F2700 E16.67742
G1 F1800 X105.079 Y106.775 E16.92421
G1 X117.679 Y106.775 E17.51092
G1 X117.679 Y101.475 E17.75771
G1 X105.079 Y101.475 E18.34442
M205 X10 Y10
G0 F6000 X118.379 Y98.28
M205 X8 Y8
G1 F1800 X118.379 Y112 E18.98328
G1 X100.431 Y112 E19.81901
G1 X92.193 Y102.181 E20.41583
G1 X94.771 Y100.017 E20.57256
G1 X100.027 Y98.003 E20.83465
G1 X118.099 Y98 E21.67616
G1 X118.379 Y98 E21.6892
G1 X118.379 Y98.28 E21.69764
M205 X10 Y10
G0 F6000 X118.939 Y97.72
M205 X8 Y8
G1 F1800 X118.939 Y112.56 E22.38865
G1 X100.17 Y112.56 E23.26261
G1 X91.404 Y102.112 E23.89767
G1 X94.483 Y99.528 E24.08484
G1 X99.874 Y97.462 E24.35367
G1 X99.936 Y97.443 E24.35669
G1 X118.659 Y97.44 E25.22851
G1 X118.939 Y97.44 E25.24155
G1 X118.939 Y97.72 E25.24999
M205 X10 Y10
G0 F6000 X118.839 Y97.72
G0 X105.569 Y101.965
G0 X105.639 Y102.035
M205 X8 Y8
G1 F1800 X105.639 Y106.215 E25.44462
G1 X117.119 Y106.215 E25.97918
G1 X117.119 Y102.035 E26.17382
G1 X105.639 Y102.035 E26.70838
M205 X10 Y10
G0 F6000 X106.199 Y102.595
M205 X8 Y8
;TYPE:WALL-OUTER
G1 F1800 X106.199 Y105.655 E26.85086
G1 X116.559 Y105.655 E27.33327
G1 X116.559 Y102.595 E27.47575
G1 X106.199 Y102.595 E27.95816
M205 X10 Y10
G0 F6000 X106.199 Y102.795
G0 X105.539 Y102.795
G0 X105.611 Y106.243
G0 X118.869 Y112.49
G0 X119.499 Y113.12
M205 X8 Y8
G1 F1800 X99.909 Y113.12 E28.87035
G1 X90.615 Y102.043 E29.54365
G1 X94.195 Y99.039 E29.76126
G1 X99.698 Y96.93 E30.03568
G1 X99.791 Y96.901 E30.04021
G1 X99.871 Y96.886 E30.044
G1 X99.98 Y96.88 E30.04909
G1 X119.499 Y96.88 E30.95797
G1 X119.499 Y113.12 E31.71418
M205 X10 Y10
G0 F6000 X119.299 Y113.12
G0 X118.869 Y112.49
G0 X117.829 Y111.45
M205 X8 Y8
;TYPE:SKIN
G1 F1800 X100.688 Y111.45 E32.51233
G1 X92.968 Y102.248 E33.07164
G1 X95.055 Y100.497 E33.19849
G1 X100.127 Y98.553 E33.45142
G1 X117.829 Y98.55 E34.27569
G1 X117.829 Y100.925 E34.38628
G1 X104.529 Y100.925 E35.00559
G1 X104.529 Y107.325 E35.3036
G1 X117.829 Y107.325 E35.9229
G1 X117.829 Y111.45 E36.11498
M205 X10 Y10
G0 F6000 X117.026 Y98.811
M205 X8 Y8
G1 F1800 X117.568 Y99.353 E36.15067
M205 X10 Y10
G0 F6000 X117.568 Y100.145
M205 X8 Y8
G1 F1800 X116.234 Y98.811 E36.23852
M205 X10 Y10
G0 F6000 X115.442 Y98.811
M205 X8 Y8
G1 F1800 X117.296 Y100.665 E36.36061
M205 X10 Y10
G0 F6000 X116.504 Y100.665
M205 X8 Y8
G1 F1800 X114.65 Y98.811 E36.4827
M205 X10 Y10
G0 F6000 X113.858 Y98.811
M205 X8 Y8
G1 F1800 X115.712 Y100.665 E36.60479
M205 X10 Y10
G0 F6000 X114.92 Y100.665
M205 X8 Y8
G1 F1800 X113.067 Y98.811 E36.72684
M205 X10 Y10
G0 F6000 X112.275 Y98.811
M205 X8 Y8
G1 F1800 X114.128 Y100.665 E36.8489
M205 X10 Y10
G0 F6000 X113.336 Y100.665
M205 X8 Y8
G1 F1800 X111.483 Y98.811 E36.97095
M205 X10 Y10
G0 F6000 X110.691 Y98.811
M205 X8 Y8
G1 F1800 X112.544 Y100.665 E37.09301
M205 X10 Y10
G0 F6000 X111.752 Y100.665
M205 X8 Y8
G1 F1800 X109.899 Y98.811 E37.21507
M205 X10 Y10
G0 F6000 X109.107 Y98.811
M205 X8 Y8
G1 F1800 X110.96 Y100.665 E37.33712
M205 X10 Y10
G0 F6000 X110.168 Y100.665
M205 X8 Y8
G1 F1800 X108.316 Y98.812 E37.45911
M205 X10 Y10
G0 F6000 X107.524 Y98.812
M205 X8 Y8
G1 F1800 X109.376 Y100.665 E37.5811
M205 X10 Y10
G0 F6000 X108.584 Y100.665
M205 X8 Y8
G1 F1800 X106.732 Y98.812 E37.70309
M205 X10 Y10
G0 F6000 X105.94 Y98.812
M205 X8 Y8
G1 F1800 X107.792 Y100.665 E37.82508
M205 X10 Y10
G0 F6000 X107 Y100.665
M205 X8 Y8
G1 F1800 X105.148 Y98.812 E37.94707
M205 X10 Y10
G0 F6000 X104.356 Y98.813
M205 X8 Y8
G1 F1800 X106.208 Y100.665 E38.06903
M205 X10 Y10
G0 F6000 X105.416 Y100.665
M205 X8 Y8
G1 F1800 X103.564 Y98.813 E38.19099
M205 X10 Y10
G0 F6000 X102.773 Y98.813
M205 X8 Y8
G1 F1800 X104.624 Y100.665 E38.31291
M205 X10 Y10
G0 F6000 X104.269 Y101.101
M205 X8 Y8
G1 F1800 X101.981 Y98.813 E38.46358
M205 X10 Y10
G0 F6000 X101.189 Y98.813
M205 X8 Y8
G1 F1800 X104.269 Y101.893 E38.6664
M205 X10 Y10
G0 F6000 X104.269 Y102.685
M205 X8 Y8
G1 F1800 X100.397 Y98.813 E38.92138
M205 X10 Y10
G0 F6000 X99.762 Y98.97
M205 X8 Y8
G1 F1800 X104.269 Y103.477 E39.21818
M205 X10 Y10
G0 F6000 X104.269 Y104.269
M205 X8 Y8
G1 F1800 X99.19 Y99.19 E39.55264
M205 X10 Y10
G0 F6000 X98.617 Y99.409
M205 X8 Y8
G1 F1800 X104.269 Y105.061 E39.92483
M205 X10 Y10
G0 F6000 X104.269 Y105.853
M205 X8 Y8
G1 F1800 X98.045 Y99.629 E40.33469
M205 X10 Y10
G0 F6000 X97.472 Y99.848
M205 X8 Y8
G1 F1800 X104.269 Y106.645 E40.78229
M205 X10 Y10
G0 F6000 X104.269 Y107.437
M205 X8 Y8
G1 F1800 X96.899 Y100.067 E41.26761
M205 X10 Y10
G0 F6000 X96.327 Y100.287
M205 X8 Y8
G1 F1800 X107.229 Y111.189 E41.98553
M205 X10 Y10
G0 F6000 X108.021 Y111.189
M205 X8 Y8
G1 F1800 X104.417 Y107.584 E42.22289
M205 X10 Y10
G0 F6000 X105.209 Y107.584
M205 X8 Y8
G1 F1800 X108.813 Y111.189 E42.46025
M205 X10 Y10
G0 F6000 X109.605 Y111.189
M205 X8 Y8
G1 F1800 X106 Y107.584 E42.69765
M205 X10 Y10
G0 F6000 X106.792 Y107.584
M205 X8 Y8
G1 F1800 X110.397 Y111.189 E42.93504
M205 X10 Y10
G0 F6000 X111.189 Y111.189
M205 X8 Y8
G1 F1800 X107.584 Y107.584 E43.17244
M205 X10 Y10
G0 F6000 X108.376 Y107.584
M205 X8 Y8
G1 F1800 X111.981 Y111.189 E43.40984
M205 X10 Y10
G0 F6000 X112.773 Y111.189
M205 X8 Y8
G1 F1800 X109.168 Y107.584 E43.64723
M205 X10 Y10
G0 F6000 X109.96 Y107.584
M205 X8 Y8
G1 F1800 X113.565 Y111.189 E43.88463
M205 X10 Y10
G0 F6000 X114.357 Y111.189
M205 X8 Y8
G1 F1800 X110.752 Y107.584 E44.12202
M205 X10 Y10
G0 F6000 X111.544 Y107.584
M205 X8 Y8
G1 F1800 X115.149 Y111.189 E44.35942
M205 X10 Y10
G0 F6000 X115.941 Y111.189
M205 X8 Y8
G1 F1800 X112.336 Y107.584 E44.59681
M205 X10 Y10
G0 F6000 X113.128 Y107.584
M205 X8 Y8
G1 F1800 X116.733 Y111.189 E44.83421
M205 X10 Y10
G0 F6000 X117.525 Y111.189
M205 X8 Y8
G1 F1800 X113.92 Y107.584 E45.0716
M205 X10 Y10
G0 F6000 X114.712 Y107.584
M205 X8 Y8
G1 F1800 X117.568 Y110.44 E45.25968
M205 X10 Y10
G0 F6000 X117.568 Y109.648
M205 X8 Y8
G1 F1800 X115.504 Y107.584 E45.39559
M205 X10 Y10
G0 F6000 X116.296 Y107.584
M205 X8 Y8
G1 F1800 X117.568 Y108.856 E45.47936
M205 X10 Y10
G0 F6000 X117.568 Y108.065
M205 X8 Y8
G1 F1800 X117.088 Y107.584 E45.511
M205 X10 Y10
G0 F6000 X106.437 Y111.189
M205 X8 Y8
G1 F1800 X95.754 Y100.506 E46.21449
M205 X10 Y10
G0 F6000 X95.185 Y100.728
M205 X8 Y8
G1 F1800 X105.645 Y111.189 E46.90333
M205 X10 Y10
G0 F6000 X104.853 Y111.189
M205 X8 Y8
G1 F1800 X94.754 Y101.09 E47.56837
M205 X10 Y10
G0 F6000 X94.323 Y101.451
M205 X8 Y8
G1 F1800 X104.061 Y111.189 E48.20963
M205 X10 Y10
G0 F6000 X103.269 Y111.189
M205 X8 Y8
G1 F1800 X93.893 Y101.812 E48.82709
M205 X10 Y10
G0 F6000 X93.462 Y102.174
M205 X8 Y8
G1 F1800 X102.477 Y111.189 E49.42075
M205 X10 Y10
G0 F6000 X101.685 Y111.189
M205 X8 Y8
G1 F1800 X96.246 Y105.749 E49.77895
G1 X96.176 Y105.679
M205 X10 Y10
G0 F6000 X100.374 Y110.669
M205 X8 Y8
G1 F1800 X100.893 Y111.189 E49.81316
M205 X10 Y10
G0 F6000 X117.938 Y106.907
G0 X118.009 Y106.978
M205 X8 Y8
;TYPE:SKIN
G1 F1800 X118.027 Y106.714 E49.81723
G1 X118.027 Y101.34 E49.89998
M205 X10 Y10
G0 F6000 X117.938 Y101.25
;MESH:NONMESH
G0 X105.479 Y101.875
;TIME_ELAPSED:45.090561
;LAYER:1
M140 S60
;MESH:fan_duct (1).stl
G0 F9000 X105.479 Y101.875 Z0.4
M204 S2250
M205 X8 Y8
;TYPE:WALL-INNER
G1 F2700 X105.479 Y106.375 E50.04965
G1 X117.279 Y106.375 E50.44212
G1 X117.279 Y101.875 E50.59179
G1 X105.479 Y101.875 E50.98426
M204 S3000
M205 X10 Y10
G0 F9000 X118.779 Y97.8
M204 S2250
M205 X8 Y8
G1 F2700 X118.779 Y112.4 E51.46986
G1 X100.244 Y112.4 E52.08633
G1 X91.629 Y102.132 E52.53213
G1 X94.561 Y99.672 E52.65943
G1 X99.974 Y97.602 E52.85218
G1 X118.579 Y97.6 E53.47098
G1 X118.779 Y97.6 E53.47764
G1 X118.779 Y97.8 E53.48194
M204 S3000
M205 X10 Y10
G0 F9000 X105.809 Y102.205
G0 X105.879 Y102.275
M204 S2250
M205 X8 Y8
G1 F2700 X105.879 Y105.975 E53.60501
G1 X116.879 Y105.975 E53.97087
G1 X116.879 Y102.275 E54.09393
G1 X105.879 Y102.275 E54.45979
M204 S3000
M205 X10 Y10
G0 F9000 X105.809 Y102.205
G0 X105.851 Y106.003
G0 X119.109 Y112.73
G0 X119.179 Y112.8
M204 S2250
M205 X8 Y8
G1 F2700 X100.058 Y112.8 E55.09576
G1 X91.066 Y102.083 E55.56106
G1 X94.357 Y99.321 E55.70396
G1 X99.864 Y97.215 E55.90006
G1 X99.912 Y97.205 E55.90169
G1 X99.987 Y97.2 E55.90419
G1 X119.179 Y97.2 E56.54251
G1 X119.179 Y112.8 E57.06137
M204 S3000
M205 X10 Y10
G0 F9000 X119.579 Y113.2
M204 S1900
M205 X8 Y8
;TYPE:WALL-OUTER
G1 F1800 X99.872 Y113.2 E57.71683
G1 X90.503 Y102.034 E58.20163
G1 X94.153 Y98.97 E58.36013
G1 X99.681 Y96.852 E58.55703
G1 X99.763 Y96.827 E58.55988
G1 X99.855 Y96.808 E58.563
G1 X99.976 Y96.8 E58.56704
G1 X119.579 Y96.8 E59.21903
G1 X119.579 Y113.2 E59.7645
M204 S3000
M205 X10 Y10
G0 F9000 X119.379 Y113.2
G0 X119.109 Y112.73
G0 X105.851 Y106.003
G0 X105.851 Y102.247
G0 X106.279 Y102.175
G0 X106.279 Y102.675
M204 S1900
M205 X8 Y8
G1 F1800 X106.279 Y105.575 E59.86095
G1 X116.479 Y105.575 E60.20021
G1 X116.479 Y102.675 E60.29666
G1 X106.279 Y102.675 E60.63592
M204 S3000
M205 X10 Y10
G0 F9000 X106.279 Y102.875
G0 X105.779 Y102.875
G0 X105.089 Y101.485
M205 X8 Y8
;TYPE:SKIN
G1 F1800 X105.089 Y106.765 E60.81153
G1 X117.669 Y106.765 E61.22994
G1 X117.669 Y101.485 E61.40555
G1 X105.089 Y101.485 E61.82397
M205 X10 Y10
G0 F9000 X100.045 Y97.992
M205 X8 Y8
G1 F1800 X118.389 Y97.99 E62.43409
