;FLAVOR:Marlin
;TIME:2368
;Filament used: 1.68411m
;Layer height: 0.2
;Generated with Cura_SteamEngine 3.4.1
M190 S60
M104 S200
M109 S200
M82 ;absolute extrusion mode
G21 ;metric values
G90 ;absolute positioning
M82 ;set extruder to absolute mode
M107 ;start with the fan off
G28 X0 Y0 ;move X/Y to min endstops
G28 Z0 ;move Z to min endstops
G1 Z15.0 F100 ;move the platform down 15mm
G92 E0 ;zero the extruded length
G1 F200 E3 ;extrude 3mm of feed stock
G92 E0 ;zero the extruded length again
G1 F100
M117 Printing...
G5
G92 E0
G1 F2400 E-6
;LAYER_COUNT:26
;LAYER:0
M106 S255
M204 S3000
M205 X10 Y10
G0 F3000 X87.5 Y88.623 Z0.2
M204 S1800
M205 X8 Y8
;TYPE:SKIRT
G1 F2400 E0
G1 X88.198 Y87.961 E0.04479
G1 X91.785 Y85.043 E0.26011
G1 X92.364 Y84.624 E0.29339
G1 X93.259 Y84.145 E0.34066
G1 X97.689 Y82.207 E0.56581
G1 X98.359 Y81.957 E0.59911
G1 X99.343 Y81.735 E0.64608
G1 X103.87 Y81.084 E0.85904
G1 X104.583 Y81.022 E0.89237
G1 X105.559 Y81.067 E0.93786
G1 X110.202 Y81.636 E1.15568
G1 X110.906 Y81.762 E1.18898
G1 X111.811 Y82.05 E1.2332
G1 X116.001 Y83.734 E1.44348
G1 X116.648 Y84.037 E1.47674
G1 X117.436 Y84.538 E1.52022
G1 X118.26 Y85.152 E1.56807
G1 X118.447 Y85.276 E1.57852
G1 X121.069 Y87.243 E1.73115
G1 X121.616 Y87.704 E1.76446
G1 X122.236 Y88.378 E1.8071
G1 X125.043 Y91.905 E2.017
G1 X125.456 Y92.488 E2.05027
G1 X125.891 Y93.308 E2.09349
G1 X127.711 Y97.436 E2.30356
G1 X127.963 Y98.106 E2.33689
G1 X128.18 Y99.039 E2.3815
G1 X128.901 Y103.695 E2.60088
G1 X128.97 Y104.406 E2.63414
G1 X128.933 Y105.418 E2.6813
G1 X128.383 Y110.118 E2.90164
G1 X128.26 Y110.823 E2.93497
G1 X127.96 Y111.771 E2.98127
G1 X126.222 Y116.073 E3.19732
G1 X125.917 Y116.721 E3.23067
G1 X125.403 Y117.523 E3.27502
G1 X122.68 Y121.143 E3.48595
G1 X122.218 Y121.69 E3.51929
G1 X121.549 Y122.304 E3.56157
G1 X118.16 Y125 E3.76322
G1 X117.577 Y125.414 E3.79652
G1 X116.74 Y125.856 E3.84059
G1 X112.306 Y127.795 E4.06593
G1 X111.636 Y128.044 E4.09922
G1 X110.686 Y128.261 E4.14459
G1 X106.39 Y128.902 E4.34685
G1 X105.678 Y128.968 E4.38014
G1 X104.724 Y128.931 E4.4246
G1 X99.904 Y128.384 E4.65048
G1 X99.199 Y128.264 E4.68378
G1 X98.249 Y127.967 E4.73013
G1 X94.009 Y126.271 E4.94277
G1 X93.361 Y125.969 E4.97606
G1 X92.562 Y125.461 E5.02014
G1 X88.95 Y122.77 E5.22988
G1 X88.402 Y122.312 E5.26314
G1 X87.767 Y121.624 E5.30673
G1 X84.958 Y118.096 E5.51672
G1 X84.545 Y117.513 E5.54999
G1 X84.109 Y116.692 E5.59328
G1 X82.288 Y112.561 E5.80349
G1 X82.036 Y111.891 E5.83682
G1 X81.822 Y110.975 E5.88062
G1 X81.105 Y106.422 E6.09524
G1 X81.033 Y105.71 E6.12857
G1 X81.065 Y104.726 E6.17441
G1 X81.582 Y100.026 E6.39458
G1 X81.7 Y99.321 E6.42787
G1 X81.989 Y98.382 E6.47361
G1 X82.619 Y96.782 E6.55368
G1 X82.618 Y96.782 E6.55373
G1 X83.564 Y94.353 E6.67511
G1 X83.861 Y93.702 E6.70843
G1 X84.34 Y92.928 E6.75081
G1 X87.049 Y89.178 E6.96623
G1 X87.5 Y88.623 E6.99953
M204 S3000
M205 X10 Y10
G0 F3000 X87.935 Y88.977
M204 S1800
M205 X8 Y8
G1 F2400 X88.552 Y88.396 E7.03899
G1 X92.139 Y85.478 E7.2543
G1 X92.693 Y85.078 E7.28612
G1 X93.483 Y84.658 E7.32778
G1 X97.913 Y82.72 E7.55294
G1 X98.554 Y82.483 E7.58476
G1 X99.423 Y82.289 E7.62622
G1 X103.95 Y81.638 E7.83918
G1 X104.631 Y81.581 E7.871
G1 X105.491 Y81.622 E7.91109
G1 X110.134 Y82.191 E8.12891
G1 X110.807 Y82.314 E8.16077
G1 X111.602 Y82.569 E8.19964
G1 X115.792 Y84.253 E8.40991
G1 X116.41 Y84.545 E8.44174
G1 X117.101 Y84.987 E8.47994
G1 X117.973 Y85.636 E8.53055
G1 X118.111 Y85.724 E8.53817
G1 X120.733 Y87.691 E8.6908
G1 X121.254 Y88.133 E8.72262
G1 X121.797 Y88.726 E8.76006
G1 X124.604 Y92.253 E8.96995
G1 X124.998 Y92.812 E9.0018
G1 X125.379 Y93.534 E9.03981
G1 X127.199 Y97.662 E9.24988
G1 X127.437 Y98.302 E9.28167
G1 X127.626 Y99.124 E9.32095
G1 X128.347 Y103.78 E9.54034
G1 X128.412 Y104.46 E9.57214
G1 X128.376 Y105.353 E9.61376
G1 X127.826 Y110.053 E9.8341
G1 X127.707 Y110.726 E9.86593
G1 X127.441 Y111.562 E9.90678
G1 X125.703 Y115.864 E10.12283
G1 X125.41 Y116.481 E10.15463
G1 X124.955 Y117.187 E10.19374
G1 X122.232 Y120.807 E10.40467
G1 X121.79 Y121.328 E10.43648
G1 X121.201 Y121.866 E10.47363
G1 X117.812 Y124.562 E10.67528
G1 X117.253 Y124.956 E10.70712
G1 X116.516 Y125.343 E10.74588
G1 X112.082 Y127.282 E10.97123
G1 X111.441 Y127.518 E11.00304
G1 X110.604 Y127.707 E11.04299
G1 X106.308 Y128.348 E11.24525
G1 X105.627 Y128.409 E11.27708
G1 X104.787 Y128.375 E11.31623
G1 X99.967 Y127.828 E11.54211
G1 X99.294 Y127.711 E11.57392
G1 X98.457 Y127.447 E11.61478
G1 X94.217 Y125.751 E11.82742
G1 X93.599 Y125.461 E11.85921
G1 X92.897 Y125.012 E11.89801
G1 X89.285 Y122.321 E12.10775
G1 X88.762 Y121.882 E12.13954
G1 X88.205 Y121.276 E12.17787
G1 X85.396 Y117.748 E12.38786
G1 X85.003 Y117.189 E12.41968
G1 X84.621 Y116.466 E12.45776
G1 X82.8 Y112.335 E12.66797
G1 X82.562 Y111.694 E12.69981
G1 X82.375 Y110.887 E12.73838
G1 X81.658 Y106.334 E12.953
G1 X81.591 Y105.655 E12.98477
G1 X81.622 Y104.787 E13.02522
G1 X82.139 Y100.087 E13.24539
G1 X82.253 Y99.414 E13.27717
G1 X82.51 Y98.587 E13.3175
G1 X83.148 Y96.966 E13.39861
G1 X84.086 Y94.557 E13.51899
G1 X84.371 Y93.936 E13.55081
G1 X84.794 Y93.256 E13.5881
G1 X87.503 Y89.506 E13.80351
G1 X87.935 Y88.977 E13.83531
M204 S3000
M205 X10 Y10
G0 F3000 X88.369 Y89.332
M204 S1800
M205 X8 Y8
G1 F2400 X88.905 Y88.83 E13.86951
G1 X92.492 Y85.912 E14.08482
G1 X93.02 Y85.534 E14.11506
G1 X93.708 Y85.171 E14.15128
G1 X98.138 Y83.233 E14.37643
G1 X98.748 Y83.009 E14.40669
G1 X99.502 Y82.844 E14.44263
G1 X104.029 Y82.193 E14.6556
G1 X104.677 Y82.14 E14.68587
G1 X105.423 Y82.178 E14.72065
G1 X110.066 Y82.747 E14.93847
G1 X110.705 Y82.866 E14.96873
G1 X111.393 Y83.089 E15.00241
G1 X115.583 Y84.773 E15.21268
G1 X116.17 Y85.052 E15.24295
G1 X116.767 Y85.437 E15.27603
G1 X117.477 Y85.966 E15.31725
G1 X117.775 Y86.172 E15.33412
G1 X120.397 Y88.139 E15.48675
G1 X120.891 Y88.56 E15.51697
G1 X121.359 Y89.075 E15.54938
G1 X124.166 Y92.602 E15.75927
G1 X124.539 Y93.134 E15.78953
G1 X124.866 Y93.76 E15.82241
G1 X126.686 Y97.888 E16.03248
G1 X126.911 Y98.497 E16.06271
G1 X127.073 Y99.21 E16.09676
G1 X127.794 Y103.866 E16.31615
G1 X127.854 Y104.513 E16.3464
G1 X127.82 Y105.288 E16.38253
G1 X127.27 Y109.988 E16.60287
G1 X127.155 Y110.627 E16.6331
G1 X126.922 Y111.352 E16.66856
G1 X125.184 Y115.654 E16.88461
G1 X124.904 Y116.24 E16.91485
G1 X124.508 Y116.85 E16.94872
G1 X121.785 Y120.47 E17.15964
G1 X121.363 Y120.964 E17.1899
G1 X120.852 Y121.428 E17.22204
G1 X117.463 Y124.124 E17.42369
G1 X116.931 Y124.496 E17.45391
G1 X116.292 Y124.83 E17.48749
G1 X111.858 Y126.769 E17.71283
G1 X111.247 Y126.992 E17.74312
G1 X110.521 Y127.153 E17.77775
G1 X106.225 Y127.794 E17.98
G1 X105.578 Y127.85 E18.01024
G1 X104.851 Y127.818 E18.04412
G1 X100.031 Y127.271 E18.27
G1 X99.391 Y127.159 E18.30026
G1 X98.665 Y126.927 E18.33575
G1 X94.425 Y125.231 E18.54839
G1 X93.838 Y124.953 E18.57863
G1 X93.232 Y124.563 E18.61219
G1 X89.62 Y121.872 E18.82192
G1 X89.123 Y121.453 E18.85219
G1 X88.643 Y120.927 E18.88535
G1 X85.834 Y117.399 E19.09534
G1 X85.462 Y116.867 E19.12557
G1 X85.134 Y116.24 E19.15852
G1 X83.313 Y112.109 E19.36873
G1 X83.088 Y111.499 E19.39901
G1 X82.928 Y110.8 E19.4324
G1 X82.211 Y106.247 E19.64702
G1 X82.15 Y105.601 E19.67723
G1 X82.179 Y104.849 E19.71228
G1 X82.696 Y100.149 E19.93245
G1 X82.806 Y99.509 E19.96269
G1 X83.031 Y98.792 E19.99768
G1 X83.669 Y97.171 E20.07879
G1 X84.608 Y94.76 E20.19927
G1 X84.881 Y94.17 E20.22955
G1 X85.248 Y93.584 E20.26174
G1 X87.957 Y89.834 E20.47715
G1 X88.369 Y89.332 E20.50739
M204 S3000
M205 X10 Y10
G1 F2400 E14.50739
G0 F3000 X100.554 Y87.35
G0 X104.803 Y86.741
G0 X105.363 Y86.841
G0 X107.39 Y87.755
G0 X108.253 Y88.317
G0 X109.412 Y88.51
G0 X109.386 Y88.606
M204 S1800
M205 X8 Y8
;TYPE:WALL-OUTER
G1 F2400 E20.50739
G1 F1500 X109.253 Y88.573 E20.51377
G1 X109.125 Y88.541 E20.51992
G1 X108.996 Y88.509 E20.52611
G1 X108.857 Y88.475 E20.53277
G1 X108.734 Y88.444 E20.53868
G1 X108.601 Y88.411 E20.54506
G1 X108.487 Y88.382 E20.55054
G1 X108.376 Y88.354 E20.55587
G1 X108.234 Y88.318 E20.56269
G1 X108.404 Y88.242 E20.56479
G1 X108.531 Y88.204 E20.56688
G1 X108.659 Y88.178 E20.56944
G1 X108.804 Y88.164 E20.57326
G1 X108.934 Y88.164 E20.57661
G1 X109.079 Y88.178 E20.5811
G1 X109.208 Y88.204 E20.58484
G1 X109.335 Y88.242 E20.58879
G1 X109.463 Y88.295 E20.59309
G1 X109.587 Y88.362 E20.59889
G1 X109.704 Y88.44 E20.60544
G1 X109.807 Y88.524 E20.61163
G1 X109.902 Y88.619 E20.61788
G1 X110.014 Y88.763 E20.62638
G1 X109.875 Y88.729 E20.62661
G1 X109.764 Y88.701 E20.62931
G1 X109.648 Y88.672 E20.63273
G1 X109.519 Y88.64 E20.63673
G1 X109.386 Y88.606 E20.64104
M204 S3000
M205 X10 Y10
G0 F3000 X109.253 Y88.573
G0 X109.192 Y88.558
G1 F2400 E14.64104
G0 F3000 X109.216 Y88.461
G0 X108.253 Y88.317
G0 X106.557 Y89.179
G0 X91.275 Y98.081
M204 S1800
M205 X8 Y8
;TYPE:WALL-INNER
G1 F2400 E20.64104
G1 F1500 X90.889 Y97.471 E20.67465
G1 X90.859 Y97.423 E20.67728
G1 X90.829 Y97.357 E20.68066
G1 X90.813 Y97.287 E20.684
G1 X90.818 Y97.219 E20.68718
G1 X90.831 Y97.17 E20.68954
G1 X90.857 Y97.119 E20.6922
G1 X90.886 Y97.081 E20.69443
G1 X90.93 Y97.043 E20.69714
G1 X91.004 Y97.005 E20.70101
G1 X91.105 Y96.991 E20.70576
G1 X91.162 Y96.991 E20.70841
G1 X91.861 Y96.991 E20.74096
G1 X92.661 Y95.857 E20.80558
G1 X93.514 Y94.768 E20.87
G1 X93.322 Y94.085 E20.90303
G1 X93.294 Y93.984 E20.90791
G1 X93.292 Y93.89 E20.91229
G1 X93.311 Y93.822 E20.91558
G1 X93.332 Y93.782 E20.91768
G1 X93.373 Y93.73 E20.92076
G1 X93.431 Y93.689 E20.92407
G1 X93.483 Y93.667 E20.9267
G1 X93.527 Y93.658 E20.92879
G1 X93.582 Y93.657 E20.93135
G1 X93.684 Y93.68 E20.93622
G1 X94.419 Y93.853 E20.97138
G1 X95.264 Y93.125 E21.02332
G1 X95.869 Y92.653 E21.05905
G1 X96.555 Y92.169 E21.09814
G1 X96.545 Y91.42 E21.13302
G1 X96.544 Y91.331 E21.13717
G1 X96.568 Y91.234 E21.14182
G1 X96.635 Y91.142 E21.14712
G1 X96.69 Y91.102 E21.15029
G1 X96.763 Y91.076 E21.15389
G1 X96.827 Y91.073 E21.15688
G1 X96.889 Y91.082 E21.15979
G1 X96.937 Y91.1 E21.16218
G1 X97.015 Y91.142 E21.16631
G1 X97.678 Y91.506 E21.20153
G1 X98.435 Y91.116 E21.24118
G1 X99.133 Y90.808 E21.2767
G1 X100.188 Y90.401 E21.32936
G1 X100.345 Y89.701 E21.36276
G1 X100.356 Y89.65 E21.36519
G1 X100.386 Y89.572 E21.36908
G1 X100.415 Y89.525 E21.37165
G1 X100.451 Y89.486 E21.37413
G1 X100.495 Y89.455 E21.37663
G1 X100.55 Y89.43 E21.37944
G1 X100.624 Y89.42 E21.38292
G1 X100.726 Y89.438 E21.38774
G1 X100.771 Y89.46 E21.39008
G1 X100.838 Y89.512 E21.39403
G1 X100.875 Y89.549 E21.39646
G1 X101.375 Y90.047 E21.42932
G1 X102.75 Y89.809 E21.4943
G1 X104.115 Y89.641 E21.55834
G1 X104.468 Y89.011 E21.59197
G1 X104.508 Y88.94 E21.59576
G1 X104.557 Y88.88 E21.59937
G1 X104.648 Y88.827 E21.60427
G1 X104.709 Y88.811 E21.60721
G1 X104.778 Y88.813 E21.61042
G1 X104.832 Y88.827 E21.61302
G1 X104.879 Y88.849 E21.61544
G1 X104.932 Y88.887 E21.61847
G1 X104.973 Y88.938 E21.62152
G1 X105.015 Y89.008 E21.62532
G1 X105.387 Y89.631 E21.65911
G1 X106.501 Y89.717 E21.71114
G1 X107.338 Y89.826 E21.75044
G1 X110.101 Y90.518 E21.88307
G1 X110.884 Y90.815 E21.92206
G1 X111.919 Y91.275 E21.9748
G1 X112.509 Y90.903 E22.00728
G1 X112.58 Y90.858 E22.0112
G1 X112.641 Y90.83 E22.01432
G1 X112.715 Y90.813 E22.01786
G1 X112.773 Y90.816 E22.02056
G1 X112.828 Y90.83 E22.0232
G1 X112.878 Y90.855 E22.02581
G1 X112.92 Y90.887 E22.02827
G1 X112.981 Y90.971 E22.0331
G1 X113.005 Y91.049 E22.0369
G1 X113.005 Y91.134 E22.04086
G1 X113.009 Y91.861 E22.07471
G1 X114.159 Y92.675 E22.14032
G1 X115.236 Y93.508 E22.20372
G1 X115.952 Y93.311 E22.23829
G1 X116.011 Y93.295 E22.24114
G1 X116.068 Y93.289 E22.24381
G1 X116.166 Y93.306 E22.24844
G1 X116.222 Y93.335 E22.25138
G1 X116.258 Y93.363 E22.2535
G1 X116.296 Y93.407 E22.25621
G1 X116.335 Y93.494 E22.26065
G1 X116.343 Y93.539 E22.26278
G1 X116.329 Y93.667 E22.26877
G1 X116.313 Y93.726 E22.27162
G1 X116.131 Y94.394 E22.30386
G1 X116.899 Y95.293 E22.35891
G1 X117.357 Y95.881 E22.39362
G1 X117.836 Y96.555 E22.43212
G1 X118.575 Y96.545 E22.46654
G1 X118.659 Y96.544 E22.47045
G1 X118.77 Y96.57 E22.47576
G1 X118.817 Y96.599 E22.47833
G1 X118.859 Y96.636 E22.48093
G1 X118.888 Y96.676 E22.48323
G1 X118.913 Y96.729 E22.48596
G1 X118.925 Y96.775 E22.48818
G1 X118.919 Y96.884 E22.49326
G1 X118.899 Y96.939 E22.49599
G1 X118.859 Y97.012 E22.49986
G1 X118.494 Y97.678 E22.53523
G1 X118.881 Y98.429 E22.57456
G1 X119.189 Y99.126 E22.61005
G1 X119.599 Y100.188 E22.66306
G1 X120.293 Y100.344 E22.69618
G1 X120.346 Y100.356 E22.69871
G1 X120.426 Y100.385 E22.70267
G1 X120.474 Y100.415 E22.70531
G1 X120.516 Y100.454 E22.70798
G1 X120.545 Y100.494 E22.71028
G1 X120.569 Y100.55 E22.71311
G1 X120.58 Y100.624 E22.7166
G1 X120.577 Y100.672 E22.71884
G1 X120.535 Y100.779 E22.72419
G1 X120.492 Y100.834 E22.72744
G1 X120.454 Y100.872 E22.72994
G1 X119.953 Y101.373 E22.76293
G1 X120.186 Y102.725 E22.82682
G1 X120.223 Y103.164 E22.84733
G1 X120.405 Y104.138 E22.89347
G1 X120.988 Y104.468 E22.92466
G1 X121.056 Y104.506 E22.92829
G1 X121.107 Y104.547 E22.93134
G1 X121.139 Y104.583 E22.93358
G1 X121.174 Y104.648 E22.93702
G1 X121.19 Y104.717 E22.94032
G1 X121.185 Y104.789 E22.94368
G1 X121.147 Y104.886 E22.94853
G1 X121.114 Y104.927 E22.95098
G1 X121.06 Y104.973 E22.95428
G1 X120.993 Y105.014 E22.95794
G1 X120.366 Y105.394 E22.99208
G1 X120.286 Y106.466 E23.04213
G1 X120.075 Y108.126 E23.12005
G1 X120.588 Y108.631 E23.15357
G1 X120.654 Y108.696 E23.15788
G1 X120.7 Y108.782 E23.16243
G1 X120.711 Y108.828 E23.16463
G1 X120.708 Y108.93 E23.16938
G1 X120.689 Y108.984 E23.17205
G1 X120.654 Y109.043 E23.17524
G1 X120.568 Y109.11 E23.18032
G1 X120.527 Y109.128 E23.1824
G1 X120.438 Y109.154 E23.18672
G1 X119.726 Y109.362 E23.22126
G1 X119.463 Y110.161 E23.26043
G1 X119.197 Y110.856 E23.29508
G1 X118.738 Y111.892 E23.34784
G1 X119.12 Y112.543 E23.38299
G1 X119.152 Y112.599 E23.38599
G1 X119.174 Y112.654 E23.38875
G1 X119.185 Y112.706 E23.39122
G1 X119.184 Y112.768 E23.39411
G1 X119.153 Y112.864 E23.39881
G1 X119.122 Y112.91 E23.40139
G1 X119.086 Y112.945 E23.40373
G1 X118.992 Y112.996 E23.40871
G1 X118.892 Y113.009 E23.41341
G1 X118.827 Y113.009 E23.41643
G1 X118.137 Y113.009 E23.44856
G1 X117.348 Y114.131 E23.51243
G1 X116.488 Y115.232 E23.57748
G1 X116.687 Y115.944 E23.61191
G1 X116.708 Y116.022 E23.61567
G1 X116.71 Y116.105 E23.61954
G1 X116.679 Y116.2 E23.62419
G1 X116.625 Y116.271 E23.62834
G1 X116.574 Y116.31 E23.63133
G1 X116.482 Y116.341 E23.63585
G1 X116.433 Y116.344 E23.63814
G1 X116.359 Y116.334 E23.64162
G1 X116.281 Y116.313 E23.64538
G1 X115.602 Y116.127 E23.67816
G1 X114.753 Y116.862 E23.73045
G1 X114.135 Y117.343 E23.76691
G1 X113.445 Y117.831 E23.80627
G1 X113.455 Y118.575 E23.84091
G1 X113.456 Y118.659 E23.84483
G1 X113.434 Y118.76 E23.84964
G1 X113.399 Y118.819 E23.85283
G1 X113.364 Y118.859 E23.85531
G1 X113.31 Y118.898 E23.85841
G1 X113.236 Y118.924 E23.86206
G1 X113.173 Y118.927 E23.865
G1 X113.111 Y118.918 E23.86792
G1 X113.063 Y118.9 E23.8703
G1 X112.99 Y118.86 E23.87418
G1 X112.322 Y118.494 E23.90965
G1 X111.565 Y118.884 E23.9493
G1 X110.872 Y119.19 E23.98457
G1 X109.812 Y119.601 E24.03751
G1 X109.655 Y120.298 E24.07078
G1 X109.644 Y120.349 E24.07321
G1 X109.612 Y120.433 E24.0774
G1 X109.591 Y120.468 E24.0793
G1 X109.548 Y120.514 E24.08223
G1 X109.505 Y120.545 E24.0847
G1 X109.45 Y120.57 E24.08751
G1 X109.377 Y120.58 E24.09094
G1 X109.328 Y120.577 E24.09323
G1 X109.278 Y120.563 E24.09564
G1 X109.227 Y120.538 E24.09829
G1 X109.162 Y120.488 E24.10211
G1 X109.125 Y120.451 E24.10454
G1 X108.625 Y119.953 E24.1374
G1 X107.252 Y120.19 E24.20228
G1 X105.89 Y120.359 E24.26619
G1 X105.534 Y120.987 E24.2998
G1 X105.496 Y121.054 E24.30339
G1 X105.458 Y121.103 E24.30628
G1 X105.411 Y121.142 E24.30912
G1 X105.322 Y121.184 E24.3137
G1 X105.271 Y121.19 E24.31609
G1 X105.209 Y121.185 E24.31899
G1 X105.111 Y121.146 E24.3239
G1 X105.072 Y121.114 E24.32625
G1 X105.027 Y121.06 E24.32952
G1 X104.988 Y120.995 E24.33305
G1 X104.606 Y120.366 E24.36732
G1 X103.526 Y120.286 E24.41775
G1 X102.726 Y120.187 E24.45528
G1 X101.903 Y120.041 E24.4942
G1 X101.381 Y120.574 E24.52894
G1 X101.314 Y120.643 E24.53342
G1 X101.271 Y120.675 E24.53592
