;FLAVOR:Marlin
;TIME:4100
;Filament used: 1.49432m
;Layer height: 0.1
;Generated with Cura_SteamEngine 3.4.1
M190 S60
M104 S200
M109 S200
M82 ;absolute extrusion mode
G21 ;metric values
G90 ;absolute positioning
M82 ;set extruder to absolute mode
M107 ;start with the fan off
G28 X0 Y0 ;move X/Y to min endstops
G28 Z0 ;move Z to min endstops
G1 Z15.0 F50 ;move the platform down 15mm
G92 E0 ;zero the extruded length
G1 F200 E3 ;extrude 3mm of feed stock
G92 E0 ;zero the extruded length again
G1 F50
M117 Printing...
G5
G92 E0
G1 F2400 E-6
;LAYER_COUNT:128
;LAYER:0
M106 S255
M204 S3000
M205 X10 Y10
G0 F1500 X81.84 Y91.94 Z0.1
M204 S1800
M205 X8 Y8
;TYPE:SKIRT
G1 F2400 E0
G1 X82.384 Y91.476 E0.01665
G1 X83.073 Y91.021 E0.03587
G1 X83.588 Y90.726 E0.04969
G1 X84.227 Y90.405 E0.06634
G1 X84.919 Y90.152 E0.08349
G1 X85.684 Y89.921 E0.1021
G1 X86.379 Y89.753 E0.11874
G1 X87.089 Y89.664 E0.1354
G1 X87.534 Y89.648 E0.14577
G1 X122.467 Y89.647 E0.95908
G1 X123.181 Y89.687 E0.97573
G1 X124.146 Y89.871 E0.99861
G1 X124.742 Y90.033 E1.01299
G1 X125.42 Y90.259 E1.02962
G1 X126.076 Y90.563 E1.04646
G1 X126.76 Y90.928 E1.06451
G1 X127.371 Y91.299 E1.08115
G1 X128.038 Y91.826 E1.10094
G1 X128.506 Y92.249 E1.11563
G1 X129.009 Y92.758 E1.13229
G1 X129.462 Y93.332 E1.14931
G1 X129.9 Y93.959 E1.16712
G1 X130.276 Y94.567 E1.18376
G1 X130.631 Y95.34 E1.20357
G1 X130.866 Y95.955 E1.2189
G1 X131.084 Y96.636 E1.23554
G1 X131.243 Y97.483 E1.25561
G1 X131.351 Y98.391 E1.2769
G1 X131.396 Y99.153 E1.29467
G1 X131.385 Y111.133 E1.57359
G1 X131.334 Y111.935 E1.5923
G1 X131.272 Y112.422 E1.60373
G1 X131.142 Y113.126 E1.6204
G1 X130.934 Y113.81 E1.63704
G1 X130.784 Y114.185 E1.64645
G1 X130.287 Y115.318 E1.67525
G1 X129.963 Y115.956 E1.69191
G1 X129.571 Y116.554 E1.70856
G1 X129.295 Y116.901 E1.71888
G1 X128.981 Y117.269 E1.73014
G1 X128.487 Y117.786 E1.74679
G1 X127.875 Y118.292 E1.76528
G1 X127.121 Y118.84 E1.78698
G1 X126.519 Y119.228 E1.80366
G1 X125.879 Y119.546 E1.82029
G1 X125.331 Y119.751 E1.83392
G1 X124.439 Y120.04 E1.85575
G1 X123.747 Y120.223 E1.87241
G1 X123.039 Y120.326 E1.88907
G1 X122.465 Y120.352 E1.90245
G1 X87.508 Y120.349 E2.71632
G1 X86.794 Y120.309 E2.73297
G1 X86.089 Y120.19 E2.74961
G1 X85.506 Y120.028 E2.7637
G1 X84.635 Y119.741 E2.78505
G1 X83.969 Y119.479 E2.80172
G1 X83.102 Y118.997 E2.82481
G1 X82.58 Y118.651 E2.83939
G1 X82.007 Y118.223 E2.85604
G1 X81.508 Y117.758 E2.87192
G1 X80.999 Y117.23 E2.889
G1 X80.533 Y116.688 E2.90564
G1 X80.175 Y116.172 E2.92026
G1 X79.899 Y115.729 E2.93241
G1 X79.555 Y115.102 E2.94906
G1 X79.189 Y114.144 E2.97294
G1 X78.89 Y113.123 E2.99771
G1 X78.728 Y112.426 E3.01437
G1 X78.644 Y111.716 E3.03102
G1 X78.632 Y111.342 E3.03973
G1 X78.6 Y99.777 E3.30899
G1 X78.609 Y99.424 E3.31721
G1 X78.68 Y98.071 E3.34875
G1 X78.757 Y97.36 E3.3654
G1 X78.913 Y96.662 E3.38205
G1 X79.027 Y96.3 E3.39089
G1 X79.296 Y95.528 E3.40992
G1 X79.569 Y94.867 E3.42657
G1 X80.012 Y94.089 E3.44742
G1 X80.356 Y93.572 E3.46188
G1 X80.785 Y92.999 E3.47854
G1 X81.27 Y92.483 E3.49503
G1 X81.84 Y91.94 E3.51336
M204 S3000
M205 X10 Y10
G0 F1500 X82.226 Y92.346
M204 S1800
M205 X8 Y8
G1 F2400 X82.747 Y91.904 E3.52926
G1 X83.351 Y91.506 E3.54611
G1 X83.866 Y91.211 E3.55992
G1 X84.478 Y90.907 E3.57583
G1 X85.081 Y90.688 E3.59077
G1 X85.846 Y90.457 E3.60937
G1 X86.51 Y90.298 E3.62527
G1 X87.189 Y90.218 E3.64119
G1 X87.534 Y90.208 E3.64922
G1 X122.467 Y90.207 E4.46254
G1 X123.149 Y90.247 E4.47844
G1 X123.999 Y90.411 E4.4986
G1 X124.595 Y90.573 E4.51298
G1 X125.242 Y90.791 E4.52887
G1 X125.812 Y91.057 E4.54352
G1 X126.496 Y91.422 E4.56157
G1 X127.079 Y91.778 E4.57747
G1 X127.663 Y92.241 E4.59482
G1 X128.131 Y92.664 E4.60951
G1 X128.61 Y93.151 E4.62542
G1 X129.003 Y93.653 E4.64026
G1 X129.441 Y94.28 E4.65807
G1 X129.798 Y94.862 E4.67396
G1 X130.108 Y95.539 E4.6913
G1 X130.343 Y96.154 E4.70663
G1 X130.549 Y96.806 E4.72255
G1 X130.687 Y97.549 E4.74014
G1 X130.795 Y98.457 E4.76143
G1 X130.836 Y99.152 E4.77764
G1 X130.825 Y111.132 E5.05656
G1 X130.778 Y111.865 E5.07366
G1 X130.716 Y112.352 E5.08509
G1 X130.59 Y113.023 E5.10098
G1 X130.271 Y113.96 E5.12403
G1 X129.774 Y115.093 E5.15283
G1 X129.463 Y115.702 E5.16875
G1 X129.084 Y116.27 E5.18465
G1 X128.869 Y116.538 E5.19265
G1 X128.555 Y116.906 E5.20391
G1 X128.081 Y117.399 E5.21984
G1 X127.545 Y117.839 E5.23598
G1 X126.791 Y118.387 E5.25768
G1 X126.216 Y118.756 E5.27359
G1 X125.602 Y119.055 E5.28949
G1 X125.158 Y119.219 E5.30051
G1 X124.266 Y119.508 E5.32234
G1 X123.605 Y119.68 E5.33824
G1 X122.928 Y119.774 E5.35416
G1 X122.465 Y119.792 E5.36494
G1 X87.508 Y119.789 E6.17882
G1 X86.826 Y119.749 E6.19472
G1 X86.154 Y119.63 E6.21061
G1 X85.681 Y119.496 E6.22206
G1 X84.81 Y119.209 E6.24341
G1 X84.175 Y118.957 E6.25931
G1 X83.411 Y118.53 E6.27969
G1 X82.889 Y118.184 E6.29427
G1 X82.343 Y117.774 E6.31017
G1 X81.912 Y117.369 E6.32394
G1 X81.403 Y116.841 E6.34101
G1 X80.958 Y116.322 E6.35693
G1 X80.65 Y115.876 E6.36955
G1 X80.374 Y115.433 E6.3817
G1 X80.048 Y114.833 E6.3976
G1 X79.726 Y113.986 E6.4187
G1 X79.427 Y112.965 E6.44346
G1 X79.274 Y112.3 E6.45935
G1 X79.192 Y111.34 E6.48178
G1 X79.16 Y99.775 E6.75104
G1 X79.168 Y99.453 E6.75854
G1 X79.239 Y98.1 E6.79009
G1 X79.315 Y97.421 E6.80599
G1 X79.556 Y96.484 E6.82852
G1 X79.825 Y95.712 E6.84755
G1 X80.087 Y95.081 E6.86346
G1 X80.478 Y94.399 E6.88176
G1 X80.822 Y93.882 E6.89622
G1 X81.233 Y93.336 E6.91213
G1 X81.656 Y92.889 E6.92646
G1 X82.226 Y92.346 E6.94479
M204 S3000
M205 X10 Y10
G0 F1500 X82.612 Y92.751
M204 S1800
M205 X8 Y8
G1 F2400 X83.109 Y92.333 E6.95991
G1 X83.63 Y91.992 E6.9744
G1 X84.145 Y91.697 E6.98822
G1 X84.727 Y91.41 E7.00333
G1 X85.243 Y91.224 E7.0161
G1 X86.008 Y90.993 E7.03471
G1 X86.64 Y90.844 E7.04982
G1 X87.534 Y90.768 E7.07071
G1 X122.467 Y90.767 E7.88403
G1 X123.115 Y90.807 E7.89914
G1 X123.852 Y90.952 E7.91663
G1 X124.448 Y91.114 E7.93101
G1 X125.063 Y91.322 E7.94612
G1 X125.549 Y91.551 E7.95863
G1 X126.233 Y91.916 E7.97668
G1 X126.786 Y92.256 E7.9918
G1 X127.287 Y92.657 E8.00674
G1 X127.755 Y93.08 E8.02142
G1 X128.21 Y93.544 E8.03656
G1 X128.543 Y93.973 E8.0492
G1 X128.981 Y94.6 E8.06701
G1 X129.32 Y95.155 E8.08215
G1 X129.585 Y95.739 E8.09708
G1 X129.82 Y96.354 E8.11241
G1 X130.014 Y96.974 E8.12753
G1 X130.131 Y97.615 E8.1427
G1 X130.239 Y98.523 E8.16399
G1 X130.276 Y99.152 E8.17866
G1 X130.265 Y111.132 E8.45758
G1 X130.223 Y111.794 E8.47302
G1 X130.161 Y112.281 E8.48445
G1 X130.039 Y112.919 E8.49958
G1 X129.758 Y113.735 E8.51967
G1 X129.261 Y114.868 E8.54848
G1 X128.964 Y115.446 E8.5636
G1 X128.443 Y116.174 E8.58445
G1 X128.129 Y116.542 E8.59571
G1 X127.677 Y117.009 E8.61084
G1 X127.216 Y117.386 E8.62471
G1 X126.462 Y117.934 E8.64641
G1 X125.914 Y118.283 E8.66153
G1 X125.328 Y118.562 E8.67665
G1 X124.985 Y118.686 E8.68514
G1 X124.093 Y118.975 E8.70697
G1 X123.464 Y119.137 E8.72209
G1 X122.82 Y119.22 E8.73721
G1 X122.466 Y119.232 E8.74545
G1 X87.509 Y119.229 E9.55933
G1 X86.86 Y119.189 E9.57446
G1 X86.222 Y119.07 E9.58958
G1 X85.857 Y118.964 E9.59842
G1 X84.986 Y118.677 E9.61978
G1 X84.382 Y118.436 E9.63492
G1 X83.721 Y118.063 E9.65259
G1 X83.199 Y117.717 E9.66717
G1 X82.681 Y117.325 E9.68229
G1 X82.315 Y116.981 E9.69399
G1 X81.806 Y116.453 E9.71106
G1 X81.384 Y115.958 E9.7262
G1 X81.126 Y115.58 E9.73686
G1 X80.85 Y115.137 E9.74901
G1 X80.541 Y114.566 E9.76413
G1 X80.264 Y113.829 E9.78246
G1 X79.965 Y112.808 E9.80723
G1 X79.821 Y112.174 E9.82236
G1 X79.752 Y111.339 E9.84187
G1 X79.72 Y99.774 E10.11113
G1 X79.727 Y99.482 E10.11793
G1 X79.798 Y98.129 E10.14947
G1 X79.872 Y97.484 E10.16459
G1 X80.085 Y96.669 E10.1842
G1 X80.354 Y95.897 E10.20324
G1 X80.605 Y95.298 E10.21836
G1 X80.944 Y94.709 E10.23418
G1 X81.288 Y94.192 E10.24864
G1 X81.681 Y93.674 E10.26377
G1 X82.042 Y93.294 E10.27598
G1 X82.612 Y92.751 E10.29431
M204 S3000
M205 X10 Y10
G1 F2400 E4.29431
G1 F300 Z0.175
G0 F1500 X88.151 Y103.056 Z0.175
M204 S1800
M205 X8 Y8
;TYPE:SUPPORT
G1 F300 Z0.1
G1 F2400 E10.29431
G1 F1500 X88.509 Y102.937 E10.30309
G1 X88.825 Y102.885 E10.31055
G1 X89.175 Y102.885 E10.31869
G1 X89.491 Y102.937 E10.32615
G1 X89.849 Y103.056 E10.33493
G1 X90.133 Y103.204 E10.34239
G1 X90.408 Y103.408 E10.35036
G1 X90.644 Y103.659 E10.35838
G1 X90.843 Y103.942 E10.36644
G1 X90.982 Y104.236 E10.37401
G1 X91.071 Y104.55 E10.38161
G1 X91.122 Y104.977 E10.39162
G1 X91.112 Y105.213 E10.39712
G1 X91.039 Y105.588 E10.40601
G1 X90.911 Y105.924 E10.41439
G1 X90.755 Y106.196 E10.42169
G1 X90.529 Y106.473 E10.43001
G1 X90.281 Y106.692 E10.43771
G1 X89.99 Y106.875 E10.44572
G1 X89.654 Y107.018 E10.45422
G1 X89.345 Y107.093 E10.46162
G1 X89 Y107.122 E10.46968
G1 X88.655 Y107.093 E10.47774
G1 X88.346 Y107.018 E10.48514
G1 X88.01 Y106.875 E10.49365
G1 X87.719 Y106.692 E10.50165
G1 X87.471 Y106.473 E10.50935
G1 X87.245 Y106.196 E10.51768
G1 X87.089 Y105.924 E10.52498
G1 X86.961 Y105.588 E10.53335
G1 X86.888 Y105.213 E10.54224
G1 X86.878 Y104.977 E10.54774
G1 X86.929 Y104.55 E10.55775
G1 X87.018 Y104.236 E10.56535
G1 X87.157 Y103.942 E10.57292
G1 X87.356 Y103.659 E10.58098
G1 X87.592 Y103.408 E10.589
G1 X87.867 Y103.204 E10.59697
G1 X88.151 Y103.056 E10.60443
M204 S3000
M205 X10 Y10
G0 X88 Y103.382
M204 S1800
M205 X8 Y8
G1 X88 Y106.608 E10.67954
M204 S3000
M205 X10 Y10
G0 X87.715 Y106.396
M204 S1800
M205 X8 Y8
G1 X90.851 Y104.585 E10.76385
M204 S3000
M205 X10 Y10
G0 X89.135 Y106.888
M204 S1800
M205 X8 Y8
G1 X87.283 Y105.818 E10.81365
M204 S3000
M205 X10 Y10
G1 F2400 E4.81365
G1 F300 Z0.175
G0 F1500 X100.98 Y109.02 Z0.175
M204 S1800
M205 X8 Y8
G1 F300 Z0.1
G1 F2400 E10.81365
G1 F1500 X100.98 Y100.98 E11.00083
G1 X102.02 Y100.98 E11.02505
G1 X102.02 Y109.02 E11.21224
G1 X100.98 Y109.02 E11.23645
M204 S3000
M205 X10 Y10
G0 X101.199 Y107.849
M204 S1800
M205 X8 Y8
G1 X101.799 Y107.503 E11.25257
M204 S3000
M205 X10 Y10
G0 X101.8 Y104.962
M204 S1800
M205 X8 Y8
G1 X101.199 Y104.615 E11.26873
M204 S3000
M205 X10 Y10
G1 F2400 E5.26873
G1 F300 Z0.175
G0 F1500 X98.6 Y98.6 Z0.175
M204 S1800
M205 X8 Y8
;TYPE:WALL-INNER
G1 F300 Z0.1
G1 F2400 E11.26873
G1 F1500 X98.6 Y111.4 E11.56674
G1 X104.4 Y111.4 E11.70178
G1 X104.4 Y98.6 E11.99979
G1 X98.6 Y98.6 E12.13483
M204 S3000
M205 X10 Y10
G0 X91.927 Y108.621
M204 S1800
M205 X8 Y8
G1 X92.505 Y108.062 E12.15355
G1 X92.964 Y107.439 E12.17156
G1 X93.325 Y106.724 E12.19021
G1 X93.552 Y105.978 E12.20837
G1 X93.65 Y105.187 E12.22692
G1 X93.617 Y104.409 E12.24505
G1 X93.449 Y103.628 E12.26365
G1 X93.155 Y102.902 E12.28189
G1 X92.739 Y102.226 E12.30037
G1 X92.221 Y101.639 E12.3186
G1 X91.603 Y101.14 E12.33709
G1 X90.917 Y100.759 E12.35536
G1 X90.173 Y100.495 E12.37374
G1 X89.391 Y100.362 E12.39221
G1 X88.584 Y100.365 E12.411
G1 X87.824 Y100.495 E12.42895
G1 X87.068 Y100.766 E12.44764
G1 X86.816 Y100.907 E12.45437
G1 X86.4 Y101.138 E12.46545
G1 X86.4 Y100.663 E12.47174
G1 X86.4 Y100.662 E12.47176
G1 X86.4 Y99.098 E12.50817
G1 X86.425 Y98.738 E12.51658
G1 X86.479 Y98.516 E12.5219
G1 X86.577 Y98.277 E12.52791
G1 X86.705 Y98.069 E12.5336
G1 X86.873 Y97.872 E12.53962
G1 X87.06 Y97.711 E12.54537
G1 X87.277 Y97.578 E12.55129
G1 X87.506 Y97.484 E12.55706
G1 X87.746 Y97.425 E12.56281
G1 X88.085 Y97.4 E12.57073
G1 X121.954 Y97.4 E13.35927
G1 X122.252 Y97.424 E13.36623
G1 X122.484 Y97.479 E13.37178
G1 X122.725 Y97.579 E13.37785
G1 X122.933 Y97.706 E13.38353
G1 X123.128 Y97.872 E13.38949
G1 X123.294 Y98.067 E13.39545
G1 X123.421 Y98.273 E13.40109
G1 X123.519 Y98.512 E13.4071
G1 X123.578 Y98.758 E13.41299
G1 X123.6 Y99.045 E13.41969
G1 X123.6 Y110.955 E13.69698
G1 X123.577 Y111.25 E13.70387
G1 X123.521 Y111.485 E13.7095
G1 X123.423 Y111.721 E13.71544
G1 X123.289 Y111.94 E13.72142
G1 X123.131 Y112.125 E13.72709
G1 X122.94 Y112.289 E13.73295
G1 X122.723 Y112.422 E13.73887
G1 X122.494 Y112.517 E13.74465
G1 X122.251 Y112.575 E13.75046
G1 X121.956 Y112.599 E13.75735
G1 X88.113 Y112.6 E14.54529
G1 X87.739 Y112.575 E14.55402
G1 X87.516 Y112.521 E14.55936
G1 X87.277 Y112.423 E14.56537
G1 X87.069 Y112.295 E14.57106
G1 X86.872 Y112.127 E14.57709
G1 X86.711 Y111.94 E14.58283
G1 X86.578 Y111.723 E14.58876
G1 X86.483 Y111.494 E14.59453
G1 X86.425 Y111.251 E14.60034
G1 X86.401 Y110.956 E14.60724
G1 X86.401 Y109.242 E14.64714
G1 X86.401 Y109.064 E14.65129
G1 X86.401 Y108.842 E14.65645
G1 X86.73 Y109.064 E14.66115
G1 X86.892 Y109.137 E14.66456
G1 X87.451 Y109.39 E14.67885
G1 X88.216 Y109.588 E14.69725
G1 X89.023 Y109.654 E14.7161
G1 X89.806 Y109.584 E14.7344
G1 X90.555 Y109.388 E14.75243
G1 X91.284 Y109.054 E14.7711
G1 X91.927 Y108.621 E14.78915
M204 S3000
M205 X10 Y10
G0 X92.84 Y106.529
G0 X93.041 Y105.869
G0 X93.128 Y105.165
G0 X93.099 Y104.475
G0 X92.95 Y103.782
G0 X92.689 Y103.138
G0 X92.319 Y102.538
G0 X91.859 Y102.017
G0 X91.311 Y101.573
G0 X90.702 Y101.235
G0 X90.041 Y101.001
G0 X89.348 Y100.883
G0 X88.63 Y100.886
G0 X88.025 Y100.989
G0 X86.65 Y101.527
G0 X86.706 Y101.609
M204 S1800
M205 X8 Y8
G1 X86.354 Y101.896 E14.79972
G1 X86.157 Y102.057 E14.80564
G1 X85.84 Y102.417 E14.81681
G1 X85.84 Y102.057 E14.81863
G1 X85.84 Y101.802 E14.82341
G1 X85.84 Y99.073 E14.88694
G1 X85.869 Y98.657 E14.89665
G1 X85.945 Y98.342 E14.9042
G1 X86.077 Y98.02 E14.9123
G1 X86.253 Y97.736 E14.92008
G1 X86.474 Y97.476 E14.92802
G1 X86.727 Y97.259 E14.93578
G1 X87.02 Y97.079 E14.94379
G1 X87.334 Y96.949 E14.9517
G1 X87.661 Y96.869 E14.95954
G1 X88.058 Y96.84 E14.96881
G1 X121.973 Y96.84 E15.75842
G1 X122.339 Y96.869 E15.76697
G1 X122.663 Y96.947 E15.77473
G1 X122.978 Y97.077 E15.78266
G1 X123.264 Y97.252 E15.79047
G1 X123.525 Y97.475 E15.79846
G1 X123.748 Y97.736 E15.80645
G1 X123.921 Y98.017 E15.81413
G1 X124.054 Y98.341 E15.82229
G1 X124.132 Y98.667 E15.83009
G1 X124.16 Y99.028 E15.83852
G1 X124.16 Y110.974 E16.11665
G1 X124.131 Y111.341 E16.12522
G1 X124.056 Y111.656 E16.13276
G1 X123.921 Y111.981 E16.14095
G1 X123.747 Y112.265 E16.14871
G1 X123.526 Y112.524 E16.15664
G1 X123.273 Y112.741 E16.1644
G1 X122.98 Y112.921 E16.1724
G1 X122.666 Y113.051 E16.18031
G1 X122.339 Y113.13 E16.18815
G1 X121.976 Y113.159 E16.19662
G1 X88.091 Y113.16 E16.98554
G1 X87.658 Y113.131 E16.99564
G1 X87.342 Y113.055 E17.00321
G1 X87.02 Y112.923 E17.01131
G1 X86.736 Y112.747 E17.01909
G1 X86.476 Y112.526 E17.02704
G1 X86.259 Y112.273 E17.0348
G1 X86.079 Y111.98 E17.0428
G1 X85.949 Y111.666 E17.05071
G1 X85.87 Y111.339 E17.05855
G1 X85.841 Y110.976 E17.06702
G1 X85.841 Y108.258 E17.13031
G1 X85.841 Y107.705 E17.14318
G1 X85.841 Y107.588 E17.1459
G1 X85.927 Y107.705 E17.14661
G1 X86.327 Y108.087 E17.15448
G1 X86.433 Y108.188 E17.15788
G1 X87.004 Y108.573 E17.17392
G1 X87.638 Y108.86 E17.19012
G1 X88.31 Y109.034 E17.20628
G1 X89.021 Y109.092 E17.22289
G1 X89.71 Y109.03 E17.239
G1 X90.366 Y108.859 E17.25478
G1 X91.009 Y108.564 E17.27125
G1 X91.573 Y108.184 E17.28709
G1 X92.082 Y107.692 E17.30357
G1 X92.485 Y107.145 E17.31939
G1 X92.803 Y106.515 E17.33582
G1 X93.002 Y105.861 E17.35173
G1 X93.089 Y105.164 E17.36809
G1 X93.06 Y104.48 E17.38402
G1 X92.912 Y103.793 E17.40039
G1 X92.654 Y103.156 E17.41639
G1 X92.287 Y102.561 E17.43266
G1 X91.832 Y102.045 E17.44868
G1 X91.289 Y101.606 E17.46494
G1 X90.686 Y101.271 E17.481
G1 X90.031 Y101.039 E17.49718
G1 X89.345 Y100.922 E17.51338
G1 X88.633 Y100.925 E17.52995
G1 X87.967 Y101.039 E17.54569
G1 X87.3 Y101.278 E17.56218
G1 X86.706 Y101.609 E17.57801
M204 S3000
M205 X10 Y10
G0 X86.65 Y101.527
G0 X87.826 Y101.054
G0 X99.09 Y99.09
G0 X99.16 Y99.16
M204 S1800
M205 X8 Y8
G1 X99.16 Y110.84 E17.84995
G1 X103.84 Y110.84 E17.95891
G1 X103.84 Y99.16 E18.23084
G1 X99.16 Y99.16 E18.3398
M204 S3000
M205 X10 Y10
G0 X99.72 Y99.72
M204 S1800
M205 X8 Y8
;TYPE:WALL-OUTER
G1 X99.72 Y110.28 E18.58566
G1 X103.28 Y110.28 E18.66855
G1 X103.28 Y99.72 E18.91441
G1 X99.72 Y99.72 E18.99729
M204 S3000
M205 X10 Y10
G0 X99.72 Y99.92
G0 X99.06 Y99.92
G0 X88.63 Y100.886
G0 X87.957 Y101.001
G0 X86.606 Y101.563
G0 X87.022 Y102.074
M204 S1800
M205 X8 Y8
G1 X86.547 Y102.462 E19.01157
G1 X86.161 Y102.9 E19.02516
G1 X85.842 Y103.421 E19.03939
G1 X85.833 Y103.444 E19.03996
G1 X85.623 Y103.966 E19.05306
G1 X85.496 Y104.561 E19.06723
G1 X85.472 Y105.15 E19.08095
G1 X85.55 Y105.751 E19.09506
