;FLAVOR:Marlin
;TIME:729
;Filament used: 0.565075m
;Layer height: 0.2
;Generated with Cura_SteamEngine 3.5.0
M140 S60
M105
M190 S60
M104 S200
M105
M109 S200
M82 ;absolute extrusion mode
G21 ;metric values
G90 ;absolute positioning
M82 ;set extruder to absolute mode
M107 ;start with the fan off
G28 X0 Y0 ;move X/Y to min endstops
G28 Z0 ;move Z to min endstops
G1 Z15.0 F120 ;move the platform down 15mm
G92 E0 ;zero the extruded length
G1 F200 E3 ;extrude 3mm of feed stock
G92 E0 ;zero the extruded length again
G1 F120
M117 Printing...
G5
G92 E0
G1 F2400 E-6
;LAYER_COUNT:131
;LAYER:0
M106 S255
M204 S3000
M205 X10 Y10
G0 F3000 X89.212 Y100.017 Z0.3
M204 S1800
M205 X8 Y8
;TYPE:SKIRT
G1 F2400 E0
G1 X89.794 Y99.602 E0.04993
G1 X90.419 Y99.253 E0.09993
G1 X91.079 Y98.977 E0.14989
G1 X91.765 Y98.776 E0.19982
G1 X92.47 Y98.653 E0.24981
G1 X93.218 Y98.609 E0.30214
G1 X108.196 Y98.61 E1.3483
G1 X108.911 Y98.65 E1.39832
G1 X109.616 Y98.769 E1.44826
G1 X110.303 Y98.967 E1.49819
G1 X110.964 Y99.24 E1.54814
G1 X111.591 Y99.585 E1.59813
G1 X112.175 Y99.997 E1.64805
G1 X112.71 Y100.473 E1.69807
G1 X113.188 Y101.005 E1.74802
G1 X113.604 Y101.587 E1.79799
G1 X113.952 Y102.212 E1.84795
G1 X114.228 Y102.871 E1.89785
G1 X114.429 Y103.558 E1.94785
G1 X114.552 Y104.262 E1.99777
G1 X114.596 Y105.01 E2.0501
G1 X114.597 Y126.89 E3.57834
G1 X114.557 Y127.604 E3.62829
G1 X114.438 Y128.309 E3.67823
G1 X114.24 Y128.997 E3.72823
G1 X113.968 Y129.658 E3.77816
G1 X113.623 Y130.284 E3.82808
G1 X113.21 Y130.869 E3.8781
G1 X112.735 Y131.403 E3.92801
G1 X112.203 Y131.881 E3.97797
G1 X111.621 Y132.297 E4.02794
G1 X110.996 Y132.645 E4.0779
G1 X110.336 Y132.922 E4.12789
G1 X109.65 Y133.123 E4.17782
G1 X108.945 Y133.246 E4.22781
G1 X108.197 Y133.29 E4.28014
G1 X93.218 Y133.291 E5.32637
G1 X92.504 Y133.251 E5.37632
G1 X91.799 Y133.132 E5.42626
G1 X91.112 Y132.934 E5.4762
G1 X90.45 Y132.662 E5.52618
G1 X89.824 Y132.317 E5.57611
G1 X89.239 Y131.904 E5.62613
G1 X88.705 Y131.429 E5.67604
G1 X88.227 Y130.897 E5.726
G1 X87.811 Y130.315 E5.77597
G1 X87.463 Y129.69 E5.82593
G1 X87.186 Y129.031 E5.87586
G1 X86.985 Y128.344 E5.92586
G1 X86.862 Y127.64 E5.97577
G1 X86.818 Y126.891 E6.02818
G1 X86.818 Y105.009 E7.55655
G1 X86.858 Y104.295 E7.6065
G1 X86.977 Y103.59 E7.65644
G1 X87.175 Y102.902 E7.70644
G1 X87.448 Y102.241 E7.7564
G1 X87.792 Y101.614 E7.80635
G1 X88.205 Y101.03 E7.85631
G1 X88.68 Y100.496 E7.90623
G1 X89.212 Y100.017 E7.95623
M204 S3000
M205 X10 Y10
G0 F3000 X89.757 Y100.305
M204 S1800
M205 X8 Y8
G1 F2400 X90.33 Y99.933 E8.00394
G1 X90.943 Y99.63 E8.0517
G1 X91.586 Y99.402 E8.09935
G1 X92.252 Y99.249 E8.14708
G1 X93.218 Y99.169 E8.21479
G1 X108.196 Y99.17 E9.26094
G1 X108.878 Y99.21 E9.30866
G1 X109.551 Y99.329 E9.3564
G1 X110.205 Y99.527 E9.40412
G1 X110.832 Y99.799 E9.45186
G1 X111.423 Y100.142 E9.49959
G1 X111.969 Y100.552 E9.54728
G1 X112.464 Y101.024 E9.59505
G1 X112.9 Y101.549 E9.64272
G1 X113.272 Y102.122 E9.69043
G1 X113.575 Y102.735 E9.73819
G1 X113.804 Y103.379 E9.78593
G1 X113.956 Y104.045 E9.83365
G1 X114.036 Y105.01 E9.90128
G1 X114.037 Y126.89 E11.42952
G1 X113.997 Y127.572 E11.47724
G1 X113.878 Y128.245 E11.52497
G1 X113.681 Y128.899 E11.57268
G1 X113.409 Y129.525 E11.62035
G1 X113.065 Y130.116 E11.66811
G1 X112.655 Y130.663 E11.71586
G1 X112.184 Y131.157 E11.76353
G1 X111.658 Y131.594 E11.8113
G1 X111.085 Y131.966 E11.85901
G1 X110.473 Y132.268 E11.90668
G1 X109.829 Y132.497 E11.95442
G1 X109.163 Y132.65 E12.00215
G1 X108.197 Y132.73 E12.06985
G1 X93.218 Y132.731 E13.11608
G1 X92.536 Y132.691 E13.1638
G1 X91.864 Y132.572 E13.21147
G1 X91.209 Y132.375 E13.25924
G1 X90.583 Y132.103 E13.30691
G1 X89.992 Y131.759 E13.35467
G1 X89.446 Y131.349 E13.40237
G1 X88.951 Y130.878 E13.45009
G1 X88.514 Y130.352 E13.49785
G1 X88.142 Y129.779 E13.54557
G1 X87.84 Y129.167 E13.59324
G1 X87.611 Y128.523 E13.64098
G1 X87.458 Y127.857 E13.68871
G1 X87.378 Y126.891 E13.75641
G1 X87.378 Y105.009 E15.28479
G1 X87.418 Y104.327 E15.3325
G1 X87.537 Y103.654 E15.38024
G1 X87.734 Y103 E15.42795
G1 X88.007 Y102.373 E15.47571
G1 X88.35 Y101.783 E15.52338
G1 X88.76 Y101.236 E15.57112
G1 X89.231 Y100.741 E15.61885
G1 X89.757 Y100.305 E15.66657
M204 S3000
M205 X10 Y10
G0 F3000 X89.78 Y101.001
M204 S1800
M205 X8 Y8
G1 F2400 X90.298 Y100.61 E15.7119
G1 X90.861 Y100.284 E15.75734
G1 X91.459 Y100.031 E15.80269
G1 X92.083 Y99.852 E15.84803
G1 X92.725 Y99.752 E15.89341
G1 X93.218 Y99.729 E15.92789
G1 X108.196 Y99.73 E16.97404
G1 X108.845 Y99.77 E17.01946
G1 X109.483 Y99.889 E17.06479
G1 X110.102 Y100.086 E17.11016
G1 X110.693 Y100.358 E17.1556
G1 X111.245 Y100.699 E17.20092
G1 X111.751 Y101.106 E17.24628
G1 X112.204 Y101.573 E17.29172
G1 X112.596 Y102.091 E17.33709
G1 X112.921 Y102.653 E17.38244
G1 X113.174 Y103.251 E17.42779
G1 X113.353 Y103.876 E17.4732
G1 X113.453 Y104.518 E17.51858
G1 X113.476 Y105.01 E17.55298
G1 X113.477 Y126.89 E19.08122
G1 X113.437 Y127.538 E19.12657
G1 X113.318 Y128.177 E19.17197
G1 X113.121 Y128.796 E19.21734
G1 X112.85 Y129.386 E19.26269
G1 X112.508 Y129.939 E19.3081
G1 X112.101 Y130.445 E19.35346
G1 X111.635 Y130.897 E19.3988
G1 X111.117 Y131.289 E19.44417
G1 X110.554 Y131.614 E19.48958
G1 X109.956 Y131.868 E19.53496
G1 X109.332 Y132.047 E19.5803
G1 X108.69 Y132.147 E19.62568
G1 X108.197 Y132.17 E19.66015
G1 X93.218 Y132.171 E20.70638
G1 X92.57 Y132.131 E20.75173
G1 X91.931 Y132.012 E20.79713
G1 X91.312 Y131.815 E20.8425
G1 X90.722 Y131.544 E20.88785
G1 X90.17 Y131.202 E20.9332
G1 X89.663 Y130.795 E20.97861
G1 X89.211 Y130.329 E21.02396
G1 X88.819 Y129.811 E21.06933
G1 X88.494 Y129.249 E21.11468
G1 X88.24 Y128.651 E21.16005
G1 X88.061 Y128.026 E21.20546
G1 X87.961 Y127.384 E21.25085
G1 X87.938 Y126.891 E21.28532
G1 X87.938 Y105.009 E22.81369
G1 X87.978 Y104.361 E22.85904
G1 X88.097 Y103.722 E22.90444
G1 X88.294 Y103.103 E22.94981
G1 X88.565 Y102.513 E22.99516
G1 X88.907 Y101.96 E23.04057
G1 X89.314 Y101.454 E23.08593
G1 X89.78 Y101.001 E23.13132
M204 S3000
M205 X10 Y10
G1 F2400 E17.13132
G0 F3000 X94.063 Y104.335
G0 X94.063 Y105.854
G0 X106.806 Y125.22
M204 S1800
M205 X8 Y8
;TYPE:WALL-INNER
G1 F2400 E23.13132
G1 F1800 X106.806 Y125.5 E23.15088
G1 X106.526 Y125.5 E23.16354
G1 X94.609 Y125.5 E23.9959
G1 X94.609 Y106.4 E25.32996
G1 X106.805 Y106.4 E26.18181
G1 X106.806 Y125.22 E27.49631
M204 S3000
M205 X10 Y10
G0 F3000 X107.366 Y125.78
M204 S1800
M205 X8 Y8
G1 F1800 X107.366 Y126.06 E27.51587
G1 X107.086 Y126.06 E27.52853
G1 X94.049 Y126.06 E28.43912
G1 X94.049 Y105.84 E29.85141
G1 X107.365 Y105.84 E30.78148
G1 X107.366 Y125.78 E32.17422
M204 S3000
M205 X10 Y10
G0 F3000 X107.926 Y126.34
M204 S1800
M205 X8 Y8
;TYPE:WALL-OUTER
G1 F1800 X107.926 Y126.62 E32.19377
G1 X107.646 Y126.62 E32.20643
G1 X93.489 Y126.62 E33.19525
G1 X93.489 Y105.28 E34.68577
G1 X107.925 Y105.28 E35.69407
G1 X107.926 Y126.34 E37.16503
M204 S3000
M205 X10 Y10
G0 F3000 X107.926 Y126.54
G0 X107.296 Y125.99
G0 X106.256 Y124.95
M204 S1800
M205 X8 Y8
;TYPE:SKIN
G1 F1800 X95.159 Y124.95 E37.94012
G1 X95.159 Y106.95 E39.19735
G1 X106.255 Y106.95 E39.97236
G1 X106.256 Y124.95 E41.2296
M204 S3000
M205 X10 Y10
G0 F3000 X96.178 Y124.689
M204 S1800
M205 X8 Y8
G1 F1800 X95.419 Y123.929 E41.30462
M204 S3000
M205 X10 Y10
G0 F3000 X95.419 Y123.137
M204 S1800
M205 X8 Y8
G1 F1800 X96.97 Y124.689 E41.45787
M204 S3000
M205 X10 Y10
G0 F3000 X97.762 Y124.689
M204 S1800
M205 X8 Y8
G1 F1800 X95.419 Y122.345 E41.68936
M204 S3000
M205 X10 Y10
G0 F3000 X95.419 Y121.553
M204 S1800
M205 X8 Y8
G1 F1800 X98.554 Y124.689 E41.99907
M204 S3000
M205 X10 Y10
G0 F3000 X99.346 Y124.689
M204 S1800
M205 X8 Y8
G1 F1800 X95.419 Y120.761 E42.38702
M204 S3000
M205 X10 Y10
G0 F3000 X95.419 Y119.969
M204 S1800
M205 X8 Y8
G1 F1800 X100.138 Y124.689 E42.8532
M204 S3000
M205 X10 Y10
G0 F3000 X100.93 Y124.689
M204 S1800
M205 X8 Y8
G1 F1800 X95.419 Y119.177 E43.39762
M204 S3000
M205 X10 Y10
G0 F3000 X95.419 Y118.385
M204 S1800
M205 X8 Y8
G1 F1800 X101.722 Y124.689 E44.02026
M204 S3000
M205 X10 Y10
G0 F3000 X102.514 Y124.689
M204 S1800
M205 X8 Y8
G1 F1800 X95.419 Y117.593 E44.72114
M204 S3000
M205 X10 Y10
G0 F3000 X95.419 Y116.802
M204 S1800
M205 X8 Y8
G1 F1800 X103.306 Y124.689 E45.50019
M204 S3000
M205 X10 Y10
G0 F3000 X104.098 Y124.689
M204 S1800
M205 X8 Y8
G1 F1800 X95.419 Y116.01 E46.35748
M204 S3000
M205 X10 Y10
G0 F3000 X95.419 Y115.218
M204 S1800
M205 X8 Y8
G1 F1800 X104.89 Y124.689 E47.29301
M204 S3000
M205 X10 Y10
G0 F3000 X105.682 Y124.689
M204 S1800
M205 X8 Y8
G1 F1800 X95.419 Y114.426 E48.30676
M204 S3000
M205 X10 Y10
G0 F3000 X95.419 Y113.634
M204 S1800
M205 X8 Y8
G1 F1800 X105.996 Y124.211 E49.35153
M204 S3000
M205 X10 Y10
G0 F3000 X105.996 Y123.419
M204 S1800
M205 X8 Y8
G1 F1800 X95.419 Y112.842 E50.3963
M204 S3000
M205 X10 Y10
G0 F3000 X95.419 Y112.05
M204 S1800
M205 X8 Y8
G1 F1800 X105.996 Y122.627 E51.44107
M204 S3000
M205 X10 Y10
G0 F3000 X105.996 Y121.835
M204 S1800
M205 X8 Y8
G1 F1800 X95.419 Y111.258 E52.48584
M204 S3000
M205 X10 Y10
G0 F3000 X95.419 Y110.466
M204 S1800
M205 X8 Y8
G1 F1800 X105.996 Y121.043 E53.53061
M204 S3000
M205 X10 Y10
G0 F3000 X105.996 Y120.251
M204 S1800
M205 X8 Y8
G1 F1800 X95.419 Y109.674 E54.57538
M204 S3000
M205 X10 Y10
G0 F3000 X95.419 Y108.882
M204 S1800
M205 X8 Y8
G1 F1800 X105.996 Y119.459 E55.62015
M204 S3000
M205 X10 Y10
G0 F3000 X105.996 Y118.667
M204 S1800
M205 X8 Y8
G1 F1800 X95.419 Y108.09 E56.66492
M204 S3000
M205 X10 Y10
G0 F3000 X95.419 Y107.298
M204 S1800
M205 X8 Y8
G1 F1800 X105.996 Y117.875 E57.70969
M204 S3000
M205 X10 Y10
G0 F3000 X105.996 Y117.083
M204 S1800
M205 X8 Y8
G1 F1800 X96.121 Y107.209 E58.68507
M204 S3000
M205 X10 Y10
G0 F3000 X96.913 Y107.209
M204 S1800
M205 X8 Y8
G1 F1800 X105.996 Y116.291 E59.58222
M204 S3000
M205 X10 Y10
G0 F3000 X105.995 Y115.498
M204 S1800
M205 X8 Y8
G1 F1800 X97.705 Y107.209 E60.40104
M204 S3000
M205 X10 Y10
G0 F3000 X98.497 Y107.209
M204 S1800
M205 X8 Y8
G1 F1800 X105.995 Y114.706 E61.14162
M204 S3000
M205 X10 Y10
G0 F3000 X105.995 Y113.914
M204 S1800
M205 X8 Y8
G1 F1800 X99.289 Y107.209 E61.80397
M204 S3000
M205 X10 Y10
G0 F3000 X100.081 Y107.209
M204 S1800
M205 X8 Y8
G1 F1800 X105.995 Y113.122 E62.3881
M204 S3000
M205 X10 Y10
G0 F3000 X105.995 Y112.33
M204 S1800
M205 X8 Y8
G1 F1800 X100.873 Y107.209 E62.89398
M204 S3000
M205 X10 Y10
G0 F3000 X101.665 Y107.209
M204 S1800
M205 X8 Y8
G1 F1800 X105.995 Y111.539 E63.32169
M204 S3000
M205 X10 Y10
G0 F3000 X105.995 Y110.747
M204 S1800
M205 X8 Y8
G1 F1800 X102.457 Y107.209 E63.67117
M204 S3000
M205 X10 Y10
G0 F3000 X103.249 Y107.209
M204 S1800
M205 X8 Y8
G1 F1800 X105.995 Y109.955 E63.94241
M204 S3000
M205 X10 Y10
G0 F3000 X105.995 Y109.163
M204 S1800
M205 X8 Y8
G1 F1800 X104.041 Y107.209 E64.13542
M204 S3000
M205 X10 Y10
G0 F3000 X104.833 Y107.209
M204 S1800
M205 X8 Y8
G1 F1800 X105.995 Y108.371 E64.2502
M204 S3000
M205 X10 Y10
G0 F3000 X105.995 Y107.579
M204 S1800
M205 X8 Y8
G1 F1800 X105.625 Y107.209 E64.28675
M204 S3000
M205 X10 Y10
G0 F3000 X107.265 Y125.7
G0 X107.416 Y125.7
;TIME_ELAPSED:39.568619
;LAYER:1
M140 S60
G0 F4500 X107.416 Y125.7 Z0.5
M204 S1800
M205 X8 Y8
;TYPE:WALL-INNER
G1 F2700 X107.416 Y125.9 E64.2934
G1 X107.216 Y125.9 E64.29771
G1 X94.209 Y125.9 E64.73032
G1 X94.209 Y106 E65.3922
G1 X107.415 Y106 E65.83143
G1 X107.416 Y125.7 E66.48666
M204 S3000
M205 X10 Y10
G0 F4500 X107.816 Y126.1
M204 S1800
M205 X8 Y8
G1 F2700 X107.816 Y126.3 E66.49331
G1 X107.616 Y126.3 E66.49762
G1 X93.809 Y126.3 E66.95684
G1 X93.809 Y105.6 E67.64532
G1 X107.815 Y105.6 E68.11116
G1 X107.816 Y126.1 E68.793
M204 S3000
M205 X10 Y10
G0 F4500 X108.216 Y126.5
M204 S1800
M205 X8 Y8
;TYPE:WALL-OUTER
G1 F2700 X108.216 Y126.7 E68.79965
G1 X108.016 Y126.7 E68.80396
G1 X93.409 Y126.7 E69.28979
G1 X93.409 Y105.2 E70.00488
G1 X108.215 Y105.2 E70.49733
G1 X108.216 Y126.5 E71.20577
M204 S3000
M205 X10 Y10
G0 F4500 X108.216 Y126.7
G0 X107.746 Y126.23
G0 X107.026 Y125.51
M204 S1800
M205 X8 Y8
;TYPE:SKIN
G1 F1800 X94.599 Y125.51 E71.61909
G1 X94.599 Y106.39 E72.25503
G1 X107.025 Y106.39 E72.66832
G1 X107.026 Y125.51 E73.30425
M204 S3000
M205 X10 Y10
G0 F4500 X106.601 Y125.329
M204 S1800
M205 X8 Y8
G1 F1800 X106.845 Y125.085 E73.31573
M204 S3000
M205 X10 Y10
G0 F4500 X106.845 Y124.52
M204 S1800
M205 X8 Y8
G1 F1800 X106.035 Y125.329 E73.35381
M204 S3000
M205 X10 Y10
G0 F4500 X105.469 Y125.329
M204 S1800
M205 X8 Y8
G1 F1800 X106.845 Y123.954 E73.41851
M204 S3000
M205 X10 Y10
G0 F4500 X106.845 Y123.388
M204 S1800
M205 X8 Y8
G1 F1800 X104.904 Y125.329 E73.5098
M204 S3000
M205 X10 Y10
G0 F4500 X104.338 Y125.329
M204 S1800
M205 X8 Y8
G1 F1800 X106.845 Y122.823 E73.6277
M204 S3000
M205 X10 Y10
G0 F4500 X106.845 Y122.257
M204 S1800
M205 X8 Y8
G1 F1800 X103.772 Y125.329 E73.77222
M204 S3000
M205 X10 Y10
G0 F4500 X103.207 Y125.329
M204 S1800
M205 X8 Y8
G1 F1800 X106.845 Y121.691 E73.94334
M204 S3000
M205 X10 Y10
G0 F4500 X106.845 Y121.125
M204 S1800
M205 X8 Y8
G1 F1800 X102.641 Y125.329 E74.14109
M204 S3000
M205 X10 Y10
G0 F4500 X102.075 Y125.329
M204 S1800
M205 X8 Y8
G1 F1800 X106.845 Y120.56 E74.36543
M204 S3000
M205 X10 Y10
G0 F4500 X106.845 Y119.994
M204 S1800
M205 X8 Y8
G1 F1800 X101.51 Y125.329 E74.61637
M204 S3000
M205 X10 Y10
G0 F4500 X100.944 Y125.329
M204 S1800
M205 X8 Y8
G1 F1800 X106.845 Y119.428 E74.89394
M204 S3000
M205 X10 Y10
G0 F4500 X106.845 Y118.863
M204 S1800
M205 X8 Y8
G1 F1800 X100.378 Y125.329 E75.1981
M204 S3000
M205 X10 Y10
G0 F4500 X99.813 Y125.329
M204 S1800
M205 X8 Y8
G1 F1800 X106.845 Y118.297 E75.52886
M204 S3000
M205 X10 Y10
G0 F4500 X106.845 Y117.731
M204 S1800
M205 X8 Y8
G1 F1800 X99.247 Y125.329 E75.88625
M204 S3000
M205 X10 Y10
G0 F4500 X98.681 Y125.329
M204 S1800
M205 X8 Y8
G1 F1800 X106.845 Y117.166 E76.27024
M204 S3000
M205 X10 Y10
G0 F4500 X106.845 Y116.6
M204 S1800
M205 X8 Y8
G1 F1800 X98.116 Y125.329 E76.68082
M204 S3000
M205 X10 Y10
G0 F4500 X97.55 Y125.329
M204 S1800
M205 X8 Y8
G1 F1800 X106.845 Y116.034 E77.11803
M204 S3000
M205 X10 Y10
G0 F4500 X106.844 Y115.469
M204 S1800
M205 X8 Y8
G1 F1800 X96.984 Y125.329 E77.58181
M204 S3000
M205 X10 Y10
G0 F4500 X96.418 Y125.329
M204 S1800
M205 X8 Y8
G1 F1800 X106.844 Y114.904 E78.0722
M204 S3000
M205 X10 Y10
G0 F4500 X106.844 Y114.338
M204 S1800
M205 X8 Y8
G1 F1800 X95.853 Y125.329 E78.58918
M204 S3000
M205 X10 Y10
G0 F4500 X95.287 Y125.329
M204 S1800
M205 X8 Y8
G1 F1800 X106.844 Y113.772 E79.13279
M204 S3000
M205 X10 Y10
G0 F4500 X106.844 Y113.207
M204 S1800
M205 X8 Y8
G1 F1800 X94.779 Y125.272 E79.70029
M204 S3000
M205 X10 Y10
G0 F4500 X94.779 Y124.706
M204 S1800
M205 X8 Y8
G1 F1800 X106.844 Y112.641 E80.26779
M204 S3000
M205 X10 Y10
G0 F4500 X106.844 Y112.075
M204 S1800
M205 X8 Y8
G1 F1800 X94.779 Y124.141 E80.83531
M204 S3000
M205 X10 Y10
G0 F4500 X94.779 Y123.575
M204 S1800
M205 X8 Y8
G1 F1800 X106.844 Y111.51 E81.40281
M204 S3000
M205 X10 Y10
G0 F4500 X106.844 Y110.944
M204 S1800
M205 X8 Y8
G1 F1800 X94.779 Y123.009 E81.97031
M204 S3000
M205 X10 Y10
G0 F4500 X94.779 Y122.444
M204 S1800
M205 X8 Y8
G1 F1800 X106.844 Y110.378 E82.53784
M204 S3000
M205 X10 Y10
G0 F4500 X106.844 Y109.812
M204 S1800
M205 X8 Y8
G1 F1800 X94.779 Y121.878 E83.10536
M204 S3000
M205 X10 Y10
G0 F4500 X94.779 Y121.312
M204 S1800
M205 X8 Y8
G1 F1800 X106.844 Y109.247 E83.67286
M204 S3000
M205 X10 Y10
G0 F4500 X106.844 Y108.681
M204 S1800
M205 X8 Y8
G1 F1800 X94.779 Y120.746 E84.24036
M204 S3000
M205 X10 Y10
G0 F4500 X94.779 Y120.181
M204 S1800
M205 X8 Y8
G1 F1800 X106.844 Y108.115 E84.80789
M204 S3000
M205 X10 Y10
G0 F4500 X106.844 Y107.55
M204 S1800
M205 X8 Y8
G1 F1800 X94.779 Y119.615 E85.37539
M204 S3000
M205 X10 Y10
G0 F4500 X94.779 Y119.049
M204 S1800
M205 X8 Y8
G1 F1800 X106.844 Y106.984 E85.94289
M204 S3000
M205 X10 Y10
G0 F4500 X106.693 Y106.569
M204 S1800
M205 X8 Y8
G1 F1800 X94.779 Y118.484 E86.50331
M204 S3000
M205 X10 Y10
G0 F4500 X94.779 Y117.918
M204 S1800
M205 X8 Y8
G1 F1800 X106.128 Y106.569 E87.03713
M204 S3000
M205 X10 Y10
G0 F4500 X105.562 Y106.569
M204 S1800
M205 X8 Y8
G1 F1800 X94.779 Y117.352 E87.54433
M204 S3000
M205 X10 Y10
G0 F4500 X94.779 Y116.787
M204 S1800
M205 X8 Y8
G1 F1800 X104.996 Y106.569 E88.02493
