;FLAVOR:Marlin
;TIME:1883
;Filament used: 1.56079m
;Layer height: 0.2
;Generated with Cura_SteamEngine 3.5.1
M140 S90
M105
M190 S90
M104 S235
M105
M109 S235
M82 ;absolute extrusion mode
G21 ;metric values
G90 ;absolute positioning
M82 ;set extruder to absolute mode
M107 ;start with the fan off
G28 X0 Y0 ;move X/Y to min endstops
G28 Z0 ;move Z to min endstops
G1 Z15.0 F100 ;move the platform down 15mm
G92 E0 ;zero the extruded length
G1 F200 E3 ;extrude 3mm of feed stock
G92 E0 ;zero the extruded length again
G1 F100
M117 Printing...
G5
G92 E0
G1 F2400 E-6
;LAYER_COUNT:125
;LAYER:0
M106 S255
M204 S3000
M205 X10 Y10
G0 F1200 X96.296 Y93.712 Z0.3
M204 S1800
M205 X8 Y8
;TYPE:SKIRT
G1 F2400 E0
G1 X96.81 Y93.215 E0.04994
G1 X97.377 Y92.779 E0.0999
G1 X97.989 Y92.408 E0.14988
G1 X98.638 Y92.109 E0.19979
G1 X99.317 Y91.883 E0.24978
G1 X100.017 Y91.735 E0.29975
G1 X100.992 Y91.66 E0.36805
G1 X109.007 Y91.66 E0.92787
G1 X109.721 Y91.7 E0.97782
G1 X110.426 Y91.819 E1.02776
G1 X111.114 Y92.017 E1.07776
G1 X111.775 Y92.29 E1.12771
G1 X112.402 Y92.634 E1.17766
G1 X112.986 Y93.047 E1.22762
G1 X113.52 Y93.522 E1.27754
G1 X113.999 Y94.054 E1.32754
G1 X114.55 Y94.86 E1.39574
G1 X118.556 Y101.799 E1.95537
G1 X118.878 Y102.438 E2.00535
G1 X119.023 Y102.8 E2.03258
G1 X120.213 Y106.053 E2.27452
G1 X122.278 Y110.984 E2.64791
G1 X124.631 Y115.822 E3.02368
G1 X126.376 Y119.153 E3.28633
G1 X126.672 Y119.804 E3.33628
G1 X126.894 Y120.484 E3.38624
G1 X127.038 Y121.185 E3.43622
G1 X127.089 Y121.648 E3.46876
G1 X127.174 Y122.791 E3.54881
G1 X127.187 Y123.507 E3.59883
G1 X127.087 Y124.423 E3.66319
G1 X126.942 Y125.212 E3.71922
G1 X126.773 Y125.907 E3.76918
G1 X126.538 Y126.555 E3.81732
G1 X126.218 Y127.309 E3.87453
G1 X125.903 Y127.951 E3.92448
G1 X125.651 Y128.361 E3.9581
G1 X125.264 Y128.941 E4.0068
G1 X124.834 Y129.513 E4.05678
G1 X124.488 Y129.892 E4.09262
G1 X123.992 Y130.393 E4.14186
G1 X123.461 Y130.872 E4.19181
G1 X123.093 Y131.148 E4.22394
G1 X122.547 Y131.527 E4.27037
G1 X121.938 Y131.901 E4.32028
G1 X121.251 Y132.221 E4.37322
G1 X120.199 Y132.637 E4.45223
G1 X119.521 Y132.862 E4.50213
G1 X118.821 Y133.01 E4.5521
G1 X117.846 Y133.085 E4.6204
G1 X116.151 Y133.085 E4.73879
G1 X115.617 Y133.063 E4.77612
G1 X110.235 Y132.612 E5.15335
G1 X104.931 Y132.468 E5.52395
G1 X99.65 Y132.623 E5.89297
G1 X94.383 Y133.063 E6.26213
G1 X93.85 Y133.085 E6.29939
G1 X92.16 Y133.085 E6.41743
G1 X91.446 Y133.045 E6.46738
G1 X90.741 Y132.926 E6.51732
G1 X90.188 Y132.774 E6.55738
G1 X89.524 Y132.559 E6.60612
G1 X88.857 Y132.301 E6.65607
G1 X88.343 Y132.039 E6.69637
G1 X87.686 Y131.667 E6.74911
G1 X86.859 Y131.11 E6.81875
G1 X86.393 Y130.74 E6.86031
G1 X85.859 Y130.265 E6.91023
G1 X85.421 Y129.782 E6.95577
G1 X84.857 Y129.093 E7.01796
G1 X84.435 Y128.515 E7.06795
G1 X84.174 Y128.074 E7.10374
G1 X83.874 Y127.517 E7.14793
G1 X83.571 Y126.869 E7.19789
G1 X83.397 Y126.379 E7.23421
G1 X83.153 Y125.593 E7.29169
G1 X82.979 Y124.9 E7.3416
G1 X82.886 Y124.212 E7.39009
G1 X82.839 Y123.631 E7.4308
G1 X82.821 Y122.916 E7.48076
G1 X82.862 Y122.366 E7.51928
G1 X82.932 Y121.772 E7.56106
G1 X83.055 Y121.067 E7.61104
G1 X83.152 Y120.703 E7.63735
G1 X83.328 Y120.109 E7.68062
G1 X83.569 Y119.435 E7.73062
G1 X83.821 Y118.907 E7.77148
G1 X85.467 Y115.831 E8.01516
G1 X87.759 Y111.037 E8.3863
G1 X89.797 Y106.077 E8.76084
G1 X90.969 Y102.826 E9.00222
G1 X91.249 Y102.168 E9.05217
G1 X91.446 Y101.799 E9.08138
G1 X95.448 Y94.862 E9.64075
G1 X95.84 Y94.263 E9.69075
G1 X96.296 Y93.712 E9.74071
M204 S3000
M205 X10 Y10
G0 F1200 X96.748 Y94.048
M204 S1800
M205 X8 Y8
G1 F2400 X97.246 Y93.58 E9.78844
G1 X97.795 Y93.173 E9.83618
G1 X98.388 Y92.833 E9.88392
G1 X99.016 Y92.564 E9.93164
G1 X99.671 Y92.371 E9.97933
G1 X100.345 Y92.256 E10.02709
G1 X100.992 Y92.22 E10.07235
G1 X109.007 Y92.22 E10.63217
G1 X109.689 Y92.26 E10.67988
G1 X110.362 Y92.379 E10.72762
G1 X111.016 Y92.576 E10.77533
G1 X111.643 Y92.849 E10.82309
G1 X112.233 Y93.192 E10.87076
G1 X112.78 Y93.602 E10.91851
G1 X113.275 Y94.073 E10.96623
G1 X113.711 Y94.599 E11.01395
G1 X114.065 Y95.14 E11.05911
G1 X118.071 Y102.079 E11.61874
G1 X118.497 Y102.992 E11.68911
G1 X119.695 Y106.265 E11.93255
G1 X121.762 Y111.202 E12.30638
G1 X124.139 Y116.09 E12.68602
G1 X125.88 Y119.413 E12.94804
G1 X126.161 Y120.036 E12.99578
G1 X126.368 Y120.687 E13.04349
G1 X126.531 Y121.69 E13.11447
G1 X126.616 Y122.833 E13.19452
G1 X126.627 Y123.516 E13.24223
G1 X126.536 Y124.322 E13.29889
G1 X126.391 Y125.111 E13.35492
G1 X126.228 Y125.774 E13.40261
G1 X126.023 Y126.337 E13.44446
G1 X125.703 Y127.091 E13.50167
G1 X125.4 Y127.703 E13.54936
G1 X125.185 Y128.05 E13.57788
G1 X124.798 Y128.63 E13.62658
G1 X124.386 Y129.176 E13.67435
G1 X124.09 Y129.498 E13.7049
G1 X123.594 Y129.999 E13.75414
G1 X123.086 Y130.455 E13.80182
G1 X122.774 Y130.687 E13.82898
G1 X122.228 Y131.066 E13.8754
G1 X121.645 Y131.423 E13.92315
G1 X121.046 Y131.7 E13.96925
G1 X119.994 Y132.116 E14.04826
G1 X119.345 Y132.329 E14.09597
G1 X118.675 Y132.466 E14.14374
G1 X117.846 Y132.525 E14.20178
G1 X116.151 Y132.525 E14.32017
G1 X115.663 Y132.505 E14.35429
G1 X110.261 Y132.052 E14.73292
G1 X104.93 Y131.907 E15.10541
G1 X99.624 Y132.063 E15.47617
G1 X94.336 Y132.505 E15.84681
G1 X93.85 Y132.525 E15.88078
G1 X92.16 Y132.525 E15.99882
G1 X91.478 Y132.485 E16.04654
G1 X90.805 Y132.366 E16.09428
G1 X90.361 Y132.241 E16.12649
G1 X89.697 Y132.026 E16.17524
G1 X89.06 Y131.778 E16.22299
G1 X88.619 Y131.552 E16.2576
G1 X87.962 Y131.18 E16.31033
G1 X87.208 Y130.672 E16.37383
G1 X86.742 Y130.302 E16.41539
G1 X86.232 Y129.846 E16.46318
G1 X85.854 Y129.427 E16.50259
G1 X85.29 Y128.738 E16.56479
G1 X84.889 Y128.185 E16.6125
G1 X84.667 Y127.808 E16.64305
G1 X84.367 Y127.251 E16.68724
G1 X84.079 Y126.632 E16.73493
G1 X83.932 Y126.213 E16.76594
G1 X83.688 Y125.427 E16.82343
G1 X83.524 Y124.764 E16.87113
G1 X83.444 Y124.167 E16.9132
G1 X83.397 Y123.586 E16.95391
G1 X83.382 Y122.903 E17.00163
G1 X83.418 Y122.432 E17.03462
G1 X83.488 Y121.838 E17.0764
G1 X83.689 Y120.862 E17.146
G1 X83.865 Y120.268 E17.18927
G1 X84.097 Y119.625 E17.23702
G1 X84.315 Y119.171 E17.27219
G1 X85.961 Y116.095 E17.51587
G1 X88.275 Y111.256 E17.89051
G1 X90.32 Y106.276 E18.26653
G1 X91.496 Y103.016 E18.50859
G1 X91.765 Y102.388 E18.55631
G1 X91.931 Y102.079 E18.58081
G1 X95.933 Y95.142 E19.14018
G1 X96.309 Y94.571 E19.18793
G1 X96.748 Y94.048 E19.23563
M204 S3000
M205 X10 Y10
G0 F1200 X97.2 Y94.386
M204 S1800
M205 X8 Y8
G1 F2400 X97.679 Y93.948 E19.28096
G1 X98.209 Y93.573 E19.32631
G1 X98.781 Y93.265 E19.37168
G1 X99.387 Y93.03 E19.41708
G1 X100.017 Y92.871 E19.46247
G1 X100.661 Y92.79 E19.5078
G1 X100.992 Y92.78 E19.53093
G1 X109.007 Y92.78 E20.09075
G1 X109.655 Y92.82 E20.13609
G1 X110.294 Y92.939 E20.18149
G1 X110.913 Y93.136 E20.22687
G1 X111.503 Y93.407 E20.27221
G1 X112.056 Y93.749 E20.31763
G1 X112.562 Y94.156 E20.36299
G1 X113.015 Y94.622 E20.40838
G1 X113.406 Y95.14 E20.45371
G1 X113.58 Y95.42 E20.47673
G1 X117.586 Y102.359 E21.03637
G1 X117.971 Y103.184 E21.09996
G1 X119.176 Y106.476 E21.34481
G1 X121.251 Y111.434 E21.72021
G1 X123.634 Y116.332 E22.10066
G1 X125.384 Y119.673 E22.36409
G1 X125.65 Y120.266 E22.40949
G1 X125.84 Y120.887 E22.45485
G1 X125.972 Y121.731 E22.51451
G1 X126.057 Y122.874 E22.59457
G1 X126.066 Y123.524 E22.63997
G1 X125.985 Y124.22 E22.68891
G1 X125.84 Y125.009 E22.74494
G1 X125.684 Y125.64 E22.79034
G1 X125.507 Y126.118 E22.82595
G1 X125.187 Y126.872 E22.88316
G1 X124.897 Y127.453 E22.92851
G1 X124.719 Y127.74 E22.9521
G1 X124.332 Y128.32 E23.0008
G1 X123.939 Y128.837 E23.04616
G1 X123.692 Y129.104 E23.07156
G1 X123.196 Y129.605 E23.12081
G1 X122.455 Y130.227 E23.18838
G1 X121.909 Y130.606 E23.2348
G1 X121.353 Y130.943 E23.28021
G1 X120.84 Y131.179 E23.31965
G1 X119.788 Y131.595 E23.39867
G1 X119.17 Y131.796 E23.44406
G1 X118.532 Y131.92 E23.48946
G1 X117.846 Y131.965 E23.53747
G1 X116.151 Y131.965 E23.65586
G1 X115.71 Y131.947 E23.68669
G1 X110.288 Y131.493 E24.06672
G1 X104.946 Y131.347 E24.43998
G1 X99.58 Y131.505 E24.81494
G1 X94.29 Y131.947 E25.18571
G1 X93.85 Y131.965 E25.21647
G1 X92.16 Y131.965 E25.33451
G1 X91.512 Y131.925 E25.37986
G1 X90.873 Y131.806 E25.42526
G1 X90.534 Y131.708 E25.4499
G1 X89.87 Y131.493 E25.49865
G1 X89.265 Y131.255 E25.54406
G1 X88.894 Y131.065 E25.57317
G1 X88.237 Y130.693 E25.62591
G1 X87.556 Y130.233 E25.68331
G1 X87.09 Y129.863 E25.72487
G1 X86.607 Y129.429 E25.77022
G1 X86.287 Y129.072 E25.80371
G1 X85.723 Y128.383 E25.8659
G1 X85.344 Y127.856 E25.91124
G1 X85.16 Y127.543 E25.9366
G1 X84.86 Y126.986 E25.98079
G1 X84.588 Y126.396 E26.02617
G1 X84.466 Y126.047 E26.05199
G1 X84.222 Y125.261 E26.10947
G1 X84.068 Y124.63 E26.15484
G1 X84.002 Y124.122 E26.19062
G1 X83.955 Y123.541 E26.23133
G1 X83.943 Y122.891 E26.27674
G1 X83.974 Y122.497 E26.30434
G1 X84.044 Y121.903 E26.34612
G1 X84.226 Y121.021 E26.40902
G1 X84.402 Y120.427 E26.45229
G1 X84.624 Y119.817 E26.49763
G1 X84.809 Y119.435 E26.52728
G1 X86.46 Y116.351 E26.77161
G1 X88.787 Y111.482 E27.14854
G1 X90.844 Y106.475 E27.52662
G1 X92.023 Y103.206 E27.76934
G1 X92.417 Y102.359 E27.83459
G1 X96.419 Y95.422 E28.39396
G1 X96.777 Y94.88 E28.43933
G1 X97.2 Y94.386 E28.48476
M204 S3000
M205 X10 Y10
G1 F2400 E22.48476
G0 F1200 X100.163 Y98.147
G0 X101.481 Y98.906
G0 X101.246 Y100.489
M204 S1800
M205 X8 Y8
;TYPE:WALL-INNER
G1 F2400 E28.48476
G1 F600 X101.138 Y100.588 E28.49499
G1 X101.207 Y100.468 E28.4952
G1 X101.429 Y100.081 E28.52611
G1 X101.642 Y99.712 E28.55587
G1 X101.794 Y99.449 E28.57709
G1 X102.033 Y99.449 E28.59378
G1 X102.46 Y99.449 E28.62361
G1 X102.903 Y99.449 E28.65455
G1 X103.105 Y99.449 E28.66866
G1 X102.903 Y99.518 E28.67013
G1 X102.46 Y99.708 E28.68143
G1 X102.05 Y99.927 E28.70354
G1 X102.033 Y99.936 E28.70359
G1 X101.629 Y100.195 E28.72755
G1 X101.246 Y100.489 E28.7391
M204 S3000
M205 X10 Y10
G0 F1200 X99.134 Y104.764
M204 S1800
M205 X8 Y8
G1 F600 X99.136 Y104.995 E28.75523
G1 X99.14 Y105.366 E28.78115
G1 X99.19 Y105.849 E28.81506
G1 X99.243 Y106.13 E28.83504
G1 X99.108 Y105.897 E28.83635
G1 X98.887 Y105.513 E28.84884
G1 X98.592 Y105.001 E28.88185
G1 X98.829 Y104.589 E28.91025
G1 X99.048 Y104.209 E28.94088
G1 X99.241 Y103.875 E28.96782
G1 X99.175 Y104.282 E28.97279
G1 X99.134 Y104.764 E28.98907
M204 S3000
M205 X10 Y10
G0 F1200 X100.019 Y106.91
G0 X101.343 Y109.594
M204 S1800
M205 X8 Y8
G1 F600 X101.719 Y109.869 E29.02161
G1 X102.077 Y110.09 E29.05099
G1 X102.116 Y110.114 E29.05419
G1 X102.527 Y110.323 E29.0864
G1 X102.942 Y110.497 E29.11783
G1 X103.103 Y110.55 E29.12967
G1 X102.942 Y110.55 E29.13007
G1 X102.527 Y110.55 E29.13684
G1 X102.116 Y110.55 E29.15346
G1 X101.794 Y110.55 E29.17433
G1 X101.686 Y110.362 E29.18751
G1 X101.481 Y110.007 E29.20685
G1 X101.268 Y109.638 E29.21597
G1 X101.143 Y109.421 E29.22579
G1 X101.343 Y109.594 E29.22789
M204 S3000
M205 X10 Y10
G0 F1200 X104.15 Y110.283
G0 X104.847 Y110.312
G0 X107.476 Y110.324
M204 S1800
M205 X8 Y8
G1 F600 X107.963 Y110.076 E29.26606
G1 X108.099 Y110.006 E29.27674
G1 X108.396 Y109.831 E29.30082
G1 X108.657 Y109.657 E29.32273
G1 X108.771 Y109.571 E29.3327
G1 X108.706 Y109.684 E29.33292
G1 X108.565 Y109.929 E29.33689
G1 X108.416 Y110.187 E29.34682
G1 X108.206 Y110.551 E29.37233
G1 X108.099 Y110.551 E29.37925
G1 X107.476 Y110.551 E29.40861
G1 X107.094 Y110.551 E29.43529
G1 X106.892 Y110.551 E29.4494
G1 X107.094 Y110.482 E29.45088
G1 X107.476 Y110.324 E29.45969
M204 S3000
M205 X10 Y10
G0 F1200 X109.379 Y108.223
G0 X109.844 Y107.467
G0 X110.178 Y106.52
G0 X110.781 Y103.973
M204 S1800
M205 X8 Y8
G1 F600 X110.759 Y103.873 E29.46685
G1 X110.807 Y103.957 E29.46689
G1 X111.134 Y104.524 E29.51261
G1 X111.363 Y104.921 E29.54462
G1 X111.408 Y104.999 E29.55091
G1 X111.197 Y105.364 E29.58036
G1 X111.062 Y105.599 E29.59928
G1 X110.929 Y105.828 E29.61778
G1 X110.843 Y105.978 E29.62986
G1 X110.866 Y105.793 E29.63135
G1 X110.89 Y105.5 E29.63739
G1 X110.895 Y105.191 E29.64893
G1 X110.888 Y105.023 E29.6562
G1 X110.871 Y104.677 E29.67231
G1 X110.781 Y103.973 E29.69134
M204 S3000
M205 X10 Y10
G0 F1200 X109.159 Y101.637
G0 X107.172 Y99.545
M204 S1800
M205 X8 Y8
G1 F600 X106.898 Y99.45 E29.71159
G1 X107.172 Y99.45 E29.71296
G1 X107.617 Y99.45 E29.74367
G1 X108.046 Y99.45 E29.77363
G1 X108.206 Y99.45 E29.7848
G1 X108.396 Y99.779 E29.81134
G1 X108.614 Y100.157 E29.84182
G1 X108.858 Y100.579 E29.87587
G1 X108.451 Y100.252 E29.8835
G1 X108.046 Y99.981 E29.90273
G1 X107.946 Y99.926 E29.90808
G1 X107.617 Y99.745 E29.92607
G1 X107.172 Y99.545 E29.93935
M204 S3000
M205 X10 Y10
G0 F1200 X108.479 Y98.976
G0 X108.529 Y98.89
M204 S1800
M205 X8 Y8
G1 F600 X112.055 Y104.999 E30.43201
G1 X108.529 Y111.111 E30.92486
G1 X101.471 Y111.11 E31.41783
G1 X97.945 Y105.001 E31.91049
G1 X101.471 Y98.889 E32.40334
G1 X108.529 Y98.89 E32.89632
M204 S3000
M205 X10 Y10
G0 F1200 X108.479 Y98.976
G0 X110.162 Y103.592
G0 X110.352 Y104.723
G0 X110.323 Y105.944
G0 X110.02 Y107.082
G0 X109.713 Y107.695
G0 X108.905 Y108.853
G0 X108.836 Y108.782
M204 S1800
M205 X8 Y8
G1 F600 X109.1 Y108.5 E32.9233
G1 X109.347 Y108.2 E32.95044
G1 X109.605 Y107.82 E32.98252
G1 X109.809 Y107.45 E33.01203
G1 X109.983 Y107.068 E33.04135
G1 X110.125 Y106.662 E33.07139
G1 X110.219 Y106.289 E33.09826
G1 X110.284 Y105.938 E33.12319
G1 X110.309 Y105.736 E33.13741
G1 X110.33 Y105.473 E33.15584
G1 X110.335 Y105.199 E33.17498
G1 X110.313 Y104.726 E33.20805
G1 X110.229 Y104.07 E33.25424
G1 X110.124 Y103.602 E33.28774
G1 X109.996 Y103.197 E33.31741
G1 X109.835 Y102.809 E33.34675
G1 X109.607 Y102.359 E33.38199
G1 X109.382 Y102 E33.41158
G1 X109.129 Y101.662 E33.44107
G1 X108.789 Y101.28 E33.47679
G1 X108.464 Y100.978 E33.50778
G1 X108.12 Y100.705 E33.53845
G1 X107.755 Y100.46 E33.56915
G1 X107.367 Y100.247 E33.60007
G1 X106.965 Y100.066 E33.63086
G1 X106.548 Y99.921 E33.6617
G1 X106.123 Y99.809 E33.6924
G1 X105.689 Y99.734 E33.72316
G1 X105.251 Y99.695 E33.75387
G1 X104.813 Y99.693 E33.78447
G1 X104.377 Y99.726 E33.81501
G1 X103.942 Y99.795 E33.84577
G1 X103.516 Y99.901 E33.87643
G1 X103.104 Y100.041 E33.90682
G1 X102.703 Y100.213 E33.9373
G1 X102.317 Y100.419 E33.96786
G1 X101.951 Y100.654 E33.99824
G1 X101.605 Y100.919 E34.02868
G1 X101.212 Y101.277 E34.06581
G1 X100.916 Y101.606 E34.09672
G1 X100.654 Y101.949 E34.12687
G1 X100.417 Y102.315 E34.15732
G1 X100.212 Y102.701 E34.18785
G1 X100.041 Y103.099 E34.21811
G1 X99.904 Y103.509 E34.2483
G1 X99.8 Y103.926 E34.27832
G1 X99.731 Y104.351 E34.30839
G1 X99.694 Y104.785 E34.33881
G1 X99.7 Y105.334 E34.37716
G1 X99.745 Y105.768 E34.40764
G1 X99.825 Y106.192 E34.43778
G1 X99.938 Y106.604 E34.46762
G1 X100.083 Y107.01 E34.49773
G1 X100.263 Y107.396 E34.52748
G1 X100.468 Y107.766 E34.55702
G1 X100.705 Y108.122 E34.58689
G1 X101.069 Y108.57 E34.62721
G1 X101.372 Y108.879 E34.65744
G1 X101.692 Y109.155 E34.68695
G1 X102.032 Y109.404 E34.71639
G1 X102.39 Y109.625 E34.74577
G1 X102.762 Y109.814 E34.77492
G1 X103.139 Y109.972 E34.80347
G1 X103.519 Y110.098 E34.83143
G1 X103.75 Y110.162 E34.84817
G1 X104.156 Y110.244 E34.8771
G1 X104.564 Y110.291 E34.90579
G1 X104.971 Y110.31 E34.93425
G1 X105.378 Y110.297 E34.96269
G1 X105.778 Y110.252 E34.9908
G1 X106.164 Y110.18 E35.01823
G1 X106.538 Y110.08 E35.04527
G1 X106.896 Y109.958 E35.07169
G1 X107.241 Y109.815 E35.09777
G1 X107.829 Y109.515 E35.14388
G1 X108.098 Y109.356 E35.1657
G1 X108.333 Y109.2 E35.1854
G1 X108.513 Y109.064 E35.20116
G1 X108.836 Y108.782 E35.23111
M204 S3000
M205 X10 Y10
G0 F1200 X108.446 Y108.379
M204 S1800
M205 X8 Y8
;TYPE:WALL-OUTER
G1 F600 X108.679 Y108.13 E35.25493
G1 X108.898 Y107.864 E35.279
G1 X109.127 Y107.527 E35.30745
G1 X109.308 Y107.198 E35.33368
G1 X109.463 Y106.859 E35.35972
G1 X109.588 Y106.501 E35.3862
G1 X109.672 Y106.17 E35.41005
G1 X109.73 Y105.852 E35.43263
G1 X109.752 Y105.679 E35.44481
G1 X109.77 Y105.446 E35.46113
G1 X109.775 Y105.206 E35.4779
G1 X109.755 Y104.775 E35.50804
G1 X109.677 Y104.167 E35.55085
G1 X109.583 Y103.748 E35.58085
G1 X109.469 Y103.389 E35.60715
G1 X109.326 Y103.043 E35.6333
G1 X109.119 Y102.635 E35.66526
G1 X108.92 Y102.317 E35.69146
G1 X108.695 Y102.017 E35.71765
