;FLAVOR:Marlin
;TIME:2159
;Filament used: 2.02909m
;Layer height: 0.2
;Generated with Cura_SteamEngine 3.5.1
M140 S90
M105
M190 S90
M104 S235
M105
M109 S235
M82 ;absolute extrusion mode
G21 ;metric values
G90 ;absolute positioning
M82 ;set extruder to absolute mode
M107 ;start with the fan off
G28 X0 Y0 ;move X/Y to min endstops
G28 Z0 ;move Z to min endstops
G1 Z15.0 F100 ;move the platform down 15mm
G92 E0 ;zero the extruded length
G1 F200 E3 ;extrude 3mm of feed stock
G92 E0 ;zero the extruded length again
G1 F100
M117 Printing...
G5
G92 E0
G1 F2400 E-6
;LAYER_COUNT:120
;LAYER:0
M106 S255
M204 S3000
M205 X10 Y10
G0 F1200 X76.258 Y84.276 Z0.3
M204 S1800
M205 X8 Y8
;TYPE:SKIRT
G1 F2400 E0
G1 X76.839 Y83.859 E0.04995
G1 X77.463 Y83.51 E0.09989
G1 X78.122 Y83.232 E0.14985
G1 X78.808 Y83.03 E0.19979
G1 X79.513 Y82.905 E0.2498
G1 X80.273 Y82.86 E0.30298
G1 X129.728 Y82.86 E3.75723
G1 X130.442 Y82.9 E3.80718
G1 X131.147 Y83.019 E3.85711
G1 X131.835 Y83.217 E3.90712
G1 X132.496 Y83.49 E3.95707
G1 X133.123 Y83.834 E4.00702
G1 X133.707 Y84.247 E4.05698
G1 X134.241 Y84.722 E4.1069
G1 X134.72 Y85.254 E4.1569
G1 X135.135 Y85.836 E4.20683
G1 X135.484 Y86.461 E4.25683
G1 X135.76 Y87.121 E4.30679
G1 X135.961 Y87.807 E4.35672
G1 X136.084 Y88.512 E4.40671
G1 X136.128 Y89.277 E4.46023
G1 X136.124 Y90.801 E4.56667
G1 X136.082 Y91.515 E4.61663
G1 X135.997 Y92.051 E4.65454
G1 X135.935 Y92.358 E4.67641
G1 X135.755 Y93.05 E4.72635
G1 X135.498 Y93.718 E4.77635
G1 X135.108 Y94.452 E4.8344
G1 X130.93 Y101.222 E5.39006
G1 X128.461 Y105.866 E5.75741
G1 X126.234 Y110.694 E6.12878
G1 X124.268 Y115.674 E6.50274
G1 X123.442 Y118.069 E6.67969
G1 X122.065 Y122.601 E7.01052
G1 X121.819 Y123.272 E7.06044
G1 X121.499 Y123.912 E7.11042
G1 X121.111 Y124.513 E7.16038
G1 X120.657 Y125.066 E7.21036
G1 X120.145 Y125.565 E7.26029
G1 X119.581 Y126.004 E7.31021
G1 X118.97 Y126.378 E7.36025
G1 X118.322 Y126.68 E7.41018
G1 X117.645 Y126.909 E7.4601
G1 X116.946 Y127.061 E7.51006
G1 X115.941 Y127.14 E7.58048
G1 X98.959 Y127.14 E8.76661
G1 X98.245 Y127.1 E8.81655
G1 X97.54 Y126.981 E8.86649
G1 X96.852 Y126.783 E8.9165
G1 X96.191 Y126.51 E8.96645
G1 X95.564 Y126.166 E9.0164
G1 X94.98 Y125.753 E9.06636
G1 X94.446 Y125.278 E9.11628
G1 X93.967 Y124.746 E9.16628
G1 X93.552 Y124.164 E9.2162
G1 X93.119 Y123.359 E9.28005
G1 X90.509 Y117.539 E9.72556
G1 X88.053 Y112.836 E10.09614
G1 X85.351 Y108.314 E10.46407
G1 X82.375 Y103.916 E10.83498
G1 X79.18 Y99.723 E11.20318
G1 X75.686 Y95.634 E11.57884
G1 X75.253 Y95.065 E11.62878
G1 X75.004 Y94.667 E11.66157
G1 X74.79 Y94.295 E11.69155
G1 X74.469 Y93.656 E11.7415
G1 X74.221 Y92.986 E11.7914
G1 X74.083 Y92.46 E11.82938
G1 X74.021 Y92.174 E11.84982
G1 X73.909 Y91.468 E11.89975
G1 X73.876 Y90.83 E11.94437
G1 X73.873 Y89.272 E12.05319
G1 X73.912 Y88.558 E12.10313
G1 X74.03 Y87.853 E12.15306
G1 X74.226 Y87.165 E12.20303
G1 X74.497 Y86.503 E12.25299
G1 X74.841 Y85.876 E12.30294
G1 X75.252 Y85.291 E12.35288
G1 X75.727 Y84.755 E12.4029
G1 X76.258 Y84.276 E12.45285
M204 S3000
M205 X10 Y10
G0 F1200 X76.803 Y84.563
M204 S1800
M205 X8 Y8
G1 F2400 X77.375 Y84.19 E12.50054
G1 X77.987 Y83.886 E12.54827
G1 X78.631 Y83.656 E12.59604
G1 X79.296 Y83.502 E12.64371
G1 X80.273 Y83.42 E12.71219
G1 X129.728 Y83.42 E16.16644
G1 X130.41 Y83.46 E16.21416
G1 X131.083 Y83.579 E16.26189
G1 X131.737 Y83.776 E16.3096
G1 X132.364 Y84.049 E16.35737
G1 X132.954 Y84.392 E16.40503
G1 X133.501 Y84.802 E16.45278
G1 X133.996 Y85.273 E16.5005
G1 X134.432 Y85.799 E16.54822
G1 X134.804 Y86.372 E16.59594
G1 X135.107 Y86.985 E16.6437
G1 X135.335 Y87.628 E16.69135
G1 X135.488 Y88.294 E16.73908
G1 X135.568 Y89.275 E16.80783
G1 X135.564 Y90.799 E16.91427
G1 X135.522 Y91.481 E16.962
G1 X135.448 Y91.94 E16.99447
G1 X135.386 Y92.247 E17.01635
G1 X135.212 Y92.908 E17.06409
G1 X134.962 Y93.544 E17.11182
G1 X134.632 Y94.158 E17.16051
G1 X130.443 Y100.946 E17.71764
G1 X127.951 Y105.633 E18.0884
G1 X125.721 Y110.468 E18.4603
G1 X123.747 Y115.469 E18.83583
G1 X122.905 Y117.908 E19.01605
G1 X121.529 Y122.438 E19.34672
G1 X121.292 Y123.079 E19.39446
G1 X120.982 Y123.688 E19.44219
G1 X120.604 Y124.256 E19.48984
G1 X120.161 Y124.777 E19.53761
G1 X119.661 Y125.242 E19.5853
G1 X119.109 Y125.646 E19.63308
G1 X118.515 Y125.982 E19.68075
G1 X117.885 Y126.247 E19.72848
G1 X117.228 Y126.436 E19.77623
G1 X116.554 Y126.548 E19.82396
G1 X115.941 Y126.58 E19.86683
G1 X98.959 Y126.58 E21.05296
G1 X98.277 Y126.54 E21.10068
G1 X97.604 Y126.421 E21.14841
G1 X96.95 Y126.224 E21.19612
G1 X96.323 Y125.951 E21.24388
G1 X95.733 Y125.608 E21.29155
G1 X95.186 Y125.198 E21.3393
G1 X94.691 Y124.727 E21.38702
G1 X94.255 Y124.201 E21.43474
G1 X93.883 Y123.628 E21.48246
G1 X93.63 Y123.129 E21.52153
G1 X91.01 Y117.286 E21.9688
G1 X88.549 Y112.575 E22.34003
G1 X85.822 Y108.011 E22.71138
G1 X82.839 Y103.601 E23.08325
G1 X79.605 Y99.358 E23.45588
G1 X76.112 Y95.27 E23.83145
G1 X75.699 Y94.725 E23.87921
G1 X75.49 Y94.388 E23.90691
G1 X75.276 Y94.016 E23.93688
G1 X74.97 Y93.405 E23.98461
G1 X74.738 Y92.762 E24.03236
G1 X74.631 Y92.341 E24.0627
G1 X74.569 Y92.055 E24.08314
G1 X74.463 Y91.38 E24.13086
G1 X74.436 Y90.829 E24.16939
G1 X74.433 Y89.271 E24.27821
G1 X74.472 Y88.589 E24.32593
G1 X74.59 Y87.916 E24.37365
G1 X74.786 Y87.262 E24.42134
G1 X75.057 Y86.634 E24.46911
G1 X75.399 Y86.043 E24.5168
G1 X75.808 Y85.496 E24.56451
G1 X76.278 Y85 E24.61223
G1 X76.803 Y84.563 E24.65994
M204 S3000
M205 X10 Y10
G0 F1200 X76.828 Y85.259
M204 S1800
M205 X8 Y8
G1 F2400 X77.345 Y84.866 E24.7053
G1 X77.907 Y84.54 E24.75068
G1 X78.504 Y84.285 E24.79603
G1 X79.128 Y84.106 E24.84137
G1 X79.77 Y84.004 E24.88677
G1 X80.273 Y83.98 E24.92194
G1 X129.728 Y83.98 E28.37619
G1 X130.376 Y84.02 E28.42154
G1 X131.015 Y84.139 E28.46694
G1 X131.634 Y84.336 E28.51231
G1 X132.224 Y84.607 E28.55766
G1 X132.777 Y84.949 E28.60307
G1 X133.283 Y85.356 E28.64843
G1 X133.736 Y85.822 E28.69382
G1 X134.127 Y86.34 E28.73915
G1 X134.453 Y86.903 E28.78459
G1 X134.706 Y87.501 E28.82994
G1 X134.885 Y88.125 E28.87529
G1 X134.985 Y88.767 E28.92067
G1 X135.008 Y89.274 E28.95612
G1 X135.004 Y90.798 E29.06256
G1 X134.962 Y91.446 E29.10792
G1 X134.9 Y91.829 E29.13502
G1 X134.838 Y92.136 E29.15689
G1 X134.67 Y92.764 E29.2023
G1 X134.427 Y93.366 E29.24764
G1 X134.155 Y93.864 E29.28728
G1 X129.959 Y100.664 E29.84538
G1 X127.455 Y105.372 E30.21783
G1 X125.199 Y110.263 E30.59404
G1 X123.218 Y115.285 E30.97111
G1 X122.376 Y117.724 E31.15133
G1 X120.993 Y122.275 E31.48355
G1 X120.766 Y122.884 E31.52895
G1 X120.466 Y123.46 E31.57431
G1 X120.098 Y123.995 E31.61966
G1 X119.667 Y124.481 E31.66504
G1 X119.179 Y124.91 E31.71042
G1 X118.643 Y125.276 E31.75575
G1 X118.065 Y125.574 E31.80117
G1 X117.455 Y125.798 E31.84656
G1 X116.823 Y125.946 E31.8919
G1 X115.941 Y126.02 E31.95372
G1 X98.959 Y126.02 E33.13985
G1 X98.311 Y125.98 E33.18519
G1 X97.672 Y125.861 E33.23059
G1 X97.053 Y125.664 E33.27597
G1 X96.463 Y125.393 E33.32131
G1 X95.91 Y125.051 E33.36673
G1 X95.404 Y124.644 E33.41209
G1 X94.951 Y124.178 E33.45748
G1 X94.56 Y123.66 E33.50281
G1 X94.141 Y122.9 E33.56342
G1 X91.517 Y117.048 E34.01137
G1 X89.04 Y112.306 E34.38505
G1 X86.285 Y107.695 E34.76022
G1 X83.288 Y103.266 E35.13374
G1 X80.047 Y99.013 E35.50721
G1 X76.538 Y94.906 E35.88452
G1 X76.147 Y94.387 E35.9299
G1 X75.975 Y94.109 E35.95274
G1 X75.761 Y93.737 E35.98271
G1 X75.473 Y93.155 E36.02807
G1 X75.258 Y92.542 E36.07344
G1 X75.178 Y92.223 E36.09641
G1 X75.116 Y91.937 E36.11685
G1 X75.018 Y91.294 E36.16228
G1 X74.996 Y90.828 E36.19487
G1 X74.993 Y89.27 E36.30369
G1 X75.032 Y88.622 E36.34903
G1 X75.15 Y87.983 E36.39442
G1 X75.345 Y87.363 E36.43981
G1 X75.616 Y86.773 E36.48516
G1 X75.956 Y86.22 E36.5305
G1 X76.362 Y85.712 E36.57592
G1 X76.828 Y85.259 E36.62132
M204 S3000
M205 X10 Y10
G1 F2400 E30.62132
G0 F1200 X81.119 Y88.585
G0 X81.119 Y90.104
G0 X127.039 Y91.209
M204 S1800
M205 X8 Y8
;TYPE:WALL-INNER
G1 F2400 E36.62132
G1 F600 X126.698 Y91.274 E36.64556
G1 X126.123 Y91.339 E36.68598
G1 X125.819 Y91.35 E36.70723
G1 X117.91 Y91.35 E37.25964
G1 X117.571 Y91.37 E37.28336
G1 X117.195 Y91.432 E37.30998
G1 X116.823 Y91.539 E37.33701
G1 X116.47 Y91.688 E37.36378
G1 X116.142 Y91.87 E37.38998
G1 X115.829 Y92.089 E37.41666
G1 X115.544 Y92.344 E37.44337
G1 X115.289 Y92.629 E37.47008
G1 X115.07 Y92.942 E37.49676
G1 X114.888 Y93.27 E37.52296
G1 X114.739 Y93.623 E37.54972
G1 X114.632 Y93.995 E37.57676
G1 X114.57 Y94.371 E37.60338
G1 X114.55 Y94.71 E37.6271
G1 X114.55 Y119.35 E39.34811
G1 X100.35 Y119.35 E40.33993
G1 X100.349 Y94.694 E42.06206
G1 X100.328 Y94.351 E42.08606
G1 X100.262 Y93.973 E42.11286
G1 X100.153 Y93.605 E42.13967
G1 X100.006 Y93.253 E42.16631
G1 X99.819 Y92.921 E42.19292
G1 X99.596 Y92.612 E42.21954
G1 X99.34 Y92.329 E42.24619
G1 X99.053 Y92.077 E42.27287
G1 X98.743 Y91.86 E42.2993
G1 X98.407 Y91.676 E42.32606
G1 X98.055 Y91.534 E42.35257
G1 X97.69 Y91.43 E42.37908
G1 X97.329 Y91.37 E42.40464
G1 X97.003 Y91.351 E42.42745
G1 X84.183 Y91.35 E43.32288
G1 X83.867 Y91.338 E43.34496
G1 X83.306 Y91.275 E43.38439
G1 X82.956 Y91.21 E43.40926
G1 X82.673 Y91.139 E43.42964
G1 X82.433 Y91.064 E43.4472
G1 X82.228 Y90.983 E43.46259
G1 X82.056 Y90.904 E43.47581
G1 X81.9 Y90.819 E43.48822
G1 X81.824 Y90.769 E43.49458
G1 X81.68 Y90.65 E43.50762
G1 X81.824 Y90.65 E43.50798
G1 X81.9 Y90.65
G1 X82.056 Y90.65 E43.51185
G1 X82.228 Y90.65 E43.51802
G1 X82.433 Y90.65 E43.52748
G1 X82.673 Y90.65 E43.54097
G1 X82.956 Y90.65 E43.55947
G1 X127.038 Y90.65 E46.63843
G1 X127.043 Y90.65 E46.63878
G1 X127.337 Y90.65 E46.65932
G1 X127.562 Y90.65 E46.67503
G1 X127.761 Y90.65 E46.68893
G1 X127.937 Y90.65 E46.70123
G1 X128.195 Y90.65 E46.71925
G1 X128.32 Y90.65 E46.72798
G1 X128.195 Y90.756 E46.73081
G1 X127.937 Y90.906 E46.73894
G1 X127.761 Y90.987 E46.74652
G1 X127.562 Y91.064 E46.75676
G1 X127.337 Y91.135 E46.77009
G1 X127.043 Y91.209 E46.78986
G1 X127.039 Y91.209 E46.79014
M204 S3000
M205 X10 Y10
G0 F1200 X117.311 Y91.94
G0 X116.806 Y92.15
G0 X116.116 Y92.45
G0 X116.178 Y92.528
M204 S1800
M205 X8 Y8
G1 F600 X115.941 Y92.741 E46.81239
G1 X115.728 Y92.978 E46.83465
G1 X115.545 Y93.239 E46.85692
G1 X115.392 Y93.515 E46.87896
G1 X115.268 Y93.81 E46.90131
G1 X115.179 Y94.119 E46.92377
G1 X115.127 Y94.433 E46.946
G1 X115.11 Y94.726 E46.9665
G1 X115.11 Y119.91 E48.72551
G1 X99.79 Y119.91 E49.79555
G1 X99.789 Y94.711 E51.55561
G1 X99.771 Y94.416 E51.57625
G1 X99.716 Y94.101 E51.59858
G1 X99.625 Y93.793 E51.62102
G1 X99.502 Y93.5 E51.64321
G1 X99.346 Y93.223 E51.66542
G1 X99.16 Y92.965 E51.68763
G1 X98.946 Y92.729 E51.70988
G1 X98.706 Y92.518 E51.7322
G1 X98.447 Y92.336 E51.75431
G1 X98.167 Y92.183 E51.7766
G1 X97.873 Y92.064 E51.79875
G1 X97.567 Y91.977 E51.82097
G1 X97.267 Y91.927 E51.84222
G1 X96.987 Y91.911 E51.8618
G1 X84.162 Y91.91 E52.75758
G1 X83.836 Y91.898 E52.78037
G1 X83.223 Y91.829 E52.82345
G1 X82.833 Y91.756 E52.85117
G1 X82.51 Y91.675 E52.87443
G1 X82.26 Y91.597 E52.89272
G1 X82.005 Y91.497 E52.91185
G1 X81.802 Y91.403 E52.92747
G1 X81.608 Y91.297 E52.94292
G1 X81.494 Y91.223 E52.95241
G1 X81.307 Y91.071 E52.96924
G1 X81.2 Y90.956 E52.98021
G1 X81.144 Y90.872 E52.98726
G1 X81.106 Y90.766 E52.99513
G1 X81.105 Y90.37 E53.02279
G1 X81.105 Y90.09 E53.04234
G1 X81.385 Y90.09 E53.055
G1 X128.615 Y90.09 E56.35384
G1 X128.895 Y90.09 E56.3734
G1 X128.895 Y90.37 E56.38606
G1 X128.893 Y90.764 E56.41358
G1 X128.887 Y90.801 E56.4162
G1 X128.837 Y90.903 E56.42413
G1 X128.703 Y91.064 E56.43876
G1 X128.514 Y91.218 E56.45579
G1 X128.195 Y91.404 E56.48158
G1 X127.986 Y91.5 E56.49765
G1 X127.743 Y91.594 E56.51585
G1 X127.486 Y91.675 E56.53467
G1 X127.168 Y91.755 E56.55757
G1 X126.772 Y91.83 E56.58572
G1 X126.165 Y91.898 E56.62838
G1 X125.84 Y91.91 E56.6511
G1 X117.926 Y91.91 E57.20386
G1 X117.633 Y91.927 E57.22436
G1 X117.319 Y91.979 E57.24659
G1 X117.01 Y92.068 E57.26905
G1 X116.715 Y92.192 E57.2914
G1 X116.439 Y92.345 E57.31344
G1 X116.178 Y92.528 E57.33571
M204 S3000
M205 X10 Y10
G0 F1200 X116.528 Y92.967
M204 S1800
M205 X8 Y8
;TYPE:WALL-OUTER
G1 F600 X116.338 Y93.138 E57.35356
G1 X116.167 Y93.328 E57.37142
G1 X116.02 Y93.537 E57.38926
G1 X115.896 Y93.76 E57.40709
G1 X115.797 Y93.996 E57.42496
G1 X115.726 Y94.243 E57.44291
G1 X115.684 Y94.495 E57.46076
G1 X115.67 Y94.742 E57.47804
G1 X115.67 Y120.47 E59.27504
G1 X99.23 Y120.47 E60.42331
G1 X99.229 Y94.728 E62.2213
G1 X99.214 Y94.481 E62.23858
G1 X99.17 Y94.229 E62.25645
G1 X99.097 Y93.982 E62.27444
G1 X98.998 Y93.747 E62.29225
G1 X98.873 Y93.525 E62.31004
G1 X98.724 Y93.318 E62.32786
G1 X98.552 Y93.128 E62.34576
G1 X98.36 Y92.959 E62.36362
G1 X98.151 Y92.813 E62.38143
G1 X97.926 Y92.69 E62.39934
G1 X97.69 Y92.594 E62.41714
G1 X97.444 Y92.524 E62.435
G1 X97.205 Y92.484 E62.45193
G1 X96.971 Y92.471 E62.4683
G1 X84.141 Y92.47 E63.36442
G1 X83.794 Y92.457 E63.38868
G1 X83.149 Y92.385 E63.43401
G1 X82.713 Y92.303 E63.46499
G1 X82.357 Y92.214 E63.49062
G1 X82.065 Y92.122 E63.51201
G1 X81.796 Y92.017 E63.53218
G1 X81.541 Y91.899 E63.5518
G1 X81.328 Y91.782 E63.56878
G1 X81.161 Y91.674 E63.58267
G1 X80.922 Y91.48 E63.60417
G1 X80.77 Y91.316 E63.61979
G1 X80.69 Y91.206 E63.62929
G1 X80.642 Y91.123 E63.63598
G1 X80.593 Y91.013 E63.64439
G1 X80.555 Y90.874 E63.65446
G1 X80.546 Y90.807 E63.65918
G1 X80.544 Y89.81 E63.72882
G1 X80.544 Y89.53 E63.74837
G1 X80.824 Y89.53 E63.76103
G1 X129.177 Y89.53 E67.13831
G1 X129.457 Y89.53 E67.15787
G1 X129.457 Y89.81 E67.17053
G1 X129.453 Y90.812 E67.24052
G1 X129.43 Y90.942 E67.24974
G1 X129.412 Y91 E67.25398
G1 X129.313 Y91.203 E67.26975
G1 X129.165 Y91.393 E67.28657
G1 X129.084 Y91.475 E67.29463
G1 X128.837 Y91.676 E67.31687
G1 X128.684 Y91.773 E67.32952
G1 X128.446 Y91.905 E67.34853
G1 X128.214 Y92.012 E67.36637
G1 X127.929 Y92.123 E67.38774
G1 X127.644 Y92.213 E67.40861
G1 X127.288 Y92.302 E67.43424
G1 X126.858 Y92.383 E67.4648
G1 X126.648 Y92.411 E67.4796
G1 X126.199 Y92.458 E67.51113
G1 X125.86 Y92.47 E67.53483
G1 X117.942 Y92.47 E68.08787
G1 X117.695 Y92.484 E68.10515
G1 X117.443 Y92.526 E68.12299
G1 X117.196 Y92.597 E68.14094
G1 X116.96 Y92.696 E68.15882
G1 X116.737 Y92.82 E68.17664
G1 X116.528 Y92.967 E68.19449
M204 S3000
M205 X10 Y10
G0 F1200 X116.379 Y93.101
G0 X115.938 Y92.61
G0 X115.155 Y91.955
M204 S1800
M205 X8 Y8
;TYPE:SKIN
G1 F600 X114.857 Y92.287 E68.22565
G1 X114.603 Y92.65 E68.25659
G1 X114.393 Y93.029 E68.28686
G1 X114.22 Y93.44 E68.318
G1 X114.094 Y93.873 E68.3495
G1 X114.022 Y94.31 E68.38044
G1 X114 Y94.694 E68.4073
G1 X114 Y118.8 E70.09102
G1 X100.9 Y118.8 E71.006
G1 X100.899 Y94.677 E72.6909
G1 X100.876 Y94.286 E72.71826
G1 X100.798 Y93.847 E72.7494
G1 X100.672 Y93.42 E72.7805
G1 X100.501 Y93.011 E72.81146
G1 X100.283 Y92.624 E72.84249
G1 X100.024 Y92.266 E72.87335
G1 X99.727 Y91.936 E72.90436
G1 X99.393 Y91.643 E72.93539
G1 X99.034 Y91.392 E72.96599
G1 X98.683 Y91.2 E72.99393
G1 X116.216 Y91.2 E74.21855
G1 X115.85 Y91.403 E74.24778
G1 X115.487 Y91.657 E74.27872
G1 X115.155 Y91.955 E74.30988
M204 S3000
M205 X10 Y10
G0 F1200 X114.86 Y91.893
M204 S1800
M205 X8 Y8
G1 F600 X114.426 Y91.46 E74.3527
M204 S3000
M205 X10 Y10
G0 F1200 X113.634 Y91.46
M204 S1800
M205 X8 Y8
G1 F600 X114.506 Y92.331 E74.43879
M204 S3000
M205 X10 Y10
G0 F1200 X114.209 Y92.826
M204 S1800
M205 X8 Y8
G1 F600 X112.842 Y91.46 E74.57377
M204 S3000
M205 X10 Y10
G0 F1200 X112.05 Y91.46
M204 S1800
M205 X8 Y8
G1 F600 X113.967 Y93.376 E74.76308
M204 S3000
M205 X10 Y10
G0 F1200 X113.808 Y94.009
M204 S1800
M205 X8 Y8
G1 F600 X111.259 Y91.46 E75.01486
M204 S3000
M205 X10 Y10
G0 F1200 X110.467 Y91.46
M204 S1800
M205 X8 Y8
G1 F600 X113.739 Y94.732 E75.33806
M204 S3000
M205 X10 Y10
G0 F1200 X113.739 Y95.524
M204 S1800
M205 X8 Y8
G1 F600 X109.675 Y91.46 E75.73949
M204 S3000
M205 X10 Y10
G0 F1200 X108.883 Y91.46
M204 S1800
M205 X8 Y8
G1 F600 X113.739 Y96.316 E76.21916
M204 S3000
M205 X10 Y10
G0 F1200 X113.739 Y97.108
M204 S1800
M205 X8 Y8
G1 F600 X108.091 Y91.46 E76.77705
M204 S3000
M205 X10 Y10
G0 F1200 X107.299 Y91.46
M204 S1800
M205 X8 Y8
G1 F600 X113.739 Y97.9 E77.41318
M204 S3000
M205 X10 Y10
G0 F1200 X113.739 Y98.692
M204 S1800
M205 X8 Y8
G1 F600 X106.507 Y91.46 E78.12754
M204 S3000
