;FLAVOR:Marlin
;TIME:875
;Filament used: 0.569113m
;Layer height: 0.2
;Generated with Cura_SteamEngine 3.5.1
M140 S90
M105
M190 S90
M104 S235
M105
M109 S235
M82 ;absolute extrusion mode
G21 ;metric values
G90 ;absolute positioning
M82 ;set extruder to absolute mode
M107 ;start with the fan off
G28 X0 Y0 ;move X/Y to min endstops
G28 Z0 ;move Z to min endstops
G1 Z15.0 F100 ;move the platform down 15mm
G92 E0 ;zero the extruded length
G1 F200 E3 ;extrude 3mm of feed stock
G92 E0 ;zero the extruded length again
G1 F100
M117 Printing...
G5
G92 E0
G1 F2400 E-6
;LAYER_COUNT:110
;LAYER:0
M106 S255
M204 S3000
M205 X10 Y10
G0 F1200 X86.129 Y97.098 Z0.3
M204 S1800
M205 X8 Y8
;TYPE:SKIRT
G1 F2400 E0
G1 X89.923 Y93.916 E0.34586
G1 X90.496 Y93.488 E0.39581
G1 X91.113 Y93.126 E0.44578
G1 X91.732 Y92.849 E0.49314
G1 X96.724 Y90.923 E0.86687
G1 X96.846 Y90.877 E0.87598
G1 X97.505 Y90.638 E0.92494
G1 X98.19 Y90.433 E0.97488
G1 X99.091 Y90.283 E1.03868
G1 X99.668 Y90.229 E1.07915
G1 X100.267 Y90.201 E1.12104
G1 X119.773 Y90.21 E2.48346
G1 X120.487 Y90.25 E2.53341
G1 X121.192 Y90.37 E2.58336
G1 X121.88 Y90.568 E2.63336
G1 X122.541 Y90.841 E2.68331
G1 X123.167 Y91.186 E2.73324
G1 X123.751 Y91.599 E2.7832
G1 X124.285 Y92.075 E2.83316
G1 X124.763 Y92.607 E2.88312
G1 X125.179 Y93.189 E2.93308
G1 X125.527 Y93.814 E2.98305
G1 X125.803 Y94.474 E3.03301
G1 X126.004 Y95.16 E3.08294
G1 X126.126 Y95.865 E3.13292
G1 X126.17 Y96.61 E3.18504
G1 X126.17 Y113.391 E4.35713
G1 X126.13 Y114.105 E4.40708
G1 X126.011 Y114.81 E4.45702
G1 X125.813 Y115.498 E4.50703
G1 X125.54 Y116.159 E4.55698
G1 X125.196 Y116.786 E4.60693
G1 X124.783 Y117.37 E4.65689
G1 X124.308 Y117.904 E4.70681
G1 X123.776 Y118.383 E4.75681
G1 X123.194 Y118.798 E4.80673
G1 X122.569 Y119.147 E4.85673
G1 X121.909 Y119.423 E4.9067
G1 X121.223 Y119.624 E4.95663
G1 X120.518 Y119.747 E5.00661
G1 X119.77 Y119.791 E5.05895
G1 X99.784 Y119.79 E6.4549
G1 X99.07 Y119.75 E6.50485
G1 X98.364 Y119.631 E6.55485
G1 X97.677 Y119.433 E6.60479
G1 X97.016 Y119.16 E6.65474
G1 X96.389 Y118.815 E6.70473
G1 X95.805 Y118.403 E6.75465
G1 X95.27 Y117.927 E6.80466
G1 X94.878 Y117.5 E6.84515
G1 X85.336 Y106.112 E7.88287
G1 X84.908 Y105.539 E7.93282
G1 X84.547 Y104.922 E7.98275
G1 X84.257 Y104.268 E8.03272
G1 X84.041 Y103.586 E8.08269
G1 X83.903 Y102.885 E8.13259
G1 X83.844 Y102.172 E8.18256
G1 X83.865 Y101.457 E8.23252
G1 X83.966 Y100.749 E8.28247
G1 X84.145 Y100.056 E8.33247
G1 X84.4 Y99.388 E8.38241
G1 X84.728 Y98.752 E8.43239
G1 X85.125 Y98.157 E8.48235
G1 X85.586 Y97.611 E8.53226
G1 X86.129 Y97.098 E8.58444
M204 S3000
M205 X10 Y10
G0 F1200 X86.489 Y97.527
M204 S1800
M205 X8 Y8
G1 F2400 X90.283 Y94.345 E8.9303
G1 X90.831 Y93.938 E8.97797
G1 X91.424 Y93.597 E9.02575
G1 X91.934 Y93.371 E9.06472
G1 X96.926 Y91.445 E9.43844
G1 X97.037 Y91.404 E9.4467
G1 X97.696 Y91.165 E9.49567
G1 X98.351 Y90.97 E9.5434
G1 X99.143 Y90.84 E9.59946
G1 X99.72 Y90.786 E9.63994
G1 X100.267 Y90.761 E9.67818
G1 X119.773 Y90.77 E11.0406
G1 X120.455 Y90.81 E11.08832
G1 X121.127 Y90.93 E11.136
G1 X121.781 Y91.127 E11.18371
G1 X122.408 Y91.4 E11.23147
G1 X122.998 Y91.744 E11.27917
G1 X123.545 Y92.154 E11.32692
G1 X124.039 Y92.625 E11.37459
G1 X124.476 Y93.151 E11.42236
G1 X124.847 Y93.724 E11.47004
G1 X125.15 Y94.337 E11.5178
G1 X125.378 Y94.981 E11.56551
G1 X125.53 Y95.647 E11.61323
G1 X125.61 Y96.61 E11.68072
G1 X125.61 Y113.391 E12.85281
G1 X125.57 Y114.073 E12.90053
G1 X125.451 Y114.746 E12.94826
G1 X125.254 Y115.4 E12.99597
G1 X124.981 Y116.027 E13.04374
G1 X124.638 Y116.617 E13.0914
G1 X124.228 Y117.164 E13.13915
G1 X123.757 Y117.659 E13.18687
G1 X123.231 Y118.095 E13.23459
G1 X122.658 Y118.467 E13.28231
G1 X122.045 Y118.77 E13.33007
G1 X121.402 Y118.998 E13.37772
G1 X120.736 Y119.151 E13.42545
G1 X119.77 Y119.231 E13.49315
G1 X99.784 Y119.23 E14.8891
G1 X99.102 Y119.19 E14.93682
G1 X98.429 Y119.071 E14.98455
G1 X97.775 Y118.873 E15.03228
G1 X97.148 Y118.601 E15.08002
G1 X96.558 Y118.258 E15.12769
G1 X96.011 Y117.848 E15.17543
G1 X95.308 Y117.141 E15.24507
G1 X85.766 Y105.753 E16.28279
G1 X85.358 Y105.204 E16.33057
G1 X85.018 Y104.612 E16.37825
G1 X84.749 Y103.984 E16.42597
G1 X84.555 Y103.329 E16.47368
G1 X84.439 Y102.656 E16.52138
G1 X84.402 Y101.973 E16.56916
G1 X84.445 Y101.291 E16.61689
G1 X84.568 Y100.619 E16.6646
G1 X84.768 Y99.966 E16.7123
G1 X85.044 Y99.341 E16.76002
G1 X85.39 Y98.752 E16.80774
G1 X85.803 Y98.207 E16.8555
G1 X86.489 Y97.527 E16.92296
M204 S3000
M205 X10 Y10
G0 F1200 X86.849 Y97.956
M204 S1800
M205 X8 Y8
G1 F2400 X90.643 Y94.774 E17.26882
G1 X91.166 Y94.388 E17.31423
G1 X91.731 Y94.069 E17.35954
G1 X92.135 Y93.894 E17.3903
G1 X97.127 Y91.968 E17.76402
G1 X97.228 Y91.93 E17.77156
G1 X97.887 Y91.691 E17.82052
G1 X98.51 Y91.508 E17.86587
G1 X99.195 Y91.398 E17.91433
G1 X99.772 Y91.344 E17.95481
G1 X100.266 Y91.321 E17.98935
G1 X119.772 Y91.33 E19.35177
G1 X120.421 Y91.37 E19.39719
G1 X121.059 Y91.49 E19.44253
G1 X121.678 Y91.687 E19.4879
G1 X122.268 Y91.959 E19.53328
G1 X122.821 Y92.301 E19.57869
G1 X123.327 Y92.708 E19.62405
G1 X123.779 Y93.174 E19.66939
G1 X124.171 Y93.692 E19.71477
G1 X124.496 Y94.255 E19.76017
G1 X124.749 Y94.853 E19.80552
G1 X124.927 Y95.478 E19.85091
G1 X125.027 Y96.12 E19.8963
G1 X125.05 Y96.61 E19.93056
G1 X125.05 Y113.391 E21.10265
G1 X125.01 Y114.039 E21.14799
G1 X124.891 Y114.678 E21.19339
G1 X124.694 Y115.297 E21.23877
G1 X124.423 Y115.887 E21.28411
G1 X124.081 Y116.44 E21.32953
G1 X123.674 Y116.946 E21.37488
G1 X123.208 Y117.399 E21.42028
G1 X122.69 Y117.79 E21.46561
G1 X122.127 Y118.116 E21.51105
G1 X121.529 Y118.369 E21.5564
G1 X120.905 Y118.548 E21.60174
G1 X120.263 Y118.648 E21.64712
G1 X119.77 Y118.671 E21.6816
G1 X99.784 Y118.67 E23.07754
G1 X99.135 Y118.63 E23.12296
G1 X98.497 Y118.511 E23.16829
G1 X97.878 Y118.314 E23.21366
G1 X97.287 Y118.043 E23.25907
G1 X96.735 Y117.701 E23.30443
G1 X96.229 Y117.294 E23.34979
G1 X95.737 Y116.781 E23.39943
G1 X86.195 Y105.393 E24.43715
G1 X85.809 Y104.87 E24.48255
G1 X85.49 Y104.304 E24.52793
G1 X85.244 Y103.703 E24.57329
G1 X85.073 Y103.077 E24.61862
G1 X84.98 Y102.434 E24.664
G1 X84.966 Y101.784 E24.70941
G1 X85.033 Y101.138 E24.75477
G1 X85.179 Y100.505 E24.80014
G1 X85.401 Y99.895 E24.84548
G1 X85.696 Y99.316 E24.89087
G1 X86.06 Y98.778 E24.93624
G1 X86.488 Y98.289 E24.98163
G1 X86.849 Y97.956 E25.01593
M204 S3000
M205 X10 Y10
G1 F2400 E19.01593
G0 F1200 X90.448 Y100.952
G0 X91.423 Y102.113
G0 X105.079 Y101.475
M204 S1800
M205 X8 Y8
;TYPE:WALL-INNER
G1 F2400 E25.01593
G1 F600 X105.079 Y106.775 E25.38612
G1 X117.679 Y106.775 E26.26618
G1 X117.679 Y101.475 E26.63637
G1 X105.079 Y101.475 E27.51643
M204 S3000
M205 X10 Y10
G0 F1200 X105.611 Y106.243
G0 X118.379 Y112
M204 S1800
M205 X8 Y8
G1 F600 X100.431 Y112 E28.77003
G1 X92.193 Y102.181 E29.66526
G1 X94.771 Y100.017 E29.90035
G1 X100.044 Y98 E30.29467
G1 X118.379 Y98 E31.5753
G1 X118.379 Y112 E32.55315
M204 S3000
M205 X10 Y10
G0 F1200 X118.939 Y112.56
M204 S1800
M205 X8 Y8
G1 F600 X100.17 Y112.56 E33.8641
G1 X91.404 Y102.112 E34.81668
G1 X94.483 Y99.528 E35.09744
G1 X99.917 Y97.449 E35.50381
G1 X99.984 Y97.44 E35.50853
G1 X118.939 Y97.44 E36.83247
G1 X118.939 Y112.56 E37.88855
M204 S3000
M205 X10 Y10
G0 F1200 X118.869 Y112.49
G0 X105.611 Y106.243
G0 X105.569 Y101.965
G0 X105.639 Y102.035
M204 S1800
M205 X8 Y8
G1 F600 X105.639 Y106.215 E38.1805
G1 X117.119 Y106.215 E38.98234
G1 X117.119 Y102.035 E39.2743
G1 X105.639 Y102.035 E40.07613
M204 S3000
M205 X10 Y10
G0 F1200 X106.199 Y102.595
M204 S1800
M205 X8 Y8
;TYPE:WALL-OUTER
G1 F600 X106.199 Y105.655 E40.28986
G1 X116.559 Y105.655 E41.01347
G1 X116.559 Y102.595 E41.2272
G1 X106.199 Y102.595 E41.95081
M204 S3000
M205 X10 Y10
G0 F1200 X106.199 Y102.795
G0 X105.539 Y102.795
G0 X105.611 Y106.243
G0 X118.869 Y112.49
G0 X119.499 Y113.12
M204 S1800
M205 X8 Y8
G1 F600 X99.909 Y113.12 E43.3191
G1 X90.615 Y102.043 E44.32904
G1 X94.195 Y99.039 E44.65546
G1 X99.693 Y96.932 E45.06671
G1 X99.783 Y96.904 E45.07329
G1 X99.876 Y96.887 E45.07989
G1 X99.969 Y96.88 E45.08641
G1 X119.499 Y96.88 E46.45051
G1 X119.499 Y113.12 E47.58481
M204 S3000
M205 X10 Y10
G0 F1200 X119.299 Y113.12
G0 X118.869 Y112.49
G0 X117.829 Y111.45
M204 S1800
M205 X8 Y8
;TYPE:SKIN
G1 F600 X100.688 Y111.45 E48.78204
G1 X92.968 Y102.248 E49.621
G1 X95.054 Y100.498 E49.81118
G1 X100.146 Y98.55 E50.19198
G1 X117.829 Y98.55 E51.42707
G1 X117.829 Y100.925 E51.59295
G1 X104.529 Y100.925 E52.52191
G1 X104.529 Y107.325 E52.96892
G1 X117.829 Y107.325 E53.89788
G1 X117.829 Y111.45 E54.186
M204 S3000
M205 X10 Y10
G0 F1200 X117.568 Y99.353
M204 S1800
M205 X8 Y8
G1 F600 X117.025 Y98.81 E54.23963
M204 S3000
M205 X10 Y10
G0 F1200 X116.233 Y98.81
M204 S1800
M205 X8 Y8
G1 F600 X117.568 Y100.145 E54.3715
M204 S3000
M205 X10 Y10
G0 F1200 X117.296 Y100.665
M204 S1800
M205 X8 Y8
G1 F600 X115.441 Y98.81 E54.55473
M204 S3000
M205 X10 Y10
G0 F1200 X114.649 Y98.81
M204 S1800
M205 X8 Y8
G1 F600 X116.504 Y100.665 E54.73796
M204 S3000
M205 X10 Y10
G0 F1200 X115.712 Y100.665
M204 S1800
M205 X8 Y8
G1 F600 X113.857 Y98.81 E54.9212
M204 S3000
M205 X10 Y10
G0 F1200 X113.065 Y98.81
M204 S1800
M205 X8 Y8
G1 F600 X114.92 Y100.665 E55.10443
M204 S3000
M205 X10 Y10
G0 F1200 X114.128 Y100.665
M204 S1800
M205 X8 Y8
G1 F600 X112.273 Y98.81 E55.28766
M204 S3000
M205 X10 Y10
G0 F1200 X111.481 Y98.81
M204 S1800
M205 X8 Y8
G1 F600 X113.336 Y100.665 E55.47089
M204 S3000
M205 X10 Y10
G0 F1200 X112.544 Y100.665
M204 S1800
M205 X8 Y8
G1 F600 X110.689 Y98.81 E55.65413
M204 S3000
M205 X10 Y10
G0 F1200 X109.897 Y98.81
M204 S1800
M205 X8 Y8
G1 F600 X111.752 Y100.665 E55.83736
M204 S3000
M205 X10 Y10
G0 F1200 X110.96 Y100.665
M204 S1800
M205 X8 Y8
G1 F600 X109.105 Y98.81 E56.02059
M204 S3000
M205 X10 Y10
G0 F1200 X108.313 Y98.81
M204 S1800
M205 X8 Y8
G1 F600 X110.168 Y100.665 E56.20382
M204 S3000
M205 X10 Y10
G0 F1200 X109.376 Y100.665
M204 S1800
M205 X8 Y8
G1 F600 X107.521 Y98.81 E56.38706
M204 S3000
M205 X10 Y10
G0 F1200 X106.729 Y98.81
M204 S1800
M205 X8 Y8
G1 F600 X108.584 Y100.665 E56.57029
M204 S3000
M205 X10 Y10
G0 F1200 X107.792 Y100.665
M204 S1800
M205 X8 Y8
G1 F600 X105.938 Y98.81 E56.75347
M204 S3000
M205 X10 Y10
G0 F1200 X105.146 Y98.81
M204 S1800
M205 X8 Y8
G1 F600 X107 Y100.665 E56.93665
M204 S3000
M205 X10 Y10
G0 F1200 X106.208 Y100.665
M204 S1800
M205 X8 Y8
G1 F600 X104.354 Y98.81 E57.11984
M204 S3000
M205 X10 Y10
G0 F1200 X103.562 Y98.81
M204 S1800
M205 X8 Y8
G1 F600 X105.416 Y100.665 E57.30302
M204 S3000
M205 X10 Y10
G0 F1200 X104.624 Y100.665
M204 S1800
M205 X8 Y8
G1 F600 X102.77 Y98.81 E57.4862
M204 S3000
M205 X10 Y10
G0 F1200 X101.978 Y98.81
M204 S1800
M205 X8 Y8
G1 F600 X104.269 Y101.101 E57.7125
M204 S3000
M205 X10 Y10
G0 F1200 X104.269 Y101.893
M204 S1800
M205 X8 Y8
G1 F600 X101.186 Y98.81 E58.01703
M204 S3000
M205 X10 Y10
G0 F1200 X100.394 Y98.81
M204 S1800
M205 X8 Y8
G1 F600 X104.269 Y102.685 E58.3998
M204 S3000
M205 X10 Y10
G0 F1200 X104.269 Y103.477
M204 S1800
M205 X8 Y8
G1 F600 X99.765 Y98.973 E58.84469
M204 S3000
M205 X10 Y10
G0 F1200 X99.192 Y99.192
M204 S1800
M205 X8 Y8
G1 F600 X104.269 Y104.269 E59.34618
M204 S3000
M205 X10 Y10
G0 F1200 X104.269 Y105.061
M204 S1800
M205 X8 Y8
G1 F600 X98.62 Y99.412 E59.90418
M204 S3000
M205 X10 Y10
G0 F1200 X98.047 Y99.631
M204 S1800
M205 X8 Y8
G1 F600 X104.269 Y105.853 E60.51877
M204 S3000
M205 X10 Y10
G0 F1200 X104.269 Y106.645
M204 S1800
M205 X8 Y8
G1 F600 X97.474 Y99.85 E61.18997
M204 S3000
M205 X10 Y10
G0 F1200 X96.901 Y100.069
M204 S1800
M205 X8 Y8
G1 F600 X104.269 Y107.437 E61.91776
M204 S3000
M205 X10 Y10
G0 F1200 X104.417 Y107.584
M204 S1800
M205 X8 Y8
G1 F600 X108.021 Y111.189 E62.2738
M204 S3000
M205 X10 Y10
G0 F1200 X108.813 Y111.189
M204 S1800
M205 X8 Y8
G1 F600 X105.209 Y107.584 E62.62985
M204 S3000
M205 X10 Y10
G0 F1200 X106 Y107.584
M204 S1800
M205 X8 Y8
G1 F600 X109.605 Y111.189 E62.98594
M204 S3000
M205 X10 Y10
G0 F1200 X110.397 Y111.189
M204 S1800
M205 X8 Y8
G1 F600 X106.792 Y107.584 E63.34203
M204 S3000
M205 X10 Y10
G0 F1200 X107.584 Y107.584
M204 S1800
M205 X8 Y8
G1 F600 X111.189 Y111.189 E63.69813
M204 S3000
M205 X10 Y10
G0 F1200 X111.981 Y111.189
M204 S1800
M205 X8 Y8
G1 F600 X108.376 Y107.584 E64.05422
M204 S3000
M205 X10 Y10
G0 F1200 X109.168 Y107.584
M204 S1800
M205 X8 Y8
G1 F600 X112.773 Y111.189 E64.41031
M204 S3000
M205 X10 Y10
G0 F1200 X113.565 Y111.189
M204 S1800
M205 X8 Y8
G1 F600 X109.96 Y107.584 E64.76641
M204 S3000
M205 X10 Y10
G0 F1200 X110.752 Y107.584
M204 S1800
M205 X8 Y8
G1 F600 X114.357 Y111.189 E65.1225
M204 S3000
M205 X10 Y10
G0 F1200 X115.149 Y111.189
M204 S1800
M205 X8 Y8
G1 F600 X111.544 Y107.584 E65.47859
M204 S3000
M205 X10 Y10
G0 F1200 X112.336 Y107.584
M204 S1800
M205 X8 Y8
G1 F600 X115.941 Y111.189 E65.83469
M204 S3000
M205 X10 Y10
G0 F1200 X116.733 Y111.189
M204 S1800
M205 X8 Y8
G1 F600 X113.128 Y107.584 E66.19078
M204 S3000
M205 X10 Y10
G0 F1200 X113.92 Y107.584
M204 S1800
M205 X8 Y8
G1 F600 X117.525 Y111.189 E66.54687
M204 S3000
M205 X10 Y10
G0 F1200 X117.568 Y110.44
M204 S1800
M205 X8 Y8
G1 F600 X114.712 Y107.584 E66.82898
M204 S3000
M205 X10 Y10
G0 F1200 X115.504 Y107.584
M204 S1800
M205 X8 Y8
G1 F600 X117.568 Y109.648 E67.03286
M204 S3000
M205 X10 Y10
G0 F1200 X117.568 Y108.856
M204 S1800
M205 X8 Y8
G1 F600 X116.296 Y107.584 E67.1585
M204 S3000
M205 X10 Y10
G0 F1200 X117.088 Y107.584
M204 S1800
M205 X8 Y8
G1 F600 X117.568 Y108.065 E67.20596
M204 S3000
M205 X10 Y10
G0 F1200 X107.229 Y111.189
M204 S1800
M205 X8 Y8
G1 F600 X96.329 Y100.288 E68.28269
M204 S3000
M205 X10 Y10
G0 F1200 X95.756 Y100.508
M204 S1800
M205 X8 Y8
G1 F600 X106.437 Y111.189 E69.33773
M204 S3000
M205 X10 Y10
G0 F1200 X105.645 Y111.189
M204 S1800
M205 X8 Y8
G1 F600 X95.185 Y100.728 E70.371
M204 S3000
M205 X10 Y10
G0 F1200 X94.754 Y101.09
M204 S1800
M205 X8 Y8
G1 F600 X104.853 Y111.189 E71.36855
M204 S3000
M205 X10 Y10
G0 F1200 X104.061 Y111.189
M204 S1800
M205 X8 Y8
G1 F600 X94.323 Y101.451 E72.33045
M204 S3000
M205 X10 Y10
G0 F1200 X93.893 Y101.812
M204 S1800
M205 X8 Y8
G1 F600 X103.269 Y111.189 E73.25663
M204 S3000
M205 X10 Y10
G0 F1200 X102.477 Y111.189
M204 S1800
M205 X8 Y8
G1 F600 X93.462 Y102.174 E74.14711
G1 X93.392 Y102.104
M204 S3000
M205 X10 Y10
G0 F1200 X96.246 Y105.749
M204 S1800
M205 X8 Y8
G1 F600 X101.685 Y111.189 E74.68441
M204 S3000
M205 X10 Y10
G0 F1200 X100.893 Y111.189
M204 S1800
M205 X8 Y8
G1 F600 X100.374 Y110.669 E74.73573
M204 S3000
M205 X10 Y10
G0 F1200 X117.938 Y106.907
G0 X118.009 Y106.978
M204 S1800
M205 X8 Y8
;TYPE:SKIN
G1 F600 X118.027 Y106.714 E74.74184
G1 X118.027 Y101.34 E74.86593
M204 S3000
M205 X10 Y10
G0 F1200 X117.938 Y101.25
G0 X105.479 Y101.875
;TIME_ELAPSED:101.225948
;LAYER:1
M140 S90
G0 F3600 X105.479 Y101.875 Z0.5
M204 S1800
M205 X8 Y8
;TYPE:WALL-INNER
G1 F1800 X105.479 Y106.375 E75.01561
G1 X117.279 Y106.375 E75.40807
G1 X117.279 Y101.875 E75.55775
G1 X105.479 Y101.875 E75.95022
M204 S3000
M205 X10 Y10
G0 F3600 X118.779 Y97.8
M204 S1800
M205 X8 Y8
G1 F1800 X118.779 Y112.4 E76.43581
G1 X100.244 Y112.4 E77.05229
G1 X91.629 Y102.132 E77.49809
G1 X94.561 Y99.672 E77.62538
G1 X99.931 Y97.614 E77.81666
G1 X99.98 Y97.602 E77.81834
G1 X118.579 Y97.6 E78.43694
G1 X118.779 Y97.6 E78.44359
G1 X118.779 Y97.8 E78.4479
M204 S3000
M205 X10 Y10
G0 F3600 X119.179 Y97.4
M204 S1800
M205 X8 Y8
G1 F1800 X119.179 Y112.8 E78.96011
G1 X100.058 Y112.8 E79.59607
G1 X91.066 Y102.083 E80.06137
G1 X94.357 Y99.321 E80.20427
G1 X99.81 Y97.232 E80.39849
G1 X99.928 Y97.202 E80.40254
G1 X118.979 Y97.2 E81.03618
G1 X119.179 Y97.2 E81.04283
G1 X119.179 Y97.4 E81.04714
M204 S3000
M205 X10 Y10
G0 F3600 X119.079 Y97.4
G0 X105.809 Y102.205
G0 X105.879 Y102.275
M204 S1800
M205 X8 Y8
G1 F1800 X105.879 Y105.975 E81.1702
G1 X116.879 Y105.975 E81.53606
G1 X116.879 Y102.275 E81.65913
G1 X105.879 Y102.275 E82.02499
M204 S3000
M205 X10 Y10
G0 F3600 X106.279 Y102.675
M204 S1800
M205 X8 Y8
;TYPE:WALL-OUTER
G1 F1800 X106.279 Y105.575 E82.12144
G1 X116.479 Y105.575 E82.46069
G1 X116.479 Y102.675 E82.55715
G1 X106.279 Y102.675 E82.8964
M204 S3000
M205 X10 Y10
G0 F3600 X106.279 Y102.875
G0 X105.779 Y102.875
G0 X105.851 Y106.003
