;FLAVOR:Marlin
;TIME:2557
;Filament used: 2.66084m
;Layer height: 0.2
;Generated with Cura_SteamEngine 3.5.0
M140 S60
M105
M190 S60
M104 S200
M105
M109 S200
M82 ;absolute extrusion mode
G21 ;metric values
G90 ;absolute positioning
M82 ;set extruder to absolute mode
M107 ;start with the fan off
G28 X0 Y0 ;move X/Y to min endstops
G28 Z0 ;move Z to min endstops
G1 Z15.0 F120 ;move the platform down 15mm
G92 E0 ;zero the extruded length
G1 F200 E3 ;extrude 3mm of feed stock
G92 E0 ;zero the extruded length again
G1 F120
M117 Printing...
G5
G92 E0
G1 F2400 E-6
;LAYER_COUNT:63
;LAYER:0
M106 S255
M204 S3000
M205 X10 Y10
G0 F3000 X84.29 Y76.421 Z0.3
M204 S1800
M205 X8 Y8
;TYPE:SKIRT
G1 F2400 E0
G1 X84.63 Y76.076 E0.03383
G1 X86.342 Y74.47 E0.19779
G1 X86.795 Y74.083 E0.2394
G1 X89.128 Y72.271 E0.44573
G1 X89.58 Y71.951 E0.48441
G1 X91.302 Y70.838 E0.62762
G1 X91.729 Y70.585 E0.66229
G1 X93.831 Y69.447 E0.82924
G1 X94.251 Y69.239 E0.86198
G1 X95.908 Y68.493 E0.9889
G1 X96.401 Y68.295 E1.02601
G1 X99.169 Y67.316 E1.23108
G1 X99.754 Y67.14 E1.27375
G1 X102.323 Y66.499 E1.45868
G1 X102.815 Y66.397 E1.49378
G1 X104.529 Y66.11 E1.61516
G1 X105.044 Y66.045 E1.65142
G1 X107.961 Y65.797 E1.8559
G1 X108.515 Y65.774 E1.89462
G1 X110.628 Y65.778 E2.04221
G1 X111.209 Y65.806 E2.08284
G1 X114.272 Y66.091 E2.2977
G1 X114.979 Y66.196 E2.34762
G1 X115.67 Y66.381 E2.39759
G1 X116.337 Y66.641 E2.44759
G1 X116.97 Y66.974 E2.49755
G1 X117.562 Y67.375 E2.54749
G1 X118.006 Y67.747 E2.58795
G1 X120.317 Y69.867 E2.80699
G1 X124.401 Y73.296 E3.17946
G1 X128.642 Y76.465 E3.54924
G1 X133.046 Y79.381 E3.91816
G1 X138.399 Y82.484 E4.35032
G1 X138.996 Y82.877 E4.40024
G1 X139.547 Y83.334 E4.45024
G1 X140.042 Y83.849 E4.50013
G1 X140.478 Y84.417 E4.55015
G1 X140.847 Y85.029 E4.60006
G1 X141.051 Y85.453 E4.63293
G1 X142.249 Y88.188 E4.84148
G1 X142.484 Y88.81 E4.88792
G1 X143.381 Y91.621 E5.09401
G1 X143.523 Y92.141 E5.13166
G1 X143.94 Y93.966 E5.26242
G1 X144.022 Y94.391 E5.29265
G1 X144.344 Y96.425 E5.43648
G1 X144.402 Y96.913 E5.47081
G1 X144.592 Y99.278 E5.63653
G1 X144.613 Y99.871 E5.67797
G1 X144.577 Y102.756 E5.8795
G1 X144.546 Y103.307 E5.91804
G1 X144.337 Y105.415 E6.066
G1 X144.269 Y105.908 E6.10076
G1 X143.854 Y108.234 E6.26579
G1 X143.755 Y108.691 E6.29845
G1 X143.305 Y110.456 E6.42567
G1 X143.151 Y110.968 E6.46301
G1 X142.196 Y113.728 E6.667
G1 X141.992 Y114.244 E6.70576
G1 X141.125 Y116.186 E6.8543
G1 X140.906 Y116.631 E6.88895
G1 X139.799 Y118.67 E7.051
G1 X139.493 Y119.176 E7.0923
G1 X137.86 Y121.616 E7.29737
G1 X137.534 Y122.06 E7.33584
G1 X136.23 Y123.686 E7.48142
G1 X135.82 Y124.149 E7.52462
G1 X133.442 Y126.589 E7.7626
G1 X132.996 Y127.005 E7.80519
G1 X131.373 Y128.38 E7.95377
G1 X130.981 Y128.687 E7.98854
G1 X129.084 Y130.056 E8.15194
G1 X128.587 Y130.38 E8.19338
G1 X126.071 Y131.862 E8.39733
G1 X125.603 Y132.113 E8.43443
G1 X123.915 Y132.927 E8.56532
G1 X123.512 Y133.104 E8.59606
G1 X121.565 Y133.883 E8.74254
G1 X121.103 Y134.048 E8.7768
G1 X118.864 Y134.75 E8.94069
G1 X118.412 Y134.874 E8.97343
G1 X116.632 Y135.292 E9.10114
G1 X116.106 Y135.392 E9.13854
G1 X113.221 Y135.819 E9.34224
G1 X112.672 Y135.876 E9.38079
G1 X110.562 Y136.004 E9.52844
G1 X110.069 Y136.015 E9.56288
G1 X107.752 Y135.977 E9.72473
G1 X107.165 Y135.94 E9.76582
G1 X104.27 Y135.625 E9.96921
G1 X103.721 Y135.542 E10.00799
G1 X101.616 Y135.126 E10.15786
G1 X101.18 Y135.023 E10.18916
G1 X99.42 Y134.545 E10.31654
G1 X98.981 Y134.409 E10.34864
G1 X96.769 Y133.634 E10.51235
G1 X96.33 Y133.462 E10.54528
G1 X94.649 Y132.73 E10.67334
G1 X94.173 Y132.499 E10.71029
G1 X91.594 Y131.112 E10.91483
G1 X91.123 Y130.832 E10.9531
G1 X89.413 Y129.714 E11.0958
G1 X89.006 Y129.424 E11.1307
G1 X87.085 Y127.942 E11.30017
G1 X86.63 Y127.557 E11.3418
G1 X84.523 Y125.593 E11.54298
G1 X84.137 Y125.201 E11.58141
G1 X82.711 Y123.622 E11.73001
G1 X82.39 Y123.237 E11.76502
G1 X80.954 Y121.372 E11.92943
G1 X80.614 Y120.885 E11.97091
G1 X79.065 Y118.433 E12.17349
G1 X78.791 Y117.955 E12.21197
G1 X77.807 Y116.052 E12.36161
G1 X77.598 Y115.605 E12.39607
G1 X76.695 Y113.47 E12.55798
G1 X76.526 Y113.026 E12.59116
G1 X75.936 Y111.28 E12.71989
G1 X75.817 Y110.887 E12.74857
G1 X75.333 Y109.08 E12.87923
G1 X75.241 Y108.685 E12.90756
G1 X74.892 Y106.949 E13.03124
G1 X74.809 Y106.429 E13.06802
G1 X74.469 Y103.512 E13.27314
G1 X74.429 Y102.957 E13.312
G1 X74.368 Y100.861 E13.45846
G1 X74.372 Y100.37 E13.49276
G1 X74.484 Y98.02 E13.65709
G1 X74.541 Y97.423 E13.69897
G1 X74.957 Y94.501 E13.90512
G1 X75.059 Y93.956 E13.94385
G1 X75.53 Y91.927 E14.08934
G1 X75.658 Y91.456 E14.12343
G1 X76.35 Y89.253 E14.28471
G1 X76.553 Y88.697 E14.32605
G1 X77.692 Y85.979 E14.53189
G1 X77.929 Y85.477 E14.57066
G1 X78.908 Y83.613 E14.71772
G1 X79.16 Y83.176 E14.75296
G1 X80.434 Y81.155 E14.91982
G1 X80.774 Y80.667 E14.96136
G1 X82.561 Y78.343 E15.16613
G1 X82.916 Y77.921 E15.20464
G1 X84.29 Y76.421 E15.34672
M204 S3000
M205 X10 Y10
G0 F3000 X84.703 Y76.799
M204 S1800
M205 X8 Y8
G1 F2400 X85.013 Y76.485 E15.37754
G1 X86.725 Y74.879 E15.5415
G1 X87.139 Y74.526 E15.5795
G1 X89.472 Y72.714 E15.78583
G1 X89.884 Y72.421 E15.82114
G1 X91.606 Y71.308 E15.96435
G1 X91.996 Y71.077 E15.99601
G1 X94.098 Y69.939 E16.16296
G1 X94.481 Y69.75 E16.19279
G1 X96.138 Y69.004 E16.31972
G1 X96.588 Y68.823 E16.35359
G1 X99.356 Y67.844 E16.55866
G1 X99.889 Y67.684 E16.59753
G1 X102.458 Y67.043 E16.78247
G1 X102.908 Y66.949 E16.81458
G1 X104.622 Y66.662 E16.93596
G1 X105.091 Y66.603 E16.96898
G1 X108.008 Y66.355 E17.17346
G1 X108.514 Y66.334 E17.20883
G1 X110.627 Y66.338 E17.35641
G1 X111.157 Y66.363 E17.39347
G1 X114.22 Y66.648 E17.60834
G1 X114.895 Y66.751 E17.65603
G1 X115.554 Y66.932 E17.70376
G1 X116.187 Y67.189 E17.75148
G1 X116.786 Y67.518 E17.79921
G1 X117.342 Y67.915 E17.84693
G1 X117.627 Y68.16 E17.87318
G1 X119.949 Y70.291 E18.09331
G1 X124.046 Y73.73 E18.46692
G1 X128.324 Y76.926 E18.8399
G1 X132.739 Y79.85 E19.20977
G1 X138.118 Y82.968 E19.64403
G1 X138.688 Y83.345 E19.69176
G1 X139.21 Y83.786 E19.73949
G1 X139.677 Y84.284 E19.78718
G1 X140.083 Y84.834 E19.83492
G1 X140.538 Y85.678 E19.9019
G1 X141.736 Y88.413 E20.11045
G1 X141.951 Y88.981 E20.15287
G1 X142.848 Y91.792 E20.35896
G1 X142.977 Y92.266 E20.39327
G1 X143.394 Y94.091 E20.52403
G1 X143.469 Y94.479 E20.55163
G1 X143.791 Y96.513 E20.69546
G1 X143.844 Y96.958 E20.72676
G1 X144.034 Y99.323 E20.89248
G1 X144.053 Y99.864 E20.93029
G1 X144.017 Y102.749 E21.13182
G1 X143.989 Y103.252 E21.167
G1 X143.78 Y105.36 E21.31496
G1 X143.717 Y105.81 E21.3467
G1 X143.302 Y108.136 E21.51173
G1 X143.212 Y108.553 E21.54152
G1 X142.762 Y110.318 E21.66875
G1 X142.622 Y110.785 E21.7028
G1 X141.667 Y113.545 E21.90679
G1 X141.481 Y114.016 E21.94216
G1 X140.614 Y115.958 E22.0907
G1 X140.413 Y116.363 E22.12228
G1 X139.306 Y118.402 E22.28433
G1 X139.027 Y118.864 E22.32203
G1 X137.394 Y121.304 E22.5271
G1 X137.097 Y121.71 E22.56224
G1 X135.793 Y123.336 E22.70782
G1 X135.419 Y123.758 E22.7472
G1 X133.041 Y126.198 E22.98518
G1 X132.634 Y126.578 E23.02407
G1 X131.011 Y127.953 E23.17264
G1 X130.654 Y128.233 E23.20433
G1 X128.757 Y129.602 E23.36773
G1 X128.303 Y129.898 E23.40558
G1 X125.787 Y131.38 E23.60954
G1 X125.36 Y131.608 E23.64335
G1 X123.672 Y132.422 E23.77424
G1 X123.304 Y132.584 E23.80232
G1 X121.357 Y133.363 E23.9488
G1 X120.935 Y133.514 E23.9801
G1 X118.696 Y134.216 E24.14399
G1 X118.284 Y134.328 E24.17381
G1 X116.504 Y134.746 E24.30152
G1 X116.024 Y134.838 E24.33566
G1 X113.139 Y135.265 E24.53936
G1 X112.638 Y135.317 E24.57454
G1 X110.528 Y135.445 E24.72219
G1 X110.078 Y135.455 E24.75363
G1 X107.761 Y135.417 E24.91548
G1 X107.225 Y135.384 E24.95299
G1 X104.33 Y135.069 E25.15639
G1 X103.83 Y134.992 E25.19172
G1 X101.725 Y134.576 E25.3416
G1 X101.326 Y134.483 E25.37021
G1 X99.566 Y134.005 E25.49759
G1 X99.166 Y133.881 E25.52684
G1 X96.954 Y133.106 E25.69055
G1 X96.553 Y132.948 E25.72066
G1 X94.872 Y132.216 E25.84872
G1 X94.438 Y132.005 E25.88242
G1 X91.859 Y130.618 E26.08695
G1 X91.429 Y130.363 E26.12187
G1 X89.719 Y129.245 E26.26457
G1 X89.348 Y128.981 E26.29637
G1 X87.427 Y127.499 E26.46584
G1 X87.012 Y127.147 E26.50385
G1 X84.905 Y125.183 E26.70503
G1 X84.553 Y124.825 E26.7401
G1 X83.127 Y123.246 E26.8887
G1 X82.834 Y122.895 E26.92064
G1 X81.398 Y121.03 E27.08504
G1 X81.088 Y120.586 E27.12287
G1 X79.539 Y118.134 E27.32544
G1 X79.288 Y117.697 E27.36064
G1 X78.304 Y115.794 E27.51028
G1 X78.113 Y115.387 E27.54168
G1 X77.21 Y113.252 E27.70359
G1 X77.056 Y112.847 E27.73385
G1 X76.466 Y111.101 E27.86258
G1 X76.358 Y110.742 E27.88876
G1 X75.874 Y108.935 E28.01942
G1 X75.79 Y108.575 E28.04524
G1 X75.441 Y106.839 E28.16892
G1 X75.365 Y106.364 E28.20252
G1 X75.025 Y103.447 E28.40764
G1 X74.988 Y102.941 E28.44308
G1 X74.927 Y100.845 E28.58954
G1 X74.932 Y100.397 E28.62083
G1 X75.044 Y98.047 E28.78516
G1 X75.095 Y97.502 E28.82339
G1 X75.511 Y94.58 E29.02954
G1 X75.604 Y94.082 E29.06492
G1 X76.075 Y92.053 E29.21041
G1 X76.192 Y91.624 E29.24147
G1 X76.884 Y89.421 E29.40275
G1 X77.07 Y88.914 E29.44047
G1 X78.209 Y86.196 E29.64631
G1 X78.425 Y85.738 E29.68168
G1 X79.404 Y83.874 E29.82874
G1 X79.634 Y83.475 E29.8609
G1 X80.908 Y81.454 E30.02777
G1 X81.218 Y81.008 E30.06571
G1 X83.005 Y78.684 E30.27047
G1 X83.329 Y78.299 E30.30562
G1 X84.703 Y76.799 E30.4477
M204 S3000
M205 X10 Y10
G0 F3000 X85.116 Y77.178
M204 S1800
M205 X8 Y8
G1 F2400 X85.397 Y76.893 E30.47565
G1 X87.109 Y75.287 E30.63961
G1 X87.482 Y74.968 E30.67389
G1 X89.815 Y73.156 E30.88021
G1 X90.188 Y72.892 E30.91213
G1 X91.91 Y71.779 E31.05534
G1 X92.262 Y71.57 E31.08394
G1 X94.364 Y70.432 E31.25089
G1 X94.71 Y70.26 E31.27788
G1 X96.367 Y69.514 E31.4048
G1 X96.774 Y69.351 E31.43542
G1 X99.542 Y68.372 E31.64049
G1 X100.025 Y68.227 E31.67572
G1 X102.594 Y67.586 E31.86065
G1 X103 Y67.501 E31.88963
G1 X104.714 Y67.214 E32.01101
G1 X105.139 Y67.161 E32.04092
G1 X108.056 Y66.913 E32.2454
G1 X108.513 Y66.894 E32.27735
G1 X110.626 Y66.898 E32.42493
G1 X111.105 Y66.921 E32.45843
G1 X114.168 Y67.206 E32.67329
G1 X114.81 Y67.306 E32.71867
G1 X115.435 Y67.483 E32.76404
G1 X116.033 Y67.737 E32.80942
G1 X116.596 Y68.062 E32.85483
G1 X117.249 Y68.573 E32.91274
G1 X119.583 Y70.714 E33.13396
G1 X123.701 Y74.171 E33.50951
G1 X127.998 Y77.382 E33.88418
G1 X132.451 Y80.331 E34.25722
G1 X137.837 Y83.453 E34.69204
G1 X138.378 Y83.813 E34.73743
G1 X138.87 Y84.236 E34.78275
G1 X139.307 Y84.717 E34.82814
G1 X139.682 Y85.248 E34.87355
G1 X140.025 Y85.903 E34.92519
G1 X141.223 Y88.638 E35.13374
G1 X141.417 Y89.151 E35.17205
G1 X142.314 Y91.962 E35.37814
G1 X142.431 Y92.391 E35.4092
G1 X142.848 Y94.216 E35.53995
G1 X142.916 Y94.566 E35.56486
G1 X143.238 Y96.6 E35.70869
G1 X143.286 Y97.003 E35.73704
G1 X143.476 Y99.368 E35.90276
G1 X143.493 Y99.857 E35.93694
G1 X143.457 Y102.742 E36.13846
G1 X143.431 Y103.197 E36.17029
G1 X143.222 Y105.305 E36.31825
G1 X143.166 Y105.711 E36.34687
G1 X142.751 Y108.037 E36.5119
G1 X142.669 Y108.414 E36.53885
G1 X142.219 Y110.179 E36.66607
G1 X142.093 Y110.602 E36.6969
G1 X141.138 Y113.362 E36.90089
G1 X140.969 Y113.787 E36.93283
G1 X140.102 Y115.729 E37.08138
G1 X139.921 Y116.096 E37.10996
G1 X138.814 Y118.135 E37.27201
G1 X138.562 Y118.553 E37.3061
G1 X136.929 Y120.993 E37.51118
G1 X136.66 Y121.359 E37.5429
G1 X135.356 Y122.985 E37.68848
G1 X135.018 Y123.367 E37.72411
G1 X132.64 Y125.807 E37.96208
G1 X132.272 Y126.151 E37.99727
G1 X130.649 Y127.526 E38.14584
G1 X130.326 Y127.779 E38.1745
G1 X128.429 Y129.148 E38.3379
G1 X128.019 Y129.415 E38.37207
G1 X125.503 Y130.897 E38.57602
G1 X125.116 Y131.104 E38.60668
G1 X123.428 Y131.918 E38.73757
G1 X123.096 Y132.064 E38.7629
G1 X121.149 Y132.843 E38.90937
G1 X120.768 Y132.979 E38.93763
G1 X118.529 Y133.681 E39.10152
G1 X118.156 Y133.783 E39.12853
G1 X116.376 Y134.201 E39.25624
G1 X115.942 Y134.284 E39.2871
G1 X113.057 Y134.711 E39.4908
G1 X112.604 Y134.758 E39.52261
G1 X110.494 Y134.886 E39.67026
G1 X110.087 Y134.895 E39.6987
G1 X107.77 Y134.857 E39.86055
G1 X107.286 Y134.827 E39.89442
G1 X104.391 Y134.512 E40.09782
G1 X103.938 Y134.443 E40.12983
G1 X101.833 Y134.027 E40.2797
G1 X101.473 Y133.942 E40.30553
G1 X99.713 Y133.464 E40.43291
G1 X99.351 Y133.352 E40.45938
G1 X97.139 Y132.577 E40.62309
G1 X96.777 Y132.435 E40.65025
G1 X95.096 Y131.703 E40.77831
G1 X94.703 Y131.512 E40.80883
G1 X92.124 Y130.125 E41.01336
G1 X91.736 Y129.894 E41.0449
G1 X90.026 Y128.776 E41.1876
G1 X89.69 Y128.538 E41.21636
G1 X87.769 Y127.056 E41.38582
G1 X87.394 Y126.737 E41.42021
G1 X85.287 Y124.773 E41.62139
G1 X84.968 Y124.45 E41.6531
G1 X83.542 Y122.871 E41.80171
G1 X83.277 Y122.553 E41.83062
G1 X81.841 Y120.688 E41.99502
G1 X81.561 Y120.287 E42.02919
G1 X80.012 Y117.835 E42.23176
G1 X79.786 Y117.44 E42.26355
G1 X78.802 Y115.537 E42.41318
G1 X78.629 Y115.169 E42.44158
G1 X77.726 Y113.034 E42.60349
G1 X77.587 Y112.667 E42.6309
G1 X76.997 Y110.921 E42.75963
G1 X76.899 Y110.597 E42.78327
G1 X76.415 Y108.79 E42.91393
G1 X76.339 Y108.465 E42.93725
G1 X75.99 Y106.729 E43.06093
G1 X75.922 Y106.299 E43.09133
G1 X75.582 Y103.382 E43.29645
G1 X75.548 Y102.925 E43.32846
G1 X75.487 Y100.829 E43.47492
G1 X75.491 Y100.424 E43.50321
G1 X75.603 Y98.074 E43.66754
G1 X75.65 Y97.581 E43.70213
G1 X76.066 Y94.659 E43.90828
G1 X76.15 Y94.209 E43.94025
G1 X76.621 Y92.18 E44.08574
G1 X76.727 Y91.792 E44.11383
G1 X77.419 Y89.589 E44.27511
G1 X77.586 Y89.13 E44.30923
G1 X78.725 Y86.412 E44.51507
G1 X78.921 Y85.998 E44.54706
G1 X79.9 Y84.134 E44.69412
G1 X80.107 Y83.773 E44.72318
G1 X81.381 Y81.752 E44.89005
G1 X81.662 Y81.35 E44.92431
G1 X83.449 Y79.026 E45.12907
G1 X83.742 Y78.678 E45.16084
G1 X85.116 Y77.178 E45.30292
M204 S3000
M205 X10 Y10
G1 F2400 E39.30292
G0 F3000 X88.425 Y80.392
G0 X89.519 Y81.452
G0 X108.055 Y94.339
M204 S1800
M205 X8 Y8
;TYPE:WALL-INNER
G1 F2400 E45.30292
G1 F1800 X108.003 Y95.138 E45.35885
G1 X108.053 Y95.877 E45.41058
G1 X108.196 Y96.6 E45.46206
G1 X108.435 Y97.301 E45.51379
G1 X108.761 Y97.963 E45.56533
G1 X109.172 Y98.581 E45.61717
G1 X109.66 Y99.136 E45.66879
G1 X110.215 Y99.624 E45.72041
G1 X110.832 Y100.035 E45.77219
G1 X111.497 Y100.363 E45.82398
G1 X112.195 Y100.599 E45.87544
G1 X112.921 Y100.743 E45.92714
G1 X113.658 Y100.792 E45.97873
G1 X114.395 Y100.743 E46.03032
G1 X115.12 Y100.599 E46.08195
G1 X115.849 Y100.353 E46.13569
G1 X116 Y100.269 E46.14775
G1 X116.345 Y100.129 E46.17376
G1 X118.115 Y99.127 E46.31582
G1 X120.239 Y97.965 E46.48493
G1 X128.625 Y93.293 E47.15542
G1 X134.289 Y90.123 E47.60878
G1 X134.565 Y89.969 E47.63085
G1 X134.684 Y90.262 E47.64468
G1 X135.163 Y91.443 E47.73369
G1 X135.71 Y93.091 E47.85497
G1 X136.161 Y94.811 E47.97917
G1 X136.5 Y96.551 E48.10299
G1 X136.72 Y98.256 E48.22306
G1 X136.832 Y100.008 E48.34568
G1 X136.832 Y101.772 E48.46889
G1 X136.72 Y103.524 E48.59151
G1 X136.501 Y105.221 E48.71102
G1 X136.158 Y106.978 E48.83606
G1 X135.71 Y108.688 E48.95953
G1 X135.157 Y110.352 E49.082
G1 X134.514 Y111.942 E49.2018
G1 X133.75 Y113.53 E49.32488
G1 X132.888 Y115.064 E49.44778
G1 X131.926 Y116.539 E49.57078
G1 X130.876 Y117.947 E49.69346
G1 X129.744 Y119.277 E49.81545
G1 X128.526 Y120.533 E49.93765
G1 X127.233 Y121.707 E50.05963
G1 X125.841 Y122.819 E50.18407
G1 X124.422 Y123.808 E50.30488
G1 X122.916 Y124.721 E50.42789
G1 X121.377 Y125.524 E50.54914
G1 X119.776 Y126.232 E50.67141
G1 X118.108 Y126.846 E50.79555
G1 X116.43 Y127.345 E50.91783
G1 X114.725 Y127.733 E51.03996
G1 X112.99 Y128.013 E51.16271
G1 X111.271 Y128.179 E51.28334
G1 X109.498 Y128.236 E51.40724
G1 X107.726 Y128.179 E51.53107
G1 X106.006 Y128.013 E51.65176
G1 X104.271 Y127.733 E51.77452
G1 X102.566 Y127.345 E51.89665
G1 X100.889 Y126.846 E52.01886
G1 X99.221 Y126.232 E52.143
G1 X97.611 Y125.52 E52.26596
G1 X96.087 Y124.725 E52.38602
G1 X94.574 Y123.808 E52.50959
G1 X93.155 Y122.819 E52.6304
G1 X91.762 Y121.706 E52.75494
G1 X90.48 Y120.541 E52.87593
G1 X89.245 Y119.268 E52.99981
G1 X88.12 Y117.947 E53.121
G1 X87.071 Y116.539 E53.24364
G1 X86.109 Y115.062 E53.36676
G1 X85.257 Y113.549 E53.48804
G1 X84.487 Y111.95 E53.612
G1 X83.832 Y110.331 E53.73398
G1 X83.279 Y108.662 E53.85679
G1 X82.839 Y106.979 E53.97829
