;FLAVOR:Marlin
;TIME:5027
;Filament used: 6.18339m
;Layer height: 0.2
;Generated with Cura_SteamEngine 3.5.0
M140 S60
M105
M190 S60
M104 S200
M105
M109 S200
M82 ;absolute extrusion mode
G21 ;metric values
G90 ;absolute positioning
M82 ;set extruder to absolute mode
M107 ;start with the fan off
G28 X0 Y0 ;move X/Y to min endstops
G28 Z0 ;move Z to min endstops
G1 Z15.0 F120 ;move the platform down 15mm
G92 E0 ;zero the extruded length
G1 F200 E3 ;extrude 3mm of feed stock
G92 E0 ;zero the extruded length again
G1 F120
M117 Printing...
G5
G92 E0
G1 F2400 E-6
;LAYER_COUNT:170
;LAYER:0
M106 S255
M204 S3000
M205 X10 Y10
G0 F3000 X72.721 Y72.746 Z0.3
M204 S1800
M205 X8 Y8
;TYPE:SKIRT
G1 F2400 E0
G1 X73.253 Y72.267 E0.05
G1 X73.835 Y71.852 E0.09993
G1 X74.46 Y71.503 E0.14993
G1 X75.12 Y71.227 E0.19989
G1 X75.806 Y71.026 E0.24982
G1 X76.511 Y70.903 E0.29981
G1 X77.259 Y70.859 E0.35214
G1 X127.741 Y70.86 E3.87812
G1 X128.455 Y70.9 E3.92807
G1 X129.16 Y71.019 E3.97801
G1 X129.848 Y71.217 E4.02801
G1 X130.509 Y71.49 E4.07797
G1 X131.136 Y71.835 E4.12795
G1 X131.72 Y72.247 E4.17787
G1 X132.254 Y72.723 E4.22783
G1 X132.733 Y73.255 E4.27784
G1 X133.148 Y73.837 E4.32776
G1 X133.497 Y74.461 E4.3777
G1 X133.773 Y75.121 E4.42767
G1 X133.974 Y75.807 E4.4776
G1 X134.083 Y76.404 E4.51998
G1 X135.048 Y83.548 E5.0235
G1 X136.097 Y88.755 E5.39449
G1 X136.704 Y91.222 E5.57194
G1 X138.868 Y98.408 E6.09612
G1 X139.036 Y99.104 E6.14613
G1 X139.125 Y99.813 E6.19604
G1 X139.14 Y100.254 E6.22686
G1 X139.14 Y130.241 E8.32134
G1 X139.1 Y130.955 E8.37129
G1 X138.981 Y131.66 E8.42123
G1 X138.783 Y132.348 E8.47123
G1 X138.51 Y133.009 E8.52118
G1 X138.166 Y133.636 E8.57114
G1 X137.753 Y134.22 E8.6211
G1 X137.269 Y134.763 E8.6719
G1 X134.774 Y137.262 E8.91855
G1 X134.241 Y137.739 E8.96851
G1 X133.658 Y138.154 E9.01849
G1 X133.033 Y138.501 E9.06842
G1 X132.373 Y138.776 E9.11836
G1 X131.686 Y138.976 E9.16834
G1 X130.981 Y139.098 E9.21831
G1 X130.245 Y139.14 E9.2698
G1 X100.255 Y139.14 E11.36449
G1 X99.541 Y139.1 E11.41444
G1 X98.836 Y138.981 E11.46438
G1 X98.363 Y138.854 E11.49859
G1 X92.507 Y137.042 E11.92674
G1 X87.326 Y135.77 E12.29936
G1 X84.808 Y135.266 E12.47872
G1 X79.531 Y134.437 E12.85182
G1 X76.541 Y134.099 E13.06199
G1 X75.836 Y133.979 E13.11194
G1 X75.148 Y133.781 E13.16195
G1 X74.487 Y133.508 E13.2119
G1 X73.861 Y133.162 E13.26186
G1 X73.277 Y132.749 E13.31182
G1 X72.743 Y132.274 E13.36173
G1 X72.265 Y131.741 E13.41174
G1 X71.85 Y131.159 E13.46167
G1 X71.502 Y130.534 E13.51163
G1 X71.226 Y129.874 E13.5616
G1 X71.025 Y129.188 E13.61153
G1 X70.902 Y128.483 E13.66151
G1 X70.859 Y127.739 E13.71357
G1 X70.859 Y77.259 E17.23941
G1 X70.899 Y76.545 E17.28935
G1 X71.018 Y75.84 E17.33929
G1 X71.216 Y75.152 E17.3893
G1 X71.489 Y74.491 E17.43925
G1 X71.833 Y73.864 E17.4892
G1 X72.246 Y73.28 E17.53916
G1 X72.721 Y72.746 E17.58908
M204 S3000
M205 X10 Y10
G0 F3000 X73.272 Y72.991
M204 S1800
M205 X8 Y8
G1 F2400 X73.798 Y72.555 E17.6368
G1 X74.371 Y72.183 E17.68451
G1 X74.984 Y71.88 E17.73227
G1 X75.627 Y71.652 E17.77993
G1 X76.293 Y71.499 E17.82765
G1 X77.259 Y71.419 E17.89536
G1 X127.741 Y71.42 E21.42134
G1 X128.423 Y71.46 E21.46905
G1 X129.096 Y71.579 E21.51679
G1 X129.75 Y71.776 E21.5645
G1 X130.377 Y72.049 E21.61226
G1 X130.967 Y72.392 E21.65993
G1 X131.514 Y72.802 E21.70768
G1 X132.009 Y73.273 E21.7554
G1 X132.445 Y73.799 E21.80312
G1 X132.817 Y74.372 E21.85084
G1 X133.12 Y74.985 E21.8986
G1 X133.348 Y75.628 E21.94625
G1 X133.528 Y76.478 E22.00693
G1 X134.496 Y83.644 E22.512
G1 X135.55 Y88.875 E22.88471
G1 X136.163 Y91.368 E23.06402
G1 X138.332 Y98.57 E23.58937
G1 X138.49 Y99.234 E23.63704
G1 X138.58 Y100.254 E23.70856
G1 X138.58 Y130.241 E25.80304
G1 X138.54 Y130.923 E25.85076
G1 X138.421 Y131.596 E25.8985
G1 X138.224 Y132.25 E25.9462
G1 X137.951 Y132.877 E25.99397
G1 X137.608 Y133.467 E26.04164
G1 X137.198 Y134.014 E26.08938
G1 X136.873 Y134.367 E26.1229
G1 X134.378 Y136.866 E26.36954
G1 X133.868 Y137.321 E26.41728
G1 X133.308 Y137.712 E26.46499
G1 X132.706 Y138.036 E26.51274
G1 X132.071 Y138.287 E26.56043
G1 X131.41 Y138.463 E26.60821
G1 X130.734 Y138.559 E26.6559
G1 X130.245 Y138.58 E26.69008
G1 X100.255 Y138.58 E28.78477
G1 X99.573 Y138.54 E28.83249
G1 X98.9 Y138.421 E28.88022
G1 X98.529 Y138.319 E28.9071
G1 X92.655 Y136.502 E29.33656
G1 X87.456 Y135.225 E29.71048
G1 X84.909 Y134.715 E29.89191
G1 X79.589 Y133.879 E30.26805
G1 X76.604 Y133.542 E30.47787
G1 X75.93 Y133.426 E30.52564
G1 X75.275 Y133.232 E30.57335
G1 X74.647 Y132.962 E30.6211
G1 X74.055 Y132.622 E30.66878
G1 X73.507 Y132.214 E30.7165
G1 X73.01 Y131.745 E30.76423
G1 X72.571 Y131.222 E30.81192
G1 X72.196 Y130.65 E30.85969
G1 X71.891 Y130.039 E30.90739
G1 X71.659 Y129.396 E30.95514
G1 X71.504 Y128.731 E31.00283
G1 X71.419 Y127.739 E31.07237
G1 X71.419 Y77.259 E34.59821
G1 X71.459 Y76.577 E34.64593
G1 X71.578 Y75.904 E34.69366
G1 X71.775 Y75.25 E34.74137
G1 X72.048 Y74.623 E34.78914
G1 X72.391 Y74.033 E34.8368
G1 X72.801 Y73.486 E34.88455
G1 X73.272 Y72.991 E34.93227
M204 S3000
M205 X10 Y10
G0 F3000 X73.355 Y73.704
M204 S1800
M205 X8 Y8
G1 F2400 X73.821 Y73.251 E34.97767
G1 X74.339 Y72.86 E35.023
G1 X74.902 Y72.534 E35.06844
G1 X75.5 Y72.281 E35.11379
G1 X76.124 Y72.102 E35.15913
G1 X76.766 Y72.002 E35.20451
G1 X77.259 Y71.979 E35.23899
G1 X127.741 Y71.98 E38.76497
G1 X128.389 Y72.02 E38.81031
G1 X129.028 Y72.139 E38.85571
G1 X129.647 Y72.336 E38.90108
G1 X130.237 Y72.607 E38.94643
G1 X130.79 Y72.949 E38.99185
G1 X131.296 Y73.356 E39.0372
G1 X131.749 Y73.822 E39.0826
G1 X132.14 Y74.34 E39.12793
G1 X132.466 Y74.903 E39.17337
G1 X132.719 Y75.501 E39.21872
G1 X132.898 Y76.125 E39.26406
G1 X132.974 Y76.553 E39.29442
G1 X133.946 Y83.753 E39.80188
G1 X135.004 Y89.001 E40.1758
G1 X135.62 Y91.505 E40.35591
G1 X137.796 Y98.731 E40.88301
G1 X137.944 Y99.364 E40.92842
G1 X138.02 Y100.254 E40.99081
G1 X138.02 Y130.241 E43.08529
G1 X137.98 Y130.889 E43.13063
G1 X137.861 Y131.528 E43.17603
G1 X137.664 Y132.147 E43.2214
G1 X137.393 Y132.737 E43.26675
G1 X137.051 Y133.29 E43.31217
G1 X136.477 Y133.972 E43.37443
G1 X133.982 Y136.471 E43.62108
G1 X133.495 Y136.901 E43.66645
G1 X132.96 Y137.269 E43.71181
G1 X132.383 Y137.568 E43.7572
G1 X131.774 Y137.794 E43.80257
G1 X131.142 Y137.943 E43.84792
G1 X130.245 Y138.02 E43.9108
G1 X100.255 Y138.02 E46.00549
G1 X99.607 Y137.98 E46.05084
G1 X98.694 Y137.784 E46.11606
G1 X92.814 Y135.965 E46.54596
G1 X87.541 Y134.67 E46.92521
G1 X85.037 Y134.169 E47.10357
G1 X79.668 Y133.325 E47.48318
G1 X76.666 Y132.986 E47.69419
G1 X76.027 Y132.873 E47.73951
G1 X75.406 Y132.683 E47.78487
G1 X74.812 Y132.418 E47.8303
G1 X74.256 Y132.082 E47.87568
G1 X73.746 Y131.681 E47.92099
G1 X73.288 Y131.219 E47.96643
G1 X72.891 Y130.705 E48.01179
G1 X72.56 Y130.146 E48.05717
G1 X72.3 Y129.551 E48.10252
G1 X72.115 Y128.928 E48.14791
G1 X72.008 Y128.288 E48.19324
G1 X71.979 Y127.739 E48.23163
G1 X71.979 Y77.259 E51.75747
G1 X72.019 Y76.611 E51.80282
G1 X72.138 Y75.972 E51.84822
G1 X72.335 Y75.353 E51.89359
G1 X72.606 Y74.763 E51.93894
G1 X72.948 Y74.21 E51.98436
G1 X73.355 Y73.704 E52.02971
M204 S3000
M205 X10 Y10
G1 F2400 E46.02971
G0 F3000 X76.585 Y78.104
G0 X78.104 Y78.104
G0 X112.513 Y112.932
M204 S1800
M205 X8 Y8
;TYPE:WALL-INNER
G1 F2400 E52.02971
G1 F1800 X112.078 Y113.595 E52.0851
G1 X111.807 Y114.339 E52.1404
G1 X111.715 Y115.125 E52.19568
G1 X111.807 Y115.911 E52.25095
G1 X112.078 Y116.655 E52.30626
G1 X112.513 Y117.318 E52.36164
G1 X113.091 Y117.859 E52.41694
G1 X113.773 Y118.254 E52.47199
G1 X114.533 Y118.483 E52.52743
G1 X115.323 Y118.529 E52.5827
G1 X116.104 Y118.391 E52.63809
G1 X116.83 Y118.077 E52.69334
G1 X117.464 Y117.605 E52.74855
G1 X117.974 Y116.999 E52.80387
G1 X118.329 Y116.289 E52.85931
G1 X118.511 Y115.52 E52.91451
G1 X118.511 Y114.73 E52.96969
G1 X118.329 Y113.961 E53.02488
G1 X117.974 Y113.251 E53.08033
G1 X117.464 Y112.645 E53.13565
G1 X116.83 Y112.173 E53.19086
G1 X116.104 Y111.859 E53.2461
G1 X115.323 Y111.721 E53.3015
G1 X114.533 Y111.767 E53.35677
G1 X113.773 Y111.996 E53.41221
G1 X113.091 Y112.391 E53.46726
G1 X112.513 Y112.932 E53.52256
M204 S3000
M205 X10 Y10
G0 F3000 X126.35 Y95.83
M204 S1800
M205 X8 Y8
G1 F1800 X131.35 Y100.83 E54.01644
G1 X131.35 Y129.67 E56.03081
G1 X129.67 Y131.35 E56.19676
G1 X100.83 Y131.35 E58.21112
G1 X95.83 Y126.35 E58.70501
G1 X78.65 Y126.35 E59.90497
G1 X78.65 Y78.65 E63.23664
G1 X126.35 Y78.65 E66.56831
G1 X126.35 Y95.83 E67.76827
M204 S3000
M205 X10 Y10
G0 F3000 X126.91 Y95.598
M204 S1800
M205 X8 Y8
G1 F1800 X131.91 Y100.598 E68.26215
G1 X131.91 Y129.902 E70.30893
G1 X129.902 Y131.91 E70.50727
G1 X100.598 Y131.91 E72.55405
G1 X95.598 Y126.91 E73.04794
G1 X78.09 Y126.91 E74.27081
G1 X78.09 Y78.09 E77.6807
G1 X126.91 Y78.09 E81.0906
G1 X126.91 Y95.598 E82.31347
M204 S3000
M205 X10 Y10
G0 F3000 X126.818 Y95.636
G0 X112.869 Y113.231
G0 X112.945 Y113.295
M204 S1800
M205 X8 Y8
G1 F1800 X112.582 Y113.848 E82.35967
G1 X112.356 Y114.469 E82.40583
G1 X112.279 Y115.125 E82.45196
G1 X112.356 Y115.781 E82.49809
G1 X112.582 Y116.402 E82.54425
G1 X112.945 Y116.955 E82.59046
G1 X113.427 Y117.407 E82.63661
G1 X113.997 Y117.737 E82.68261
G1 X114.631 Y117.928 E82.72886
G1 X115.29 Y117.966 E82.77496
G1 X115.942 Y117.851 E82.82121
G1 X116.548 Y117.589 E82.86732
G1 X117.077 Y117.195 E82.91339
G1 X117.503 Y116.689 E82.95959
G1 X117.799 Y116.097 E83.00582
G1 X117.951 Y115.455 E83.0519
G1 X117.951 Y114.795 E83.098
G1 X117.799 Y114.153 E83.14408
G1 X117.503 Y113.561 E83.19031
G1 X117.077 Y113.055 E83.23651
G1 X116.548 Y112.661 E83.28258
G1 X115.942 Y112.399 E83.32869
G1 X115.29 Y112.284 E83.37494
G1 X114.631 Y112.322 E83.42104
G1 X113.997 Y112.513 E83.46729
G1 X113.427 Y112.843 E83.51329
G1 X112.945 Y113.295 E83.55945
M204 S3000
M205 X10 Y10
G0 F3000 X112.869 Y113.231
G0 X113.404 Y112.811
G0 X113.982 Y112.477
G0 X114.625 Y112.283
G0 X115.292 Y112.245
G0 X115.953 Y112.361
G0 X116.568 Y112.627
G0 X117.104 Y113.026
G0 X117.536 Y113.54
G0 X117.836 Y114.14
G0 X117.99 Y114.791
G0 X117.99 Y115.459
G0 X117.947 Y115.643
G0 X117.621 Y116.674
G0 X117.032 Y116.379
M204 S1800
M205 X8 Y8
;TYPE:WALL-OUTER
G1 F1800 X117.269 Y115.905 E83.59646
G1 X117.391 Y115.39 E83.63343
G1 X117.391 Y114.86 E83.67045
G1 X117.269 Y114.345 E83.70741
G1 X117.032 Y113.871 E83.74443
G1 X116.69 Y113.465 E83.78151
G1 X116.266 Y113.149 E83.81844
G1 X115.78 Y112.939 E83.85542
G1 X115.257 Y112.847 E83.89251
G1 X114.729 Y112.877 E83.92945
G1 X114.221 Y113.03 E83.9665
G1 X113.763 Y113.295 E84.00346
G1 X113.377 Y113.658 E84.04047
G1 X113.086 Y114.101 E84.07749
G1 X112.905 Y114.599 E84.1145
G1 X112.843 Y115.125 E84.1515
G1 X112.905 Y115.651 E84.18849
G1 X113.086 Y116.149 E84.2255
G1 X113.377 Y116.592 E84.26252
G1 X113.763 Y116.955 E84.29953
G1 X114.221 Y117.22 E84.33649
G1 X114.729 Y117.373 E84.37354
G1 X115.257 Y117.403 E84.41048
G1 X115.78 Y117.311 E84.44757
G1 X116.266 Y117.101 E84.48455
G1 X116.69 Y116.785 E84.52149
G1 X117.032 Y116.379 E84.55856
M204 S3000
M205 X10 Y10
G0 F3000 X117.121 Y116.2
G0 X117.711 Y116.495
G0 X126.81 Y95.366
G0 X127.47 Y95.366
M204 S1800
M205 X8 Y8
G1 F1800 X132.47 Y100.366 E85.05245
G1 X132.47 Y130.134 E87.13164
G1 X130.134 Y132.47 E87.36238
G1 X100.366 Y132.47 E89.44157
G1 X95.366 Y127.47 E89.93545
G1 X77.53 Y127.47 E91.18123
G1 X77.53 Y77.53 E94.66935
G1 X127.47 Y77.53 E98.15748
G1 X127.47 Y95.366 E99.40326
M204 S3000
M205 X10 Y10
G0 F3000 X127.611 Y95.507
G0 X127.144 Y95.972
G0 X125.8 Y96.058
M204 S1800
M205 X8 Y8
;TYPE:SKIN
G1 F1800 X130.8 Y101.058 E99.89714
G1 X130.8 Y129.442 E101.87966
G1 X129.442 Y130.8 E102.0138
G1 X101.058 Y130.8 E103.99632
G1 X96.058 Y125.8 E104.49021
G1 X79.2 Y125.8 E105.66767
G1 X79.2 Y79.2 E108.92251
G1 X125.8 Y79.2 E112.17735
G1 X125.8 Y96.058 E113.35482
M204 S3000
M205 X10 Y10
G0 F3000 X117.107 Y111.694
M204 S1800
M205 X8 Y8
G1 F1800 X116.263 Y111.329 E113.41904
G1 X115.355 Y111.169 E113.48344
G1 X114.437 Y111.221 E113.54766
G1 X113.553 Y111.488 E113.61216
G1 X112.761 Y111.947 E113.6761
G1 X112.089 Y112.575 E113.74034
G1 X111.583 Y113.347 E113.80481
G1 X111.269 Y114.211 E113.86902
G1 X111.161 Y115.125 E113.9333
G1 X111.269 Y116.039 E113.99759
G1 X111.583 Y116.903 E114.0618
G1 X112.089 Y117.675 E114.12627
G1 X112.761 Y118.303 E114.19051
G1 X113.553 Y118.762 E114.25445
G1 X114.437 Y119.029 E114.31895
G1 X115.355 Y119.081 E114.38317
G1 X116.263 Y118.921 E114.44757
G1 X117.107 Y118.556 E114.51179
G1 X117.843 Y118.008 E114.57588
G1 X118.437 Y117.303 E114.64027
G1 X118.85 Y116.478 E114.70471
G1 X119.061 Y115.585 E114.7688
G1 X119.061 Y114.665 E114.83306
G1 X118.85 Y113.772 E114.89715
G1 X118.437 Y112.947 E114.96159
G1 X117.843 Y112.242 E115.02598
G1 X117.107 Y111.694 E115.09007
M204 S3000
M205 X10 Y10
G0 F3000 X125.539 Y79.605
M204 S1800
M205 X8 Y8
G1 F1800 X125.393 Y79.459 E115.1045
M204 S3000
M205 X10 Y10
G0 F3000 X124.601 Y79.459
M204 S1800
M205 X8 Y8
G1 F1800 X125.539 Y80.397 E115.19715
M204 S3000
M205 X10 Y10
G0 F3000 X125.539 Y81.189
M204 S1800
M205 X8 Y8
G1 F1800 X123.809 Y79.459 E115.36803
M204 S3000
M205 X10 Y10
G0 F3000 X123.017 Y79.459
M204 S1800
M205 X8 Y8
G1 F1800 X125.539 Y81.981 E115.61715
M204 S3000
M205 X10 Y10
G0 F3000 X125.539 Y82.773
M204 S1800
M205 X8 Y8
G1 F1800 X122.225 Y79.459 E115.9445
M204 S3000
M205 X10 Y10
G0 F3000 X121.433 Y79.459
M204 S1800
M205 X8 Y8
G1 F1800 X125.539 Y83.565 E116.35008
M204 S3000
M205 X10 Y10
G0 F3000 X125.539 Y84.357
M204 S1800
M205 X8 Y8
G1 F1800 X120.641 Y79.459 E116.83389
M204 S3000
M205 X10 Y10
G0 F3000 X119.849 Y79.459
M204 S1800
M205 X8 Y8
G1 F1800 X125.539 Y85.149 E117.39594
M204 S3000
M205 X10 Y10
G0 F3000 X125.539 Y85.941
M204 S1800
M205 X8 Y8
G1 F1800 X119.057 Y79.459 E118.03621
M204 S3000
M205 X10 Y10
G0 F3000 X118.265 Y79.459
M204 S1800
M205 X8 Y8
G1 F1800 X125.539 Y86.733 E118.75472
M204 S3000
M205 X10 Y10
G0 F3000 X125.539 Y87.524
M204 S1800
M205 X8 Y8
G1 F1800 X117.473 Y79.459 E119.55141
M204 S3000
M205 X10 Y10
G0 F3000 X116.681 Y79.459
M204 S1800
M205 X8 Y8
G1 F1800 X125.539 Y88.316 E120.42633
M204 S3000
M205 X10 Y10
G0 F3000 X125.539 Y89.108
M204 S1800
M205 X8 Y8
G1 F1800 X115.889 Y79.459 E121.37949
M204 S3000
M205 X10 Y10
G0 F3000 X115.097 Y79.459
M204 S1800
M205 X8 Y8
G1 F1800 X125.539 Y89.9 E122.41087
M204 S3000
M205 X10 Y10
G0 F3000 X125.539 Y90.692
M204 S1800
M205 X8 Y8
G1 F1800 X114.305 Y79.459 E123.52049
M204 S3000
M205 X10 Y10
G0 F3000 X113.513 Y79.459
M204 S1800
M205 X8 Y8
G1 F1800 X125.539 Y91.484 E124.70834
M204 S3000
M205 X10 Y10
G0 F3000 X125.539 Y92.276
M204 S1800
M205 X8 Y8
G1 F1800 X112.722 Y79.459 E125.97437
M204 S3000
M205 X10 Y10
G0 F3000 X111.93 Y79.459
M204 S1800
M205 X8 Y8
G1 F1800 X125.539 Y93.068 E127.31864
M204 S3000
M205 X10 Y10
G0 F3000 X125.539 Y93.86
M204 S1800
M205 X8 Y8
G1 F1800 X111.138 Y79.459 E128.74113
M204 S3000
M205 X10 Y10
G0 F3000 X110.346 Y79.459
M204 S1800
M205 X8 Y8
G1 F1800 X125.539 Y94.652 E130.24186
M204 S3000
M205 X10 Y10
G0 F3000 X125.539 Y95.444
M204 S1800
M205 X8 Y8
G1 F1800 X109.554 Y79.459 E131.82082
M204 S3000
M205 X10 Y10
G0 F3000 X108.762 Y79.459
M204 S1800
M205 X8 Y8
G1 F1800 X130.538 Y101.236 E133.97185
M204 S3000
M205 X10 Y10
G0 F3000 X130.538 Y102.028
M204 S1800
M205 X8 Y8
G1 F1800 X107.97 Y79.459 E136.20111
M204 S3000
M205 X10 Y10
G0 F3000 X107.178 Y79.459
M204 S1800
M205 X8 Y8
G1 F1800 X130.538 Y102.82 E138.5086
M204 S3000
M205 X10 Y10
G0 F3000 X130.538 Y103.612
M204 S1800
M205 X8 Y8
G1 F1800 X106.386 Y79.459 E140.89433
M204 S3000
M205 X10 Y10
G0 F3000 X105.594 Y79.459
M204 S1800
M205 X8 Y8
G1 F1800 X130.538 Y104.404 E143.35829
M204 S3000
M205 X10 Y10
G0 F3000 X130.538 Y105.196
M204 S1800
M205 X8 Y8
G1 F1800 X104.802 Y79.459 E145.90048
M204 S3000
M205 X10 Y10
G0 F3000 X104.01 Y79.459
M204 S1800
M205 X8 Y8
G1 F1800 X130.538 Y105.988 E148.5209
M204 S3000
M205 X10 Y10
G0 F3000 X130.538 Y106.78
M204 S1800
M205 X8 Y8
G1 F1800 X103.218 Y79.459 E151.21955
M204 S3000
M205 X10 Y10
G0 F3000 X102.426 Y79.459
M204 S1800
M205 X8 Y8
G1 F1800 X130.538 Y107.572 E153.99643
M204 S3000
M205 X10 Y10
G0 F3000 X130.538 Y108.364
M204 S1800
M205 X8 Y8
G1 F1800 X101.634 Y79.459 E156.85155
M204 S3000
M205 X10 Y10
