;FLAVOR:Marlin
;TIME:382
;Filament used: 0.303121m
;Layer height: 0.2
;Generated with Cura_SteamEngine 3.5.0
M140 S60
M105
M190 S60
M104 S200
M105
M109 S200
M82 ;absolute extrusion mode
G21 ;metric values
G90 ;absolute positioning
M82 ;set extruder to absolute mode
M107 ;start with the fan off
G28 X0 Y0 ;move X/Y to min endstops
G28 Z0 ;move Z to min endstops
G1 Z15.0 F120 ;move the platform down 15mm
G92 E0 ;zero the extruded length
G1 F200 E3 ;extrude 3mm of feed stock
G92 E0 ;zero the extruded length again
G1 F120
M117 Printing...
G5
G92 E0
G1 F2400 E-6
;LAYER_COUNT:49
;LAYER:0
M106 S255
M204 S3000
M205 X10 Y10
G0 F3000 X78.326 Y96.742 Z0.3
M204 S1800
M205 X8 Y8
;TYPE:SKIRT
G1 F2400 E0
G1 X78.908 Y96.327 E0.04993
G1 X79.533 Y95.978 E0.09993
G1 X80.193 Y95.702 E0.14989
G1 X80.879 Y95.501 E0.19982
G1 X81.584 Y95.378 E0.24981
G1 X82.335 Y95.334 E0.30235
G1 X89.892 Y95.338 E0.83018
G1 X90.641 Y95.382 E0.88258
G1 X94.444 Y95.832 E1.15006
G1 X99.763 Y96.211 E1.52252
G1 X105.047 Y96.288 E1.89162
G1 X110.366 Y96.064 E2.26347
G1 X112.267 Y95.905 E2.39671
G1 X112.267 Y95.906 E2.39678
G1 X113.685 Y95.784 E2.49619
G1 X114.487 Y95.765 E2.55222
G1 X117.645 Y95.89 E2.77297
G1 X127.633 Y95.835 E3.4706
G1 X128.347 Y95.871 E3.52053
G1 X129.053 Y95.987 E3.57051
G1 X129.741 Y96.18 E3.62042
G1 X130.404 Y96.449 E3.67039
G1 X131.033 Y96.791 E3.7204
G1 X131.619 Y97.2 E3.77031
G1 X132.156 Y97.673 E3.82029
G1 X132.637 Y98.202 E3.87023
G1 X133.056 Y98.782 E3.92021
G1 X133.408 Y99.404 E3.97013
G1 X133.688 Y100.063 E4.02014
G1 X133.893 Y100.748 E4.07008
G1 X134.02 Y101.452 E4.12005
G1 X134.068 Y102.236 E4.17491
G1 X134.067 Y108.167 E4.58917
G1 X134.027 Y108.881 E4.63911
G1 X133.907 Y109.586 E4.68906
G1 X133.71 Y110.274 E4.73905
G1 X133.437 Y110.935 E4.789
G1 X133.092 Y111.562 E4.83899
G1 X132.679 Y112.146 E4.88895
G1 X132.204 Y112.68 E4.93886
G1 X131.672 Y113.158 E4.98882
G1 X131.09 Y113.574 E5.03879
G1 X130.465 Y113.922 E5.08875
G1 X129.805 Y114.198 E5.13872
G1 X129.119 Y114.399 E5.18865
G1 X128.414 Y114.522 E5.23863
G1 X127.586 Y114.565 E5.29654
G1 X121.398 Y114.487 E5.72879
G1 X114.367 Y114.639 E6.21999
G1 X113.637 Y114.613 E6.27101
G1 X111.606 Y114.425 E6.41347
G1 X106.275 Y114.129 E6.7864
G1 X100.972 Y114.136 E7.15679
G1 X95.689 Y114.441 E7.52641
G1 X90.53 Y115.025 E7.88904
G1 X89.81 Y115.066 E7.93941
G1 X82.332 Y115.066 E8.46172
G1 X81.618 Y115.026 E8.51167
G1 X80.913 Y114.907 E8.56161
G1 X80.225 Y114.709 E8.61162
G1 X79.564 Y114.436 E8.66157
G1 X78.937 Y114.092 E8.71152
G1 X78.353 Y113.679 E8.76148
G1 X77.819 Y113.204 E8.8114
G1 X77.34 Y112.672 E8.8614
G1 X76.925 Y112.09 E8.91132
G1 X76.576 Y111.465 E8.96132
G1 X76.3 Y110.805 E9.01129
G1 X76.099 Y110.119 E9.06122
G1 X75.976 Y109.414 E9.1112
G1 X75.932 Y108.666 E9.16354
G1 X75.932 Y101.734 E9.64771
G1 X75.972 Y101.02 E9.69766
G1 X76.091 Y100.315 E9.7476
G1 X76.289 Y99.627 E9.79761
G1 X76.562 Y98.966 E9.84756
G1 X76.906 Y98.339 E9.89751
G1 X77.319 Y97.755 E9.94747
G1 X77.794 Y97.221 E9.99739
G1 X78.326 Y96.742 E10.04739
M204 S3000
M205 X10 Y10
G0 F3000 X78.871 Y97.03
M204 S1800
M205 X8 Y8
G1 F2400 X79.444 Y96.658 E10.0951
G1 X80.057 Y96.355 E10.14286
G1 X80.7 Y96.127 E10.19051
G1 X81.366 Y95.974 E10.23824
G1 X82.335 Y95.894 E10.30616
G1 X89.892 Y95.898 E10.83398
G1 X90.575 Y95.938 E10.88177
G1 X94.402 Y96.391 E11.15094
G1 X99.732 Y96.77 E11.52416
G1 X105.044 Y96.848 E11.89522
G1 X110.413 Y96.622 E12.27056
G1 X112.314 Y96.463 E12.4038
G1 X113.733 Y96.341 E12.50328
G1 X114.464 Y96.325 E12.55435
G1 X117.625 Y96.45 E12.77531
G1 X127.636 Y96.395 E13.47455
G1 X128.318 Y96.431 E13.52225
G1 X128.991 Y96.547 E13.56995
G1 X129.647 Y96.74 E13.61771
G1 X130.275 Y97.009 E13.66543
G1 X130.867 Y97.349 E13.71311
G1 X131.416 Y97.756 E13.76084
G1 X131.913 Y98.225 E13.80857
G1 X132.353 Y98.748 E13.85631
G1 X132.728 Y99.319 E13.90403
G1 X133.034 Y99.93 E13.95175
G1 X133.266 Y100.572 E13.99943
G1 X133.422 Y101.238 E14.04721
G1 X133.508 Y102.236 E14.11718
G1 X133.507 Y108.167 E14.53143
G1 X133.467 Y108.849 E14.57915
G1 X133.347 Y109.522 E14.6269
G1 X133.15 Y110.176 E14.67461
G1 X132.878 Y110.803 E14.72234
G1 X132.534 Y111.393 E14.77004
G1 X132.124 Y111.939 E14.81774
G1 X131.653 Y112.434 E14.86546
G1 X131.127 Y112.871 E14.91322
G1 X130.554 Y113.242 E14.9609
G1 X129.941 Y113.545 E15.00866
G1 X129.298 Y113.774 E15.05634
G1 X128.632 Y113.926 E15.10405
G1 X127.952 Y113.999 E15.15182
G1 X127.593 Y114.006 E15.1769
G1 X121.363 Y113.927 E15.61208
G1 X114.354 Y114.079 E16.10174
G1 X113.689 Y114.055 E16.14822
G1 X111.662 Y113.867 E16.29041
G1 X106.288 Y113.569 E16.66634
G1 X100.957 Y113.576 E17.03869
G1 X95.647 Y113.882 E17.41019
G1 X90.467 Y114.469 E17.77431
G1 X89.81 Y114.506 E17.82027
G1 X82.332 Y114.506 E18.34258
G1 X81.65 Y114.466 E18.3903
G1 X80.977 Y114.347 E18.43803
G1 X80.323 Y114.15 E18.48574
G1 X79.696 Y113.877 E18.5335
G1 X79.106 Y113.534 E18.58117
G1 X78.559 Y113.124 E18.62892
G1 X78.064 Y112.653 E18.67664
G1 X77.628 Y112.127 E18.72436
G1 X77.256 Y111.554 E18.77208
G1 X76.953 Y110.941 E18.81984
G1 X76.725 Y110.298 E18.86749
G1 X76.572 Y109.632 E18.91522
G1 X76.492 Y108.666 E18.98292
G1 X76.492 Y101.734 E19.4671
G1 X76.532 Y101.052 E19.51481
G1 X76.651 Y100.379 E19.56255
G1 X76.848 Y99.725 E19.61026
G1 X77.121 Y99.098 E19.65802
G1 X77.464 Y98.508 E19.70569
G1 X77.874 Y97.961 E19.75344
G1 X78.345 Y97.466 E19.80116
G1 X78.871 Y97.03 E19.84888
M204 S3000
M205 X10 Y10
G0 F3000 X78.894 Y97.726
M204 S1800
M205 X8 Y8
G1 F2400 X79.412 Y97.335 E19.89421
G1 X79.975 Y97.009 E19.93965
G1 X80.573 Y96.756 E19.985
G1 X81.197 Y96.577 E20.03034
G1 X81.839 Y96.477 E20.07573
G1 X82.335 Y96.454 E20.11041
G1 X89.892 Y96.458 E20.63824
G1 X90.509 Y96.495 E20.68141
G1 X94.318 Y96.946 E20.94931
G1 X99.719 Y97.33 E21.3275
G1 X105.06 Y97.409 E21.70059
G1 X110.436 Y97.182 E22.07642
G1 X112.361 Y97.021 E22.21134
G1 X113.781 Y96.899 E22.31089
G1 X114.442 Y96.884 E22.35707
G1 X117.628 Y97.01 E22.57978
G1 X127.639 Y96.955 E23.27902
G1 X128.287 Y96.991 E23.32435
G1 X128.927 Y97.107 E23.36978
G1 X129.547 Y97.301 E23.41515
G1 X130.139 Y97.569 E23.46054
G1 X130.693 Y97.907 E23.50587
G1 X131.201 Y98.312 E23.55125
G1 X131.656 Y98.775 E23.59659
G1 X132.051 Y99.291 E23.64198
G1 X132.379 Y99.852 E23.68737
G1 X132.636 Y100.448 E23.7327
G1 X132.818 Y101.072 E23.7781
G1 X132.922 Y101.713 E23.82346
G1 X132.948 Y102.236 E23.86003
G1 X132.947 Y108.167 E24.27429
G1 X132.907 Y108.815 E24.31964
G1 X132.788 Y109.454 E24.36504
G1 X132.591 Y110.073 E24.41041
G1 X132.319 Y110.663 E24.45579
G1 X131.977 Y111.215 E24.50114
G1 X131.57 Y111.722 E24.54655
G1 X131.104 Y112.174 E24.5919
G1 X130.586 Y112.566 E24.63727
G1 X130.023 Y112.891 E24.68267
G1 X129.425 Y113.145 E24.72805
G1 X128.801 Y113.323 E24.77338
G1 X128.159 Y113.423 E24.81876
G1 X127.6 Y113.446 E24.85783
G1 X121.358 Y113.367 E25.29385
G1 X114.342 Y113.519 E25.78401
G1 X113.74 Y113.497 E25.82608
G1 X111.716 Y113.309 E25.96806
G1 X106.301 Y113.009 E26.34686
G1 X100.941 Y113.016 E26.72123
G1 X95.589 Y113.325 E27.09567
G1 X90.404 Y113.912 E27.46014
G1 X89.81 Y113.946 E27.5017
G1 X82.332 Y113.946 E28.02401
G1 X81.684 Y113.906 E28.06935
G1 X81.045 Y113.787 E28.11475
G1 X80.426 Y113.59 E28.16012
G1 X79.836 Y113.319 E28.20547
G1 X79.283 Y112.977 E28.25089
G1 X78.777 Y112.57 E28.29624
G1 X78.324 Y112.104 E28.34164
G1 X77.933 Y111.586 E28.38697
G1 X77.607 Y111.023 E28.43241
G1 X77.354 Y110.425 E28.47776
G1 X77.175 Y109.801 E28.5231
G1 X77.075 Y109.159 E28.56848
G1 X77.052 Y108.666 E28.60296
G1 X77.052 Y101.734 E29.08713
G1 X77.092 Y101.086 E29.13248
G1 X77.211 Y100.447 E29.17788
G1 X77.408 Y99.828 E29.22325
G1 X77.679 Y99.238 E29.2686
G1 X78.021 Y98.685 E29.31401
G1 X78.428 Y98.179 E29.35937
G1 X78.894 Y97.726 E29.40476
M204 S3000
M205 X10 Y10
G1 F2400 E23.40476
G0 F3000 X83.177 Y101.06
G0 X83.177 Y102.579
G0 X88.491 Y104.975
M204 S1800
M205 X8 Y8
;TYPE:WALL-INNER
G1 F2400 E29.40476
G1 F1800 X109.329 Y104.975 E30.86022
G1 X112.816 Y103.997 E31.11317
G1 X112.816 Y104.975 E31.18148
G1 X125.577 Y104.975 E32.07279
G1 X125.577 Y103.625 E32.16708
G1 X126.277 Y103.625 E32.21597
G1 X126.277 Y106.775 E32.43599
G1 X125.577 Y106.775 E32.48488
G1 X125.577 Y105.425 E32.57917
G1 X112.816 Y105.425 E33.2954
G1 X112.816 Y106.403 E33.36371
G1 X109.329 Y105.425 E33.61666
G1 X88.491 Y105.425 E34.78623
G1 X88.491 Y107.26 E34.91439
G1 X88.421 Y107.26 E34.91928
G1 X88.421 Y107.275
G1 X83.723 Y107.275 E35.24742
G1 X83.723 Y103.405 E35.51773
G1 X83.723 Y103.125 E35.53728
G1 X84.003 Y103.125 E35.54994
G1 X88.491 Y103.128 E35.86341
G1 X88.491 Y104.975 E35.99242
M204 S3000
M205 X10 Y10
G0 F3000 X89.051 Y104.415
M204 S1800
M205 X8 Y8
G1 F1800 X109.252 Y104.415 E37.40338
G1 X113.021 Y103.357 E37.67681
G1 X113.376 Y103.258 E37.70255
G1 X113.376 Y103.626 E37.71802
G1 X113.376 Y103.627 E37.71809
G1 X113.376 Y104.415 E37.77313
G1 X125.017 Y104.415 E38.58621
G1 X125.017 Y103.065 E38.6805
G1 X126.837 Y103.065 E38.80763
G1 X126.837 Y107.335 E39.10587
G1 X125.017 Y107.335 E39.23299
G1 X125.017 Y105.985 E39.32728
G1 X113.376 Y105.985 E40.14036
G1 X113.376 Y106.773 E40.1954
G1 X113.376 Y106.774 E40.19547
G1 X113.376 Y107.142 E40.22117
G1 X113.021 Y107.043 E40.23667
G1 X109.252 Y105.985 E40.51009
G1 X89.051 Y105.985 E41.92106
G1 X89.051 Y107.82 E42.04923
G1 X88.981 Y107.82 E42.05412
G1 X88.981 Y107.835
G1 X83.163 Y107.835 E42.46048
G1 X83.163 Y102.845 E42.80901
G1 X83.163 Y102.565 E42.82857
G1 X83.443 Y102.565 E42.84123
G1 X89.051 Y102.568 E43.23293
G1 X89.051 Y104.415 E43.36194
M204 S3000
M205 X10 Y10
G0 F3000 X89.611 Y103.855
M204 S1800
M205 X8 Y8
;TYPE:WALL-OUTER
G1 F1800 X109.175 Y103.855 E44.72841
G1 X113.581 Y102.619 E45.04803
G1 X113.936 Y102.52 E45.07377
G1 X113.936 Y102.888 E45.08924
G1 X113.936 Y102.889 E45.08931
G1 X113.936 Y103.855 E45.15678
G1 X124.457 Y103.855 E45.89164
G1 X124.457 Y102.505 E45.98593
G1 X127.397 Y102.505 E46.19128
G1 X127.397 Y107.895 E46.56775
G1 X124.457 Y107.895 E46.7731
G1 X124.457 Y106.545 E46.86739
G1 X113.936 Y106.545 E47.60224
G1 X113.936 Y107.511 E47.66971
G1 X113.936 Y107.512 E47.66978
G1 X113.936 Y107.88 E47.69549
G1 X113.581 Y107.781 E47.71098
G1 X109.175 Y106.545 E48.0306
G1 X89.611 Y106.545 E49.39708
G1 X89.611 Y108.38 E49.52524
G1 X89.541 Y108.38 E49.53013
G1 X89.541 Y108.395
G1 X82.603 Y108.395 E50.01473
G1 X82.603 Y102.285 E50.44149
G1 X82.603 Y102.005 E50.46104
G1 X82.883 Y102.005 E50.4737
G1 X89.611 Y102.008 E50.94363
G1 X89.611 Y103.855 E51.07264
M204 S3000
M205 X10 Y10
G0 F3000 X89.811 Y103.855
G0 X89.811 Y104.515
G0 X89.102 Y104.451
G0 X87.941 Y103.678
M204 S1800
M205 X8 Y8
;TYPE:SKIN
G1 F1800 X87.941 Y106.71 E51.28441
G1 X87.871 Y106.71 E51.2893
G1 X87.871 Y106.725 E51.29035
G1 X84.273 Y106.725 E51.54165
G1 X84.273 Y103.675 E51.75468
G1 X87.941 Y103.678 E52.01088
M204 S3000
M205 X10 Y10
G0 F3000 X87.681 Y104.312
M204 S1800
M205 X8 Y8
G1 F1800 X87.306 Y103.937 E52.04792
M204 S3000
M205 X10 Y10
G0 F3000 X86.513 Y103.936
M204 S1800
M205 X8 Y8
G1 F1800 X87.681 Y105.104 E52.16329
M204 S3000
M205 X10 Y10
G0 F3000 X87.681 Y105.896
M204 S1800
M205 X8 Y8
G1 F1800 X85.721 Y103.936 E52.3569
M204 S3000
M205 X10 Y10
G0 F3000 X84.928 Y103.935
M204 S1800
M205 X8 Y8
G1 F1800 X87.457 Y106.464 E52.60671
M204 S3000
M205 X10 Y10
G0 F3000 X86.665 Y106.464
M204 S1800
M205 X8 Y8
G1 F1800 X84.532 Y104.331 E52.8174
M204 S3000
M205 X10 Y10
G0 F3000 X84.532 Y105.123
M204 S1800
M205 X8 Y8
G1 F1800 X85.873 Y106.464 E52.94986
M204 S3000
M205 X10 Y10
G0 F3000 X85.081 Y106.464
M204 S1800
M205 X8 Y8
G1 F1800 X84.532 Y105.915 E53.00409
M204 S3000
M205 X10 Y10
G0 F3000 X110.565 Y105.2
M204 S1800
M205 X8 Y8
G1 F1800 X112.266 Y104.723 E53.12748
G1 X112.266 Y105.677 E53.19411
G1 X110.565 Y105.2 E53.31751
M204 S3000
M205 X10 Y10
G0 F3000 X125.045 Y105.957
G0 X126.016 Y106.217
G0 X125.926 Y106.127
M204 S1800
M205 X8 Y8
G1 F1800 X125.926 Y105.335 E53.3446
G1 X125.926 Y104.543 E53.3717
M204 S3000
M205 X10 Y10
G0 F3000 X125.836 Y104.453
G0 X88.891 Y104.575
;TIME_ELAPSED:34.006187
;LAYER:1
M140 S60
G0 F4500 X88.891 Y104.575 Z0.5
M204 S1800
M205 X8 Y8
;TYPE:WALL-INNER
G1 F2700 X110.136 Y104.575 E54.07831
G1 X110.136 Y104.327 E54.08656
G1 X112.963 Y103.538 E54.18418
G1 X113.216 Y103.468 E54.19291
G1 X113.216 Y103.73 E54.19816
G1 X113.216 Y103.731 E54.19819
G1 X113.216 Y104.575 E54.22627
G1 X125.177 Y104.575 E54.62409
G1 X125.177 Y103.225 E54.66899
G1 X126.677 Y103.225 E54.71888
G1 X126.677 Y107.175 E54.85026
G1 X125.177 Y107.175 E54.90015
G1 X125.177 Y105.825 E54.94505
G1 X113.216 Y105.825 E55.34288
G1 X113.216 Y106.668 E55.37091
G1 X113.216 Y106.669 E55.37095
G1 X113.216 Y106.931 E55.37966
G1 X112.963 Y106.86 E55.38491
G1 X109.274 Y105.825 E55.51235
G1 X88.891 Y105.825 E56.19029
G1 X88.891 Y107.66 E56.25132
G1 X88.821 Y107.66 E56.25365
G1 X88.821 Y107.675
G1 X83.323 Y107.675 E56.43652
G1 X83.323 Y102.925 E56.5945
G1 X83.323 Y102.725 E56.60115
G1 X83.523 Y102.725 E56.60546
G1 X88.891 Y102.728 E56.784
G1 X88.891 Y104.575 E56.84543
M204 S3000
M205 X10 Y10
G0 F4500 X89.291 Y104.175
M204 S1800
M205 X8 Y8
G1 F2700 X109.736 Y104.175 E57.52544
G1 X109.736 Y104.024 E57.53046
G1 X113.363 Y103.011 E57.65571
G1 X113.616 Y102.941 E57.66444
G1 X113.616 Y103.203 E57.66969
G1 X113.616 Y103.204 E57.66972
G1 X113.616 Y104.175 E57.70202
G1 X124.777 Y104.175 E58.07323
G1 X124.777 Y102.825 E58.11813
G1 X127.077 Y102.825 E58.19463
G1 X127.077 Y107.575 E58.35262
G1 X124.777 Y107.575 E58.42912
G1 X124.777 Y106.225 E58.47402
G1 X113.616 Y106.225 E58.84523
G1 X113.616 Y107.195 E58.8775
G1 X113.616 Y107.196 E58.87753
G1 X113.616 Y107.458 E58.88624
G1 X113.363 Y107.387 E58.8915
G1 X109.219 Y106.225 E59.03464
G1 X89.291 Y106.225 E59.69745
G1 X89.291 Y108.06 E59.75848
G1 X89.221 Y108.06 E59.76081
G1 X89.221 Y108.075
G1 X82.923 Y108.075 E59.97028
G1 X82.923 Y102.525 E60.15488
G1 X82.923 Y102.325 E60.16153
G1 X83.123 Y102.325 E60.16584
G1 X89.291 Y102.328 E60.37098
G1 X89.291 Y104.175 E60.43242
M204 S3000
M205 X10 Y10
G0 F4500 X89.691 Y103.775
M204 S1800
M205 X8 Y8
;TYPE:WALL-OUTER
G1 F2700 X109.336 Y103.775 E61.08581
G1 X109.336 Y103.721 E61.08761
G1 X113.763 Y102.484 E61.24049
G1 X114.016 Y102.414 E61.24922
G1 X114.016 Y102.676 E61.25447
G1 X114.016 Y102.677 E61.2545
G1 X114.016 Y103.775 E61.29102
G1 X124.377 Y103.775 E61.63563
G1 X124.377 Y102.425 E61.68053
G1 X127.477 Y102.425 E61.78364
G1 X127.477 Y107.975 E61.96823
G1 X124.377 Y107.975 E62.07134
G1 X124.377 Y106.625 E62.11624
G1 X114.016 Y106.625 E62.46085
G1 X114.016 Y107.723 E62.49737
G1 X114.016 Y107.724 E62.4974
G1 X114.016 Y107.986 E62.50611
G1 X113.763 Y107.915 E62.51137
G1 X109.164 Y106.625 E62.67023
G1 X89.691 Y106.625 E63.31791
G1 X89.691 Y108.46 E63.37894
G1 X89.621 Y108.46 E63.38127
G1 X89.621 Y108.475
G1 X82.523 Y108.475 E63.61735
G1 X82.523 Y102.125 E63.82855
G1 X82.523 Y101.925 E63.8352
G1 X82.723 Y101.925 E63.83951
G1 X89.691 Y101.928 E64.07127
G1 X89.691 Y103.775 E64.1327
M204 S3000
M205 X10 Y10
G0 F4500 X89.891 Y103.775
G0 X89.891 Y104.275
G0 X89.263 Y104.203
G0 X88.501 Y103.118
M204 S1800
M205 X8 Y8
;TYPE:SKIN
G1 F1800 X88.501 Y104.965 E64.19413
G1 X110.526 Y104.965 E64.92669
G1 X110.526 Y104.623 E64.93806
G1 X112.826 Y103.982 E65.01747
G1 X112.826 Y104.965 E65.05017
G1 X125.567 Y104.965 E65.47394
G1 X125.567 Y103.615 E65.51884
G1 X126.287 Y103.615 E65.54278
G1 X126.287 Y106.785 E65.64822
G1 X125.567 Y106.785 E65.67217
G1 X125.567 Y105.435 E65.71707
G1 X112.826 Y105.435 E66.14083
G1 X112.826 Y106.416 E66.17346
G1 X109.328 Y105.435 E66.2943
G1 X88.501 Y105.435 E66.987
G1 X88.501 Y107.27 E67.04804
G1 X88.431 Y107.27 E67.05036
G1 X88.431 Y107.285 E67.05086
G1 X83.713 Y107.285 E67.20779
G1 X83.713 Y103.115 E67.34648
G1 X88.501 Y103.118 E67.50573
M204 S3000
M205 X10 Y10
G0 F4500 X83.892 Y103.914
M204 S1800
M205 X8 Y8
G1 F1800 X84.513 Y103.294 E67.53492
M204 S3000
M205 X10 Y10
G0 F4500 X85.078 Y103.294
M204 S1800
M205 X8 Y8
G1 F1800 X83.892 Y104.48 E67.5907
M204 S3000
M205 X10 Y10
G0 F4500 X83.892 Y105.046
M204 S1800
M205 X8 Y8
G1 F1800 X85.644 Y103.294 E67.67311
M204 S3000
M205 X10 Y10
G0 F4500 X86.209 Y103.295
M204 S1800
M205 X8 Y8
G1 F1800 X83.892 Y105.612 E67.7821
M204 S3000
