;FLAVOR:Marlin
;TIME:5360
;Filament used: 3.96374m
;Layer height: 0.2
;MINX:54.5
;MINY:76.55
;MINZ:0.2
;MAXX:155.5
;MAXY:133.45
;MAXZ:32
;Generated with Cura_SteamEngine 4.1.0
M140 S60
M105
M190 S60
M104 S200
M105
M109 S200
M82 ;absolute extrusion mode
G21 ;metric values
G90 ;absolute positioning
M82 ;set extruder to absolute mode
M107 ;start with the fan off
G28 X0 Y0 ;move X/Y to min endstops
G28 Z0 ;move Z to min endstops
G1 Z15.0 F100 ;move the platform down 15mm
G92 E0 ;zero the extruded length
G1 F200 E3 ;extrude 3mm of feed stock
G92 E0 ;zero the extruded length again
G1 F100
M117 Printing...
G5
G92 E0
G92 E0
G1 F2400 E-6
;LAYER_COUNT:160
;LAYER:0
M106 S255
M204 S3000
M205 X10 Y10
G0 F3000 X56.971 Y77.914 Z0.2
M204 S1800
M205 X8 Y8
;TYPE:SKIRT
G1 F2400 E0
G1 X57.559 Y77.506 E0.03333
G1 X58.188 Y77.166 E0.06662
G1 X58.852 Y76.899 E0.09994
G1 X59.541 Y76.707 E0.13325
G1 X60.247 Y76.593 E0.16655
G1 X60.73 Y76.562 E0.18909
G1 X61.051 Y76.553 E0.20404
G1 X61.23 Y76.55 E0.21238
G1 X148.393 Y76.55 E4.27105
G1 X148.485 Y76.551 E4.27533
G1 X149.183 Y76.561 E4.30784
G1 X149.896 Y76.611 E4.34112
G1 X150.6 Y76.74 E4.37445
G1 X151.284 Y76.948 E4.40774
G1 X151.941 Y77.23 E4.44103
G1 X152.563 Y77.584 E4.47435
G1 X153.141 Y78.005 E4.50765
G1 X153.669 Y78.488 E4.54097
G1 X154.139 Y79.026 E4.57424
G1 X154.547 Y79.614 E4.60756
G1 X154.886 Y80.244 E4.64087
G1 X155.153 Y80.907 E4.67416
G1 X155.344 Y81.597 E4.70749
G1 X155.457 Y82.303 E4.74079
G1 X155.488 Y82.78 E4.76304
G1 X155.497 Y83.1 E4.77795
G1 X155.5 Y83.28 E4.78633
G1 X155.5 Y126.393 E6.79386
G1 X155.491 Y127.12 E6.82771
G1 X155.442 Y127.834 E6.86104
G1 X155.314 Y128.538 E6.89435
G1 X155.108 Y129.223 E6.92766
G1 X154.827 Y129.88 E6.96094
G1 X154.474 Y130.503 E6.99428
G1 X154.054 Y131.082 E7.02758
G1 X153.572 Y131.61 E7.06087
G1 X153.035 Y132.082 E7.09417
G1 X152.447 Y132.49 E7.12749
G1 X151.818 Y132.831 E7.16081
G1 X151.155 Y133.099 E7.19411
G1 X150.466 Y133.291 E7.22741
G1 X149.76 Y133.406 E7.26072
G1 X149.27 Y133.438 E7.28358
G1 X148.949 Y133.447 E7.29854
G1 X148.77 Y133.45 E7.30687
G1 X61.607 Y133.45 E11.36555
G1 X61.524 Y133.449 E11.36941
G1 X60.826 Y133.44 E11.40192
G1 X60.113 Y133.391 E11.4352
G1 X59.409 Y133.263 E11.46851
G1 X58.724 Y133.057 E11.50182
G1 X58.067 Y132.775 E11.53511
G1 X57.445 Y132.422 E11.56842
G1 X56.866 Y132.002 E11.60172
G1 X56.337 Y131.52 E11.63505
G1 X55.866 Y130.982 E11.66834
G1 X55.458 Y130.395 E11.70163
G1 X55.118 Y129.765 E11.73496
G1 X54.85 Y129.102 E11.76826
G1 X54.658 Y128.413 E11.80157
G1 X54.544 Y127.707 E11.83487
G1 X54.511 Y127.214 E11.85788
G1 X54.502 Y126.881 E11.87339
G1 X54.5 Y126.708 E11.88144
G1 X54.5 Y83.624 E13.88761
G1 X54.501 Y83.537 E13.89167
G1 X54.51 Y82.872 E13.92263
G1 X54.559 Y82.159 E13.95591
G1 X54.688 Y81.455 E13.98924
G1 X54.895 Y80.771 E14.02252
G1 X55.177 Y80.113 E14.05585
G1 X55.53 Y79.491 E14.08915
G1 X55.95 Y78.913 E14.12242
G1 X56.433 Y78.385 E14.15574
G1 X56.971 Y77.914 E14.18904
M204 S3000
M205 X10 Y10
G0 F3000 X57.512 Y78.209
M204 S1800
M205 X8 Y8
G1 F2400 X58.09 Y77.844 E14.22087
G1 X58.707 Y77.55 E14.25269
G1 X59.353 Y77.33 E14.28447
G1 X60.021 Y77.187 E14.31628
G1 X60.745 Y77.121 E14.35013
G1 X61.066 Y77.112 E14.36509
G1 X61.23 Y77.11 E14.37272
G1 X148.393 Y77.11 E18.4314
G1 X148.477 Y77.111 E18.43531
G1 X149.175 Y77.121 E18.46781
G1 X149.856 Y77.17 E18.49961
G1 X150.527 Y77.299 E18.53142
G1 X151.178 Y77.506 E18.56323
G1 X151.801 Y77.787 E18.59506
G1 X152.387 Y78.139 E18.62689
G1 X152.927 Y78.557 E18.65868
G1 X153.415 Y79.035 E18.69049
G1 X153.844 Y79.567 E18.72232
G1 X154.208 Y80.145 E18.75412
G1 X154.502 Y80.762 E18.78595
G1 X154.721 Y81.409 E18.81775
G1 X154.864 Y82.077 E18.84956
G1 X154.929 Y82.796 E18.88318
G1 X154.938 Y83.116 E18.89809
G1 X154.94 Y83.28 E18.90572
G1 X154.94 Y126.386 E20.91292
G1 X154.931 Y127.113 E20.94677
G1 X154.882 Y127.795 E20.97861
G1 X154.754 Y128.466 E21.01042
G1 X154.549 Y129.118 E21.04224
G1 X154.269 Y129.741 E21.07405
G1 X153.919 Y130.327 E21.10583
G1 X153.502 Y130.869 E21.13768
G1 X153.025 Y131.358 E21.16948
G1 X152.494 Y131.787 E21.20127
G1 X151.916 Y132.152 E21.2331
G1 X151.3 Y132.447 E21.26491
G1 X150.653 Y132.668 E21.29674
G1 X149.985 Y132.812 E21.32856
G1 X149.255 Y132.879 E21.3627
G1 X148.934 Y132.888 E21.37765
G1 X148.77 Y132.89 E21.38529
G1 X61.532 Y132.89 E25.44745
G1 X60.834 Y132.881 E25.47996
G1 X60.152 Y132.832 E25.5118
G1 X59.481 Y132.704 E25.5436
G1 X58.83 Y132.498 E25.5754
G1 X58.206 Y132.218 E25.60725
G1 X57.62 Y131.867 E25.63905
G1 X57.079 Y131.45 E25.67086
G1 X56.59 Y130.972 E25.7027
G1 X56.161 Y130.441 E25.73449
G1 X55.796 Y129.863 E25.76632
G1 X55.502 Y129.247 E25.7981
G1 X55.281 Y128.6 E25.82994
G1 X55.137 Y127.932 E25.86176
G1 X55.071 Y127.199 E25.89603
G1 X55.062 Y126.866 E25.91154
G1 X55.06 Y126.708 E25.9189
G1 X55.06 Y83.624 E27.92507
G1 X55.061 Y83.545 E27.92875
G1 X55.07 Y82.88 E27.95971
G1 X55.119 Y82.199 E27.99151
G1 X55.247 Y81.527 E28.02336
G1 X55.453 Y80.876 E28.05515
G1 X55.734 Y80.253 E28.08698
G1 X56.085 Y79.667 E28.11879
G1 X56.503 Y79.126 E28.15062
G1 X56.98 Y78.638 E28.1824
G1 X57.512 Y78.209 E28.21422
M204 S3000
M205 X10 Y10
G0 F3000 X57.526 Y78.905
M204 S1800
M205 X8 Y8
G1 F2400 X58.049 Y78.521 E28.24443
G1 X58.616 Y78.203 E28.2747
G1 X59.217 Y77.957 E28.30494
G1 X59.844 Y77.787 E28.33519
G1 X60.761 Y77.681 E28.37817
G1 X61.082 Y77.672 E28.39313
G1 X61.23 Y77.67 E28.40002
G1 X148.393 Y77.67 E32.45869
G1 X148.469 Y77.671 E32.46223
G1 X149.167 Y77.681 E32.49474
G1 X149.814 Y77.73 E32.52495
G1 X150.451 Y77.858 E32.55521
G1 X151.067 Y78.064 E32.58545
G1 X151.654 Y78.344 E32.61573
G1 X152.201 Y78.693 E32.64595
G1 X152.702 Y79.107 E32.67621
G1 X153.147 Y79.58 E32.70645
G1 X153.532 Y80.104 E32.73673
G1 X153.849 Y80.671 E32.76698
G1 X154.094 Y81.272 E32.7972
G1 X154.263 Y81.899 E32.82743
G1 X154.369 Y82.812 E32.87023
G1 X154.378 Y83.132 E32.88514
G1 X154.38 Y83.28 E32.89203
G1 X154.38 Y126.379 E34.8989
G1 X154.371 Y127.106 E34.93276
G1 X154.323 Y127.754 E34.96301
G1 X154.195 Y128.391 E34.99327
G1 X153.991 Y129.008 E35.02353
G1 X153.712 Y129.595 E35.05379
G1 X153.364 Y130.143 E35.08402
G1 X152.951 Y130.644 E35.11425
G1 X152.479 Y131.091 E35.14452
G1 X151.956 Y131.476 E35.17476
G1 X151.39 Y131.794 E35.20499
G1 X150.788 Y132.041 E35.23529
G1 X150.162 Y132.211 E35.2655
G1 X149.239 Y132.319 E35.30877
G1 X148.918 Y132.328 E35.32372
G1 X148.77 Y132.33 E35.33061
G1 X61.539 Y132.33 E39.39245
G1 X60.841 Y132.321 E39.42496
G1 X60.193 Y132.272 E39.45522
G1 X59.556 Y132.145 E39.48546
G1 X58.94 Y131.94 E39.51569
G1 X58.353 Y131.661 E39.54596
G1 X57.805 Y131.312 E39.57621
G1 X57.304 Y130.899 E39.60644
G1 X56.857 Y130.427 E39.63671
G1 X56.472 Y129.904 E39.66695
G1 X56.154 Y129.337 E39.69722
G1 X55.908 Y128.736 E39.72746
G1 X55.738 Y128.109 E39.75771
G1 X55.631 Y127.184 E39.80107
G1 X55.622 Y126.851 E39.81658
G1 X55.62 Y126.708 E39.82324
G1 X55.62 Y83.553 E41.83272
G1 X55.629 Y82.888 E41.86369
G1 X55.678 Y82.24 E41.89395
G1 X55.806 Y81.603 E41.9242
G1 X56.011 Y80.986 E41.95448
G1 X56.291 Y80.4 E41.98472
G1 X56.64 Y79.852 E42.01497
G1 X57.054 Y79.351 E42.04523
G1 X57.526 Y78.905 E42.07547
M204 S3000
M205 X10 Y10
G1 F2400 E36.07547
;MESH:rpi_module_1seg.stl
G0 F3000 X61.754 Y82.285
G0 X61.754 Y83.804
G0 X63.813 Y105.78
G0 X65.035 Y108.212
M204 S1800
M205 X8 Y8
;TYPE:WALL-INNER
G1 F2400 E42.07547
G1 F1500 X65.94 Y108.587 E42.12109
G1 X66.9 Y108.712 E42.16617
G1 X67.86 Y108.587 E42.21124
G1 X68.757 Y108.215 E42.25646
G1 X69.524 Y107.624 E42.30155
G1 X70.09 Y106.89 E42.34471
G1 X70.47 Y106.007 E42.38947
G1 X70.607 Y105.051 E42.43444
G1 X70.497 Y104.09 E42.47948
G1 X70.134 Y103.188 E42.52476
G1 X69.557 Y102.414 E42.56971
G1 X68.765 Y101.788 E42.61672
G1 X67.86 Y101.413 E42.66233
G1 X66.9 Y101.288 E42.70741
G1 X65.94 Y101.413 E42.75249
G1 X65.043 Y101.785 E42.79771
G1 X64.276 Y102.376 E42.84279
G1 X63.71 Y103.11 E42.88595
G1 X63.33 Y103.993 E42.93072
G1 X63.193 Y104.949 E42.97569
G1 X63.303 Y105.91 E43.02073
G1 X63.666 Y106.812 E43.066
G1 X64.243 Y107.586 E43.11095
G1 X65.035 Y108.212 E43.15796
M204 S3000
M205 X10 Y10
G0 F3000 X78.649 Y114.4
M204 S1800
M205 X8 Y8
G1 F1500 X97.249 Y114.4 E44.02406
G1 X97.249 Y97.6 E44.80633
G1 X78.649 Y97.6 E45.67243
G1 X78.649 Y114.4 E46.45471
M204 S3000
M205 X10 Y10
G0 F3000 X62.3 Y125.65
M204 S1800
M205 X8 Y8
G1 F1500 X62.3 Y84.35 E48.37781
G1 X147.7 Y84.35 E52.35439
G1 X147.7 Y125.65 E54.27749
G1 X62.3 Y125.65 E58.25407
M204 S3000
M205 X10 Y10
G0 F3000 X79.181 Y98.132
G0 X97.499 Y95.6
M204 S1800
M205 X8 Y8
G1 F1500 X97.499 Y97.6 E58.3472
G1 X97.499 Y114.4 E58.69643
G1 X133.299 Y114.4 E60.36343
G1 X133.299 Y95.6 E61.23884
G1 X97.499 Y95.6 E62.90583
M204 S3000
M205 X10 Y10
G0 F3000 X98.08 Y91.669
M204 S1800
M205 X8 Y8
G1 F1500 X98.625 Y92.239 E62.94256
G1 X99.272 Y92.632 E62.9778
G1 X99.999 Y92.848 E63.01312
G1 X100.765 Y92.867 E63.0488
G1 X101.499 Y92.684 E63.08402
G1 X102.156 Y92.327 E63.11884
G1 X102.695 Y91.828 E63.15304
G1 X103.098 Y91.181 E63.18854
G1 X103.198 Y90.856 E63.20437
G1 X103.202 Y90.841 E63.20509
G1 X103.32 Y90.457 E63.2238
G1 X103.327 Y90.253 E63.2333
G1 X103.347 Y89.698 E63.25916
G1 X103.316 Y89.559 E63.26579
G1 X103.178 Y88.956 E63.2946
G1 X103.167 Y88.934 E63.29574
G1 X102.816 Y88.276 E63.33047
G1 X102.275 Y87.707 E63.36703
G1 X101.625 Y87.31 E63.40249
G1 X100.896 Y87.097 E63.43786
G1 X100.133 Y87.078 E63.4734
G1 X99.399 Y87.261 E63.50862
G1 X98.741 Y87.618 E63.54348
G1 X98.205 Y88.117 E63.57758
G1 X97.8 Y88.76 E63.61297
G1 X97.577 Y89.49 E63.64851
G1 X97.551 Y90.247 E63.68378
G1 X97.718 Y90.987 E63.7191
G1 X98.08 Y91.669 E63.75506
M204 S3000
M205 X10 Y10
G0 F3000 X100.081 Y92.329
G0 X101.309 Y92.195
G0 X104.094 Y89.585
G0 X104.604 Y88.46
G0 X105.578 Y87.752
G0 X106.741 Y87.613
G0 X108.813 Y88.268
M204 S1800
M205 X8 Y8
G1 F1500 X108.263 Y87.697 E63.79197
G1 X107.613 Y87.305 E63.82732
G1 X106.883 Y87.096 E63.86267
G1 X106.124 Y87.081 E63.89802
G1 X105.386 Y87.263 E63.93342
G1 X104.728 Y87.627 E63.96843
G1 X104.197 Y88.127 E64.00239
G1 X103.797 Y88.772 E64.03774
G1 X103.701 Y89.089 E64.05316
G1 X103.694 Y89.112 E64.05426
G1 X103.576 Y89.499 E64.06661
G1 X103.57 Y89.705 E64.07167
G1 X103.551 Y90.261 E64.08203
G1 X103.582 Y90.394 E64.08398
G1 X103.725 Y91 E64.10669
G1 X103.732 Y91.014 E64.10741
G1 X104.087 Y91.678 E64.14247
G1 X104.635 Y92.248 E64.17929
G1 X105.285 Y92.64 E64.21464
G1 X106.015 Y92.849 E64.24999
G1 X106.766 Y92.864 E64.28497
G1 X107.486 Y92.694 E64.31942
G1 X108.167 Y92.318 E64.35564
G1 X108.701 Y91.818 E64.38971
G1 X109.101 Y91.173 E64.42505
G1 X109.198 Y90.853 E64.44062
G1 X109.27 Y90.615 E64.45219
G1 X109.322 Y90.446 E64.46043
G1 X109.338 Y89.955 E64.4833
G1 X109.347 Y89.684 E64.49593
G1 X109.253 Y89.284 E64.51506
G1 X109.172 Y88.945 E64.53129
G1 X109.159 Y88.921 E64.53256
G1 X108.813 Y88.268 E64.56697
M204 S3000
M205 X10 Y10
G0 F3000 X112.419 Y87.589
G0 X114.968 Y88.507
M204 S1800
M205 X8 Y8
G1 F1500 X114.479 Y87.888 E64.60371
G1 X113.873 Y87.436 E64.63891
G1 X113.166 Y87.151 E64.6744
G1 X112.411 Y87.063 E64.7098
G1 X111.663 Y87.171 E64.74499
G1 X110.97 Y87.467 E64.78008
G1 X110.388 Y87.914 E64.81425
G1 X109.927 Y88.517 E64.84959
G1 X109.675 Y89.125 E64.88024
G1 X109.665 Y89.15 E64.88034
G1 X109.648 Y89.19 E64.8809
G1 X109.572 Y89.716 E64.89627
G1 X109.536 Y89.962 E64.90034
G1 X109.594 Y90.41 E64.90871
G1 X109.635 Y90.726 E64.91885
G1 X109.73 Y90.955 E64.92865
G1 X109.931 Y91.437 E64.95296
G1 X110.419 Y92.055 E64.98963
G1 X111.026 Y92.51 E65.02495
G1 X111.733 Y92.794 E65.06043
G1 X112.488 Y92.881 E65.09582
G1 X113.236 Y92.773 E65.13101
G1 X113.927 Y92.477 E65.16602
G1 X114.509 Y92.031 E65.20016
G1 X114.971 Y91.428 E65.23553
G1 X115.263 Y90.726 E65.27093
G1 X115.361 Y89.972 E65.30634
G1 X115.263 Y89.219 E65.3417
G1 X114.968 Y88.507 E65.37758
M204 S3000
M205 X10 Y10
G0 F3000 X132.767 Y96.132
G0 X141.235 Y108.212
M204 S1800
M205 X8 Y8
G1 F1500 X142.14 Y108.587 E65.4232
G1 X143.1 Y108.712 E65.46828
G1 X144.06 Y108.587 E65.51336
G1 X144.957 Y108.215 E65.55857
G1 X145.724 Y107.624 E65.60366
G1 X146.29 Y106.89 E65.64682
G1 X146.67 Y106.007 E65.69158
G1 X146.807 Y105.051 E65.73655
G1 X146.697 Y104.09 E65.78159
G1 X146.334 Y103.188 E65.82687
G1 X145.757 Y102.414 E65.87182
G1 X144.965 Y101.788 E65.91883
G1 X144.06 Y101.413 E65.96444
G1 X143.1 Y101.288 E66.00952
G1 X142.14 Y101.413 E66.0546
G1 X141.243 Y101.785 E66.09982
G1 X140.476 Y102.376 E66.14491
G1 X139.91 Y103.11 E66.18807
G1 X139.53 Y103.993 E66.23283
G1 X139.393 Y104.949 E66.2778
G1 X139.503 Y105.91 E66.32284
G1 X139.866 Y106.812 E66.36811
G1 X140.443 Y107.586 E66.41307
G1 X141.235 Y108.212 E66.46007
M204 S3000
M205 X10 Y10
G0 F3000 X141.521 Y107.724
M204 S1800
M205 X8 Y8
G1 F1500 X142.286 Y108.041 E66.49863
G1 X143.1 Y108.147 E66.53686
G1 X143.914 Y108.041 E66.57508
G1 X144.674 Y107.726 E66.61339
G1 X145.325 Y107.225 E66.65164
G1 X145.803 Y106.604 E66.68813
G1 X146.126 Y105.854 E66.72615
G1 X146.242 Y105.043 E66.7643
G1 X146.149 Y104.229 E66.80245
G1 X145.842 Y103.464 E66.84083
G1 X145.352 Y102.808 E66.87896
G1 X144.679 Y102.276 E66.91891
G1 X143.914 Y101.959 E66.95747
G1 X143.1 Y101.853 E66.99569
G1 X142.286 Y101.959 E67.03391
G1 X141.526 Y102.274 E67.07222
G1 X140.875 Y102.775 E67.11047
G1 X140.397 Y103.396 E67.14696
G1 X140.074 Y104.146 E67.18499
G1 X139.958 Y104.957 E67.22313
G1 X140.051 Y105.771 E67.26128
G1 X140.358 Y106.536 E67.29967
G1 X140.848 Y107.192 E67.33779
G1 X141.521 Y107.724 E67.37774
M204 S3000
M205 X10 Y10
G0 F3000 X141.471 Y107.81
G0 X132.767 Y113.868
G0 X115.889 Y113.91
G0 X115.959 Y113.84
M204 S1800
M205 X8 Y8
G1 F1500 X132.739 Y113.84 E68.15909
G1 X132.739 Y96.16 E68.98234
G1 X115.959 Y96.16 E69.76369
G1 X115.959 Y113.84 E70.58694
M204 S3000
M205 X10 Y10
G0 F3000 X115.889 Y113.91
G0 X97.989 Y113.91
G0 X98.059 Y113.84
M204 S1800
M205 X8 Y8
G1 F1500 X114.839 Y113.84 E71.36829
G1 X114.839 Y96.16 E72.19155
G1 X98.059 Y96.16 E72.97289
G1 X98.059 Y113.84 E73.79615
M204 S3000
M205 X10 Y10
G0 F3000 X97.989 Y113.91
G0 X79.139 Y113.91
G0 X79.209 Y113.84
M204 S1800
M205 X8 Y8
G1 F1500 X96.689 Y113.84 E74.61009
G1 X96.689 Y98.16 E75.34022
G1 X79.209 Y98.16 E76.15416
G1 X79.209 Y113.84 E76.88428
M204 S3000
M205 X10 Y10
G0 F3000 X79.139 Y113.91
G0 X65.271 Y107.81
G0 X65.321 Y107.724
M204 S1800
M205 X8 Y8
G1 F1500 X66.086 Y108.041 E76.92284
G1 X66.9 Y108.147 E76.96107
G1 X67.714 Y108.041 E76.99929
G1 X68.474 Y107.726 E77.0376
G1 X69.125 Y107.225 E77.07585
G1 X69.603 Y106.604 E77.11234
G1 X69.926 Y105.854 E77.15036
G1 X70.042 Y105.043 E77.18851
G1 X69.949 Y104.229 E77.22666
G1 X69.642 Y103.464 E77.26504
G1 X69.152 Y102.808 E77.30317
G1 X68.479 Y102.276 E77.34312
G1 X67.714 Y101.959 E77.38168
G1 X66.9 Y101.853 E77.4199
G1 X66.086 Y101.959 E77.45812
G1 X65.326 Y102.274 E77.49643
G1 X64.675 Y102.775 E77.53468
G1 X64.197 Y103.396 E77.57117
G1 X63.874 Y104.146 E77.6092
G1 X63.758 Y104.957 E77.64734
G1 X63.851 Y105.771 E77.68549
G1 X64.158 Y106.536 E77.72388
G1 X64.648 Y107.192 E77.762
G1 X65.321 Y107.724 E77.80195
M204 S3000
M205 X10 Y10
G0 F3000 X65.271 Y107.81
G0 X61.81 Y126.14
G0 X61.74 Y126.21
M204 S1800
M205 X8 Y8
G1 F1500 X61.74 Y83.79 E79.7772
G1 X148.26 Y83.79 E83.80594
G1 X148.26 Y126.21 E85.78119
G1 X61.74 Y126.21 E89.80992
M204 S3000
M205 X10 Y10
G0 F3000 X61.81 Y126.14
G0 X79.181 Y98.132
G0 X98.457 Y91.396
G0 X98.538 Y91.338
M204 S1800
M205 X8 Y8
G1 F1500 X98.979 Y91.799 E89.83963
G1 X99.501 Y92.116 E89.86807
G1 X100.087 Y92.29 E89.89653
G1 X100.703 Y92.305 E89.92522
G1 X101.295 Y92.158 E89.95363
G1 X101.827 Y91.869 E89.98182
G1 X102.259 Y91.468 E90.00926
G1 X102.584 Y90.947 E90.03786
G1 X102.763 Y90.363 E90.0663
G1 X102.785 Y89.751 E90.09481
G1 X102.649 Y89.153 E90.12337
G1 X102.358 Y88.607 E90.15218
G1 X101.92 Y88.146 E90.18179
G1 X101.397 Y87.827 E90.21032
G1 X100.809 Y87.655 E90.23884
G1 X100.195 Y87.64 E90.26744
G1 X99.603 Y87.787 E90.29585
G1 X99.071 Y88.076 E90.32404
G1 X98.64 Y88.477 E90.35145
G1 X98.314 Y88.995 E90.37995
G1 X98.134 Y89.583 E90.40858
G1 X98.113 Y90.194 E90.43705
G1 X98.248 Y90.791 E90.46555
G1 X98.538 Y91.338 E90.49438
M204 S3000
M205 X10 Y10
G0 F3000 X98.457 Y91.396
