;FLAVOR:Marlin
;TIME:6589
;Filament used: 7.22279m
;Layer height: 0.2
;Generated with Cura_SteamEngine 3.5.1
M140 S60
M105
M190 S60
M104 S200
M105
M109 S200
M82 ;absolute extrusion mode
G21 ;metric values
G90 ;absolute positioning
M82 ;set extruder to absolute mode
M107 ;start with the fan off
G28 X0 Y0 ;move X/Y to min endstops
G28 Z0 ;move Z to min endstops
G1 Z15.0 F100 ;move the platform down 15mm
G92 E0 ;zero the extruded length
G1 F200 E3 ;extrude 3mm of feed stock
G92 E0 ;zero the extruded length again
G1 F100
M117 Printing...
G5
G92 E0
G1 F2400 E-6
;LAYER_COUNT:35
;LAYER:0
M106 S255
M204 S3000
M205 X10 Y10
G0 F3000 X37.588 Y66.42 Z0.3
M204 S1800
M205 X8 Y8
;TYPE:SKIRT
G1 F2400 E0
G1 X38.212 Y66.072 E0.0499
G1 X38.872 Y65.796 E0.09987
G1 X39.559 Y65.595 E0.14987
G1 X40.263 Y65.473 E0.19977
G1 X41.009 Y65.429 E0.25197
G1 X89.012 Y65.432 E3.6048
G1 X89.927 Y65.498 E3.66887
G1 X93.046 Y65.948 E3.88898
G1 X98.382 Y66.479 E4.26352
G1 X103.661 Y66.703 E4.63257
G1 X108.947 Y66.629 E5.00181
G1 X114.223 Y66.255 E5.37125
G1 X120.18 Y65.483 E5.7908
G1 X121.003 Y65.43 E5.8484
G1 X168.991 Y65.429 E9.20019
G1 X169.705 Y65.469 E9.25014
G1 X170.41 Y65.588 E9.30007
G1 X171.098 Y65.786 E9.35008
G1 X171.759 Y66.059 E9.40003
G1 X172.386 Y66.403 E9.44998
G1 X172.97 Y66.816 E9.49994
G1 X173.504 Y67.291 E9.54986
G1 X173.982 Y67.823 E9.59981
G1 X174.398 Y68.405 E9.64978
G1 X174.746 Y69.03 E9.69975
G1 X175.023 Y69.69 E9.74974
G1 X175.224 Y70.376 E9.79967
G1 X175.347 Y71.081 E9.84965
G1 X175.391 Y71.83 E9.90206
G1 X175.388 Y89.84 E11.15999
G1 X175.363 Y90.406 E11.19956
G1 X175.022 Y94.238 E11.46827
G1 X174.799 Y99.55 E11.83962
G1 X174.874 Y104.828 E12.20831
G1 X175.371 Y111.328 E12.66363
G1 X175.39 Y111.816 E12.69774
G1 X175.39 Y129.811 E13.95463
G1 X175.336 Y130.642 E14.01279
G1 X174.864 Y134.245 E14.2666
G1 X174.731 Y134.948 E14.31657
G1 X174.435 Y135.854 E14.38314
G1 X173.042 Y139.232 E14.63836
G1 X172.732 Y139.877 E14.68834
G1 X172.211 Y140.677 E14.75503
G1 X169.996 Y143.577 E15.0099
G1 X169.531 Y144.12 E15.05984
G1 X168.814 Y144.763 E15.1271
G1 X165.917 Y146.993 E15.38245
G1 X165.327 Y147.397 E15.4324
G1 X164.473 Y147.83 E15.49928
G1 X161.108 Y149.231 E15.75387
G1 X160.433 Y149.469 E15.80386
G1 X159.495 Y149.667 E15.87082
G1 X155.871 Y150.151 E16.12619
G1 X155.158 Y150.206 E16.17614
G1 X154.201 Y150.154 E16.24308
G1 X150.582 Y149.685 E16.49797
G1 X149.879 Y149.554 E16.54791
G1 X148.888 Y149.222 E16.62091
G1 X139.662 Y145.276 E17.32178
G1 X134.646 Y143.441 E17.69484
G1 X129.582 Y141.907 E18.06441
G1 X124.379 Y140.647 E18.43832
G1 X121.892 Y140.157 E18.61537
G1 X116.593 Y139.342 E18.98984
G1 X111.347 Y138.836 E19.35795
G1 X106.049 Y138.626 E19.72829
G1 X100.764 Y138.717 E20.09748
G1 X95.473 Y139.107 E20.46804
G1 X90.228 Y139.793 E20.8375
G1 X84.972 Y140.786 E21.21111
G1 X82.466 Y141.37 E21.39084
G1 X79.93 Y142.038 E21.57401
G1 X74.837 Y143.612 E21.94634
G1 X69.85 Y145.469 E22.31802
G1 X61.178 Y149.202 E22.97747
G1 X60.506 Y149.447 E23.02743
G1 X59.495 Y149.667 E23.09969
G1 X55.871 Y150.151 E23.35506
G1 X55.158 Y150.206 E23.40501
G1 X54.201 Y150.154 E23.47195
G1 X50.582 Y149.685 E23.72684
G1 X49.879 Y149.554 E23.77679
G1 X48.964 Y149.254 E23.84404
G1 X45.59 Y147.862 E24.09897
G1 X44.945 Y147.553 E24.14893
G1 X44.147 Y147.032 E24.21549
G1 X41.244 Y144.815 E24.47062
G1 X40.7 Y144.35 E24.52061
G1 X40.056 Y143.633 E24.58792
G1 X37.827 Y140.737 E24.84318
G1 X37.423 Y140.146 E24.89318
G1 X36.991 Y139.294 E24.9599
G1 X35.589 Y135.929 E25.21452
G1 X35.351 Y135.255 E25.26444
G1 X35.153 Y134.314 E25.33161
G1 X34.665 Y130.653 E25.58958
G1 X34.609 Y129.807 E25.64879
G1 X34.61 Y111.83 E26.90442
G1 X34.628 Y111.35 E26.93797
G1 X35.127 Y104.715 E27.40271
G1 X35.2 Y99.447 E27.7707
G1 X34.972 Y94.115 E28.14346
G1 X34.626 Y90.127 E28.42305
G1 X34.602 Y89.571 E28.46192
G1 X34.609 Y71.826 E29.70134
G1 X34.649 Y71.112 E29.75129
G1 X34.769 Y70.407 E29.80124
G1 X34.967 Y69.72 E29.85118
G1 X35.24 Y69.059 E29.90113
G1 X35.585 Y68.432 E29.95111
G1 X35.998 Y67.848 E30.00107
G1 X36.473 Y67.314 E30.05099
G1 X37.005 Y66.836 E30.10095
G1 X37.588 Y66.42 E30.15097
M204 S3000
M205 X10 Y10
G0 F3000 X38.123 Y66.752
M204 S1800
M205 X8 Y8
G1 F2400 X38.736 Y66.45 E30.1987
G1 X39.38 Y66.221 E30.24644
G1 X40.046 Y66.069 E30.29415
G1 X41.009 Y65.989 E30.36165
G1 X89.012 Y65.992 E33.71448
G1 X89.847 Y66.052 E33.77295
G1 X93.002 Y66.508 E33.99561
G1 X98.32 Y67.037 E34.36888
G1 X103.663 Y67.263 E34.7424
G1 X108.976 Y67.188 E35.11353
G1 X114.267 Y66.814 E35.48401
G1 X120.252 Y66.038 E35.90554
G1 X121.003 Y65.99 E35.9581
G1 X168.991 Y65.989 E39.30989
G1 X169.673 Y66.029 E39.3576
G1 X170.346 Y66.148 E39.40534
G1 X171 Y66.345 E39.45305
G1 X171.627 Y66.618 E39.50081
G1 X172.217 Y66.961 E39.54848
G1 X172.764 Y67.371 E39.59623
G1 X173.258 Y67.842 E39.6439
G1 X173.695 Y68.368 E39.69166
G1 X174.067 Y68.941 E39.73938
G1 X174.369 Y69.554 E39.78711
G1 X174.598 Y70.197 E39.83478
G1 X174.751 Y70.863 E39.88251
G1 X174.831 Y71.83 E39.95029
G1 X174.828 Y89.84 E41.20822
G1 X174.805 Y90.356 E41.24429
G1 X174.465 Y94.185 E41.51279
G1 X174.239 Y99.552 E41.88798
G1 X174.314 Y104.846 E42.25779
G1 X174.813 Y111.371 E42.71487
G1 X174.83 Y111.816 E42.74597
G1 X174.83 Y129.811 E44.00285
G1 X174.781 Y130.57 E44.05598
G1 X174.309 Y134.173 E44.30978
G1 X174.18 Y134.844 E44.35751
G1 X173.917 Y135.64 E44.41606
G1 X172.524 Y139.018 E44.67128
G1 X172.227 Y139.634 E44.71904
G1 X171.766 Y140.337 E44.77776
G1 X169.551 Y143.237 E45.03264
G1 X169.105 Y143.755 E45.08038
G1 X168.472 Y144.32 E45.13965
G1 X165.575 Y146.55 E45.395
G1 X165.01 Y146.934 E45.44271
G1 X164.258 Y147.313 E45.50153
G1 X160.893 Y148.714 E45.75612
G1 X160.248 Y148.94 E45.80385
G1 X159.421 Y149.112 E45.86285
G1 X155.797 Y149.596 E46.11822
G1 X155.116 Y149.646 E46.16592
G1 X154.273 Y149.599 E46.22489
G1 X150.654 Y149.13 E46.47978
G1 X149.983 Y149.002 E46.52749
G1 X149.108 Y148.707 E46.59198
G1 X139.87 Y144.756 E47.29376
G1 X134.819 Y142.908 E47.66943
G1 X129.737 Y141.369 E48.0403
G1 X124.483 Y140.096 E48.41789
G1 X121.989 Y139.605 E48.59543
G1 X116.68 Y138.788 E48.97061
G1 X111.369 Y138.276 E49.34329
G1 X106.061 Y138.066 E49.71432
G1 X100.731 Y138.157 E50.08666
G1 X95.429 Y138.548 E50.45799
G1 X90.123 Y139.243 E50.83176
G1 X84.883 Y140.233 E51.20423
G1 X82.332 Y140.827 E51.38717
G1 X79.762 Y141.503 E51.57278
G1 X74.658 Y143.081 E51.94593
G1 X69.635 Y144.952 E52.32031
G1 X60.957 Y148.687 E52.98019
G1 X60.315 Y148.92 E53.0279
G1 X59.421 Y149.112 E53.09176
G1 X55.797 Y149.596 E53.34713
G1 X55.116 Y149.646 E53.39483
G1 X54.273 Y149.599 E53.4538
G1 X50.654 Y149.13 E53.70869
G1 X49.983 Y149.002 E53.7564
G1 X49.178 Y148.737 E53.81559
G1 X45.804 Y147.345 E54.07052
G1 X45.188 Y147.048 E54.11829
G1 X44.486 Y146.587 E54.17695
G1 X41.583 Y144.37 E54.43208
G1 X41.066 Y143.925 E54.47972
G1 X40.5 Y143.291 E54.53908
G1 X38.271 Y140.395 E54.79434
G1 X37.887 Y139.83 E54.84205
G1 X37.508 Y139.079 E54.90081
G1 X36.106 Y135.714 E55.15542
G1 X35.881 Y135.069 E55.20314
G1 X35.708 Y134.24 E55.26229
G1 X35.22 Y130.579 E55.52026
G1 X35.169 Y129.807 E55.57429
G1 X35.17 Y111.83 E56.82992
G1 X35.186 Y111.392 E56.86053
G1 X35.687 Y104.732 E57.32702
G1 X35.76 Y99.448 E57.69613
G1 X35.529 Y94.055 E58.07315
G1 X35.184 Y90.079 E58.35191
G1 X35.162 Y89.572 E58.38735
G1 X35.169 Y71.827 E59.62677
G1 X35.209 Y71.145 E59.67449
G1 X35.329 Y70.472 E59.72224
G1 X35.526 Y69.818 E59.76995
G1 X35.799 Y69.191 E59.81771
G1 X36.142 Y68.601 E59.86538
G1 X36.553 Y68.055 E59.91311
G1 X37.024 Y67.56 E59.96084
G1 X37.55 Y67.124 E60.00855
G1 X38.123 Y66.752 E60.05627
M204 S3000
M205 X10 Y10
G0 F3000 X38.091 Y67.429
M204 S1800
M205 X8 Y8
G1 F2400 X38.654 Y67.103 E60.10171
G1 X39.252 Y66.85 E60.14706
G1 X39.876 Y66.672 E60.19239
G1 X40.518 Y66.572 E60.23777
G1 X41.009 Y66.549 E60.2721
G1 X89.012 Y66.552 E63.62493
G1 X89.767 Y66.606 E63.6778
G1 X92.933 Y67.063 E63.90123
G1 X98.294 Y67.597 E64.27752
G1 X103.647 Y67.824 E64.65175
G1 X108.989 Y67.748 E65.0249
G1 X114.344 Y67.37 E65.39986
G1 X120.324 Y66.594 E65.82104
G1 X121.003 Y66.55 E65.86857
G1 X168.991 Y66.549 E69.22035
G1 X169.639 Y66.589 E69.2657
G1 X170.278 Y66.708 E69.3111
G1 X170.897 Y66.905 E69.35647
G1 X171.487 Y67.176 E69.40182
G1 X172.04 Y67.518 E69.44723
G1 X172.546 Y67.925 E69.49259
G1 X172.998 Y68.391 E69.53793
G1 X173.39 Y68.909 E69.58331
G1 X173.716 Y69.472 E69.62875
G1 X173.969 Y70.07 E69.6741
G1 X174.148 Y70.694 E69.71944
G1 X174.248 Y71.336 E69.76482
G1 X174.271 Y71.83 E69.79936
G1 X174.268 Y89.84 E71.0573
G1 X174.247 Y90.307 E71.08995
G1 X173.905 Y94.156 E71.35984
G1 X173.678 Y99.536 E71.73595
G1 X173.754 Y104.865 E72.1082
G1 X174.255 Y111.414 E72.56696
G1 X174.27 Y111.816 E72.59506
G1 X174.27 Y129.811 E73.85194
G1 X174.225 Y130.497 E73.89996
G1 X173.753 Y134.1 E74.15377
G1 X173.629 Y134.738 E74.19916
G1 X173.399 Y135.427 E74.2499
G1 X172.006 Y138.805 E74.50511
G1 X171.722 Y139.389 E74.55047
G1 X171.321 Y139.997 E74.60134
G1 X169.106 Y142.897 E74.85622
G1 X168.681 Y143.388 E74.90158
G1 X168.131 Y143.876 E74.95293
G1 X165.234 Y146.106 E75.20828
G1 X164.695 Y146.47 E75.25371
G1 X164.042 Y146.796 E75.30469
G1 X160.677 Y148.197 E75.55928
G1 X160.063 Y148.41 E75.60467
G1 X159.347 Y148.557 E75.65572
G1 X155.723 Y149.041 E75.91109
G1 X155.075 Y149.087 E75.95647
G1 X154.345 Y149.043 E76.00755
G1 X150.726 Y148.574 E76.26244
G1 X150.089 Y148.451 E76.30775
G1 X149.329 Y148.193 E76.36381
G1 X140.068 Y144.232 E77.06734
G1 X134.997 Y142.377 E77.44448
G1 X129.887 Y140.829 E77.81741
G1 X124.609 Y139.55 E78.19673
G1 X122.086 Y139.054 E78.37633
G1 X116.747 Y138.233 E78.75362
G1 X111.41 Y137.718 E79.12812
G1 X106.056 Y137.506 E79.50237
G1 X100.714 Y137.597 E79.87554
G1 X95.351 Y137.993 E80.25115
G1 X90.052 Y138.686 E80.62442
G1 X84.748 Y139.688 E81.00143
G1 X82.207 Y140.28 E81.18367
G1 X79.618 Y140.962 E81.37067
G1 X74.475 Y142.552 E81.74666
G1 X69.429 Y144.431 E82.12275
G1 X60.735 Y148.173 E82.78385
G1 X60.124 Y148.392 E82.82919
G1 X59.347 Y148.557 E82.88467
G1 X55.723 Y149.041 E83.14004
G1 X55.075 Y149.087 E83.18541
G1 X54.345 Y149.043 E83.23649
G1 X50.726 Y148.574 E83.49138
G1 X50.089 Y148.451 E83.53669
G1 X49.391 Y148.219 E83.58807
G1 X46.017 Y146.827 E83.843
G1 X45.433 Y146.543 E83.88836
G1 X44.826 Y146.142 E83.93917
G1 X41.923 Y143.925 E84.1943
G1 X41.432 Y143.5 E84.23966
G1 X40.944 Y142.949 E84.29107
G1 X38.715 Y140.053 E84.54632
G1 X38.351 Y139.515 E84.59169
G1 X38.025 Y138.864 E84.64254
G1 X36.623 Y135.499 E84.89716
G1 X36.411 Y134.885 E84.94253
G1 X36.263 Y134.166 E84.9938
G1 X35.775 Y130.505 E85.25177
G1 X35.729 Y129.807 E85.30063
G1 X35.73 Y111.83 E86.55625
G1 X35.745 Y111.434 E86.58393
G1 X36.246 Y104.765 E87.05105
G1 X36.321 Y99.432 E87.42358
G1 X36.089 Y94.031 E87.80116
G1 X35.742 Y90.03 E88.08167
G1 X35.722 Y89.572 E88.11369
G1 X35.729 Y71.827 E89.35311
G1 X35.769 Y71.179 E89.39846
G1 X35.889 Y70.54 E89.44387
G1 X36.086 Y69.921 E89.48924
G1 X36.357 Y69.331 E89.53459
G1 X36.699 Y68.779 E89.57994
G1 X37.107 Y68.272 E89.6254
G1 X37.573 Y67.82 E89.67074
G1 X38.091 Y67.429 E89.71607
M204 S3000
M205 X10 Y10
G1 F2400 E83.71607
G0 F3000 X41.854 Y71.155
G0 X41.854 Y72.674
G0 X74.213 Y78.798
M204 S1800
M205 X8 Y8
;TYPE:WALL-INNER
G1 F2400 E89.71607
G1 F1800 X72.812 Y78.615 E89.81476
G1 X71.412 Y78.798 E89.91338
G1 X70.107 Y79.34 E90.01207
G1 X68.986 Y80.2 E90.11076
G1 X68.125 Y81.322 E90.20954
G1 X67.584 Y82.627 E90.30821
G1 X67.4 Y84.027 E90.40684
G1 X67.584 Y85.427 E90.50546
G1 X68.125 Y86.732 E90.60414
G1 X68.986 Y87.853 E90.70286
G1 X70.105 Y88.714 E90.80148
G1 X71.412 Y89.256 E90.90031
G1 X72.812 Y89.439 E90.99892
G1 X74.213 Y89.256 E91.09761
G1 X75.518 Y88.714 E91.19631
G1 X76.639 Y87.853 E91.29504
G1 X77.499 Y86.732 E91.39372
G1 X78.041 Y85.427 E91.49242
G1 X78.224 Y84.027 E91.59103
G1 X78.041 Y82.627 E91.68965
G1 X77.499 Y81.322 E91.78835
G1 X76.639 Y80.2 E91.88709
G1 X75.517 Y79.34 E91.98583
G1 X74.213 Y78.798 E92.08446
M204 S3000
M205 X10 Y10
G0 F3000 X87.6 Y76.22
M204 S1800
M205 X8 Y8
G1 F1800 X97.19 Y76.22 E92.75429
G1 X97.402 Y76.22 E92.7691
G1 X98.285 Y76.22 E92.83077
G1 X99.167 Y76.22 E92.89238
G1 X99.38 Y76.22 E92.90725
G1 X110.62 Y76.22 E93.69232
G1 X110.833 Y76.22 E93.7072
G1 X111.715 Y76.22 E93.76881
G1 X112.598 Y76.22 E93.83048
G1 X112.81 Y76.22 E93.84529
G1 X122.4 Y76.22 E94.51511
G1 X122.4 Y73.22 E94.72465
G1 X167.6 Y73.22 E97.88171
G1 X167.6 Y89.728 E99.03473
G1 X167.159 Y93.081 E99.27094
G1 X165.902 Y96.115 E99.50032
G1 X163.903 Y98.722 E99.72978
G1 X161.295 Y100.722 E99.95933
G1 X158.261 Y101.979 E100.18872
G1 X155 Y102.407 E100.41844
G1 X151.739 Y101.979 E100.64816
G1 X148.705 Y100.722 E100.87754
G1 X146.098 Y98.722 E101.10704
G1 X143.834 Y95.77 E101.36688
G1 X137.873 Y92.012 E101.85907
G1 X131.721 Y88.962 E102.33867
G1 X125.289 Y86.555 E102.81835
G1 X123.974 Y86.212 E102.91327
G1 X123.595 Y86.113 E102.94063
G1 X123.251 Y86.023 E102.96547
G1 X118.645 Y84.818 E103.29801
G1 X112.481 Y83.865 E103.73366
G1 X111.858 Y83.769 E103.77768
G1 X111.698 Y83.761 E103.78887
G1 X110.812 Y83.716 E103.85084
G1 X110.429 Y83.697 E103.87762
G1 X105 Y83.418 E104.25732
G1 X99.577 Y83.695 E104.63659
G1 X99.188 Y83.714 E104.66379
G1 X98.302 Y83.76 E104.72576
G1 X98.142 Y83.769 E104.73695
G1 X97.52 Y83.865 E104.78091
G1 X91.355 Y84.818 E105.21662
G1 X86.757 Y86.021 E105.54859
G1 X86.406 Y86.112 E105.57391
G1 X86.02 Y86.212 E105.60177
G1 X84.711 Y86.555 E105.69628
G1 X78.279 Y88.962 E106.17596
G1 X72.127 Y92.012 E106.65556
G1 X66.166 Y95.77 E107.14775
G1 X63.903 Y98.722 E107.40755
G1 X61.295 Y100.722 E107.63711
G1 X58.261 Y101.979 E107.86649
G1 X55 Y102.407 E108.09621
G1 X51.739 Y101.979 E108.32593
G1 X48.705 Y100.722 E108.55531
G1 X46.098 Y98.722 E108.78481
G1 X44.098 Y96.115 E109.01431
G1 X42.841 Y93.081 E109.24369
G1 X42.4 Y89.728 E109.47991
G1 X42.4 Y73.22 E110.63293
G1 X87.6 Y73.22 E113.78998
G1 X87.6 Y76.22 E113.99952
M204 S3000
M205 X10 Y10
G0 F3000 X88.254 Y78.234
M204 S1800
M205 X8 Y8
G1 F1800 X87.339 Y77.535 E114.07994
G1 X86.276 Y77.093 E114.16035
G1 X85.134 Y76.944 E114.24079
G1 X83.993 Y77.093 E114.32116
G1 X82.929 Y77.535 E114.40164
G1 X82.015 Y78.236 E114.48209
G1 X81.313 Y79.151 E114.56264
G1 X80.872 Y80.214 E114.64303
G1 X80.722 Y81.356 E114.72347
G1 X80.872 Y82.497 E114.80386
G1 X81.313 Y83.561 E114.8843
G1 X82.015 Y84.475 E114.9648
G1 X82.929 Y85.177 E115.04529
G1 X83.993 Y85.618 E115.12574
G1 X85.134 Y85.768 E115.20612
G1 X85.881 Y85.669 E115.25875
G1 X86.276 Y85.618 E115.28533
G1 X86.611 Y85.479 E115.30953
G1 X87.339 Y85.177 E115.36458
G1 X88.254 Y84.477 E115.44505
G1 X88.956 Y83.561 E115.52566
G1 X89.397 Y82.497 E115.6061
G1 X89.546 Y81.356 E115.68648
G1 X89.397 Y80.214 E115.76692
G1 X88.956 Y79.151 E115.8473
G1 X88.254 Y78.234 E115.92796
M204 S3000
M205 X10 Y10
G0 F3000 X98.285 Y83.404
M204 S1800
M205 X8 Y8
G1 F1800 X99.167 Y83.289 E115.97168
G1 X99.527 Y83.14 E115.99566
G1 X99.991 Y82.947 E116.03076
G1 X100.697 Y82.404 E116.09297
G1 X101.24 Y81.698 E116.15518
G1 X101.582 Y80.874 E116.2175
G1 X101.697 Y79.992 E116.27962
G1 X101.582 Y79.109 E116.34182
G1 X101.24 Y78.287 E116.404
G1 X100.697 Y77.577 E116.46643
G1 X99.99 Y77.037 E116.52857
G1 X99.363 Y76.776 E116.57601
G1 X99.167 Y76.695 E116.58972
G1 X98.285 Y76.58 E116.63613
G1 X97.402 Y76.695 E116.6826
G1 X97.207 Y76.776 E116.69625
G1 X96.58 Y77.037 E116.74369
G1 X95.873 Y77.577 E116.80582
G1 X95.33 Y78.287 E116.86826
G1 X94.988 Y79.109 E116.93044
G1 X94.873 Y79.992 E116.99264
G1 X94.988 Y80.874 E117.05476
G1 X95.33 Y81.697 E117.11701
G1 X95.873 Y82.406 E117.17939
G1 X96.58 Y82.946 E117.24152
G1 X97.402 Y83.289 E117.30374
G1 X97.566 Y83.311 E117.31529
G1 X98.191 Y83.391 E117.35234
G1 X98.285 Y83.404 E117.35591
M204 S3000
M205 X10 Y10
G0 F3000 X109.303 Y77.577
M204 S1800
M205 X8 Y8
G1 F1800 X108.76 Y78.287 E117.41834
G1 X108.418 Y79.109 E117.48052
G1 X108.303 Y79.992 E117.54272
G1 X108.418 Y80.874 E117.60485
G1 X108.76 Y81.698 E117.66716
G1 X109.303 Y82.404 E117.72937
G1 X110.009 Y82.947 E117.79158
G1 X110.479 Y83.142 E117.82712
G1 X110.833 Y83.289 E117.85076
G1 X111.715 Y83.404 E117.89463
G1 X111.808 Y83.392 E117.89814
G1 X112.434 Y83.311 E117.93521
