;FLAVOR:Marlin
;TIME:3224
;Filament used: 3.54298m
;Layer height: 0.2
;Generated with Cura_SteamEngine 3.5.0
M140 S60
M105
M190 S60
M104 S200
M105
M109 S200
M82 ;absolute extrusion mode
G21 ;metric values
G90 ;absolute positioning
M82 ;set extruder to absolute mode
M107 ;start with the fan off
G28 X0 Y0 ;move X/Y to min endstops
G28 Z0 ;move Z to min endstops
G1 Z15.0 F120 ;move the platform down 15mm
G92 E0 ;zero the extruded length
G1 F200 E3 ;extrude 3mm of feed stock
G92 E0 ;zero the extruded length again
G1 F120
M117 Printing...
G5
G92 E0
G1 F2400 E-6
;LAYER_COUNT:35
;LAYER:0
M106 S255
M204 S3000
M205 X10 Y10
G0 F3000 X38.21 Y83.253 Z0.3
M204 S1800
M205 X8 Y8
;TYPE:SKIRT
G1 F2400 E0
G1 X38.87 Y82.977 E0.04997
G1 X39.556 Y82.776 E0.0999
G1 X40.261 Y82.653 E0.14988
G1 X41.009 Y82.609 E0.20222
G1 X89.012 Y82.612 E3.55505
G1 X89.927 Y82.678 E3.61912
G1 X93.046 Y83.128 E3.83923
G1 X98.382 Y83.659 E4.21377
G1 X103.661 Y83.883 E4.58282
G1 X108.947 Y83.809 E4.95206
G1 X114.223 Y83.435 E5.3215
G1 X120.18 Y82.663 E5.74105
G1 X121.003 Y82.61 E5.79865
G1 X168.991 Y82.609 E9.15044
G1 X169.705 Y82.649 E9.20039
G1 X170.41 Y82.768 E9.25032
G1 X171.098 Y82.966 E9.30033
G1 X171.759 Y83.239 E9.35028
G1 X172.386 Y83.583 E9.40023
G1 X172.97 Y83.996 E9.45019
G1 X173.504 Y84.471 E9.50011
G1 X173.982 Y85.003 E9.55006
G1 X174.398 Y85.585 E9.60003
G1 X174.746 Y86.21 E9.65
G1 X175.023 Y86.87 E9.69999
G1 X175.224 Y87.556 E9.74992
G1 X175.347 Y88.261 E9.7999
G1 X175.391 Y89.01 E9.85231
G1 X175.387 Y107.035 E11.11129
G1 X175.332 Y107.87 E11.16974
G1 X174.863 Y111.43 E11.42054
G1 X174.73 Y112.133 E11.47051
G1 X174.435 Y113.034 E11.53673
G1 X173.042 Y116.412 E11.79194
G1 X172.732 Y117.057 E11.84193
G1 X172.211 Y117.857 E11.90861
G1 X169.996 Y120.757 E12.16349
G1 X169.531 Y121.3 E12.21342
G1 X168.814 Y121.943 E12.28069
G1 X165.917 Y124.173 E12.53604
G1 X165.327 Y124.577 E12.58598
G1 X164.473 Y125.01 E12.65286
G1 X161.108 Y126.411 E12.90745
G1 X160.433 Y126.649 E12.95744
G1 X159.495 Y126.847 E13.0244
G1 X155.871 Y127.331 E13.27977
G1 X155.158 Y127.386 E13.32972
G1 X154.201 Y127.334 E13.39666
G1 X150.582 Y126.865 E13.65155
G1 X149.879 Y126.734 E13.7015
G1 X148.888 Y126.402 E13.7745
G1 X139.662 Y122.456 E14.47536
G1 X134.646 Y120.621 E14.84842
G1 X129.582 Y119.087 E15.21799
G1 X124.379 Y117.827 E15.59191
G1 X121.892 Y117.337 E15.76896
G1 X116.593 Y116.522 E16.14342
G1 X111.347 Y116.016 E16.51154
G1 X106.049 Y115.806 E16.88187
G1 X100.764 Y115.897 E17.25107
G1 X95.473 Y116.287 E17.62163
G1 X90.228 Y116.973 E17.99109
G1 X84.972 Y117.966 E18.3647
G1 X82.466 Y118.55 E18.54442
G1 X79.93 Y119.218 E18.72759
G1 X74.837 Y120.792 E19.09992
G1 X69.85 Y122.649 E19.47161
G1 X61.178 Y126.382 E20.13105
G1 X60.506 Y126.627 E20.18101
G1 X59.495 Y126.847 E20.25328
G1 X55.871 Y127.331 E20.50865
G1 X55.158 Y127.386 E20.5586
G1 X54.201 Y127.334 E20.62554
G1 X50.582 Y126.865 E20.88043
G1 X49.879 Y126.734 E20.93037
G1 X48.964 Y126.434 E20.99763
G1 X45.59 Y125.042 E21.25256
G1 X44.945 Y124.733 E21.30251
G1 X44.147 Y124.212 E21.36908
G1 X41.244 Y121.995 E21.62421
G1 X40.7 Y121.53 E21.67419
G1 X40.056 Y120.813 E21.74151
G1 X37.827 Y117.917 E21.99676
G1 X37.423 Y117.326 E22.04676
G1 X36.991 Y116.474 E22.11348
G1 X35.589 Y113.109 E22.3681
G1 X35.351 Y112.435 E22.41803
G1 X35.153 Y111.494 E22.48519
G1 X34.665 Y107.833 E22.74316
G1 X34.609 Y106.987 E22.80238
G1 X34.609 Y89.009 E24.05808
G1 X34.649 Y88.295 E24.10802
G1 X34.768 Y87.59 E24.15796
G1 X34.966 Y86.902 E24.20797
G1 X35.239 Y86.241 E24.25792
G1 X35.583 Y85.614 E24.30787
G1 X35.996 Y85.03 E24.35783
G1 X36.471 Y84.496 E24.40775
G1 X37.003 Y84.017 E24.45775
G1 X37.585 Y83.602 E24.50768
G1 X38.21 Y83.253 E24.55767
M204 S3000
M205 X10 Y10
G0 F3000 X38.734 Y83.63
M204 S1800
M205 X8 Y8
G1 F2400 X39.377 Y83.402 E24.60533
G1 X40.043 Y83.249 E24.65305
G1 X41.009 Y83.169 E24.72076
G1 X89.012 Y83.172 E28.07359
G1 X89.847 Y83.232 E28.13206
G1 X93.002 Y83.688 E28.35471
G1 X98.32 Y84.217 E28.72799
G1 X103.663 Y84.443 E29.10151
G1 X108.976 Y84.368 E29.47264
G1 X114.267 Y83.994 E29.84312
G1 X120.252 Y83.218 E30.26465
G1 X121.003 Y83.17 E30.31721
G1 X168.991 Y83.169 E33.669
G1 X169.673 Y83.209 E33.71671
G1 X170.346 Y83.328 E33.76445
G1 X171 Y83.525 E33.81216
G1 X171.627 Y83.798 E33.85992
G1 X172.217 Y84.141 E33.90759
G1 X172.764 Y84.551 E33.95533
G1 X173.258 Y85.022 E34.00301
G1 X173.695 Y85.548 E34.05077
G1 X174.067 Y86.121 E34.09849
G1 X174.369 Y86.734 E34.14622
G1 X174.598 Y87.377 E34.19389
G1 X174.751 Y88.043 E34.24162
G1 X174.831 Y89.01 E34.30939
G1 X174.827 Y107.035 E35.56837
G1 X174.777 Y107.797 E35.62171
G1 X174.308 Y111.357 E35.87251
G1 X174.179 Y112.028 E35.92024
G1 X173.917 Y112.82 E35.9785
G1 X172.524 Y116.198 E36.23372
G1 X172.227 Y116.814 E36.28148
G1 X171.766 Y117.517 E36.3402
G1 X169.551 Y120.417 E36.59508
G1 X169.105 Y120.935 E36.64282
G1 X168.472 Y121.5 E36.70209
G1 X165.575 Y123.73 E36.95744
G1 X165.01 Y124.114 E37.00515
G1 X164.258 Y124.493 E37.06397
G1 X160.893 Y125.894 E37.31856
G1 X160.248 Y126.12 E37.3663
G1 X159.421 Y126.292 E37.42529
G1 X155.797 Y126.776 E37.68067
G1 X155.116 Y126.826 E37.72836
G1 X154.273 Y126.779 E37.78733
G1 X150.654 Y126.31 E38.04222
G1 X149.983 Y126.182 E38.08993
G1 X149.108 Y125.887 E38.15443
G1 X139.87 Y121.936 E38.8562
G1 X134.819 Y120.088 E39.23187
G1 X129.737 Y118.549 E39.60274
G1 X124.483 Y117.276 E39.98033
G1 X121.989 Y116.785 E40.15788
G1 X116.68 Y115.968 E40.53305
G1 X111.369 Y115.456 E40.90573
G1 X106.061 Y115.246 E41.27676
G1 X100.731 Y115.337 E41.6491
G1 X95.429 Y115.728 E42.02043
G1 X90.123 Y116.423 E42.3942
G1 X84.883 Y117.413 E42.76667
G1 X82.332 Y118.007 E42.94961
G1 X79.762 Y118.683 E43.13522
G1 X74.658 Y120.261 E43.50837
G1 X69.635 Y122.132 E43.88275
G1 X60.957 Y125.867 E44.54264
G1 X60.315 Y126.1 E44.59034
G1 X59.421 Y126.292 E44.6542
G1 X55.797 Y126.776 E44.90958
G1 X55.116 Y126.826 E44.95727
G1 X54.273 Y126.779 E45.01624
G1 X50.654 Y126.31 E45.27113
G1 X49.983 Y126.182 E45.31884
G1 X49.178 Y125.917 E45.37803
G1 X45.804 Y124.525 E45.63296
G1 X45.188 Y124.228 E45.68073
G1 X44.486 Y123.767 E45.73939
G1 X41.583 Y121.55 E45.99452
G1 X41.066 Y121.105 E46.04216
G1 X40.5 Y120.471 E46.10153
G1 X38.271 Y117.575 E46.35678
G1 X37.887 Y117.01 E46.40449
G1 X37.508 Y116.259 E46.46325
G1 X36.106 Y112.894 E46.71786
G1 X35.881 Y112.249 E46.76558
G1 X35.708 Y111.42 E46.82473
G1 X35.22 Y107.759 E47.0827
G1 X35.169 Y106.987 E47.13674
G1 X35.169 Y89.009 E48.39243
G1 X35.209 Y88.327 E48.44015
G1 X35.328 Y87.654 E48.48788
G1 X35.525 Y87 E48.53559
G1 X35.798 Y86.373 E48.58336
G1 X36.141 Y85.783 E48.63102
G1 X36.551 Y85.236 E48.67877
G1 X37.022 Y84.741 E48.72649
G1 X37.548 Y84.305 E48.77421
G1 X38.121 Y83.933 E48.82193
G1 X38.734 Y83.63 E48.86969
M204 S3000
M205 X10 Y10
G0 F3000 X38.652 Y84.284
M204 S1800
M205 X8 Y8
G1 F2400 X39.25 Y84.031 E48.91504
G1 X39.874 Y83.852 E48.96039
G1 X40.516 Y83.752 E49.00577
G1 X41.009 Y83.729 E49.04024
G1 X89.012 Y83.732 E52.39307
G1 X89.767 Y83.786 E52.44594
G1 X92.933 Y84.243 E52.66936
G1 X98.294 Y84.777 E53.04566
G1 X103.647 Y85.004 E53.41989
G1 X108.989 Y84.928 E53.79304
G1 X114.344 Y84.55 E54.168
G1 X120.324 Y83.774 E54.58918
G1 X121.003 Y83.73 E54.63671
G1 X168.991 Y83.729 E57.98849
G1 X169.639 Y83.769 E58.03384
G1 X170.278 Y83.888 E58.07924
G1 X170.897 Y84.085 E58.12461
G1 X171.487 Y84.356 E58.16996
G1 X172.04 Y84.698 E58.21537
G1 X172.546 Y85.105 E58.26073
G1 X172.998 Y85.571 E58.30607
G1 X173.39 Y86.089 E58.35145
G1 X173.716 Y86.652 E58.39689
G1 X173.969 Y87.25 E58.44224
G1 X174.148 Y87.874 E58.48758
G1 X174.248 Y88.516 E58.53296
G1 X174.271 Y89.01 E58.5675
G1 X174.267 Y107.035 E59.82648
G1 X174.222 Y107.724 E59.87471
G1 X173.753 Y111.284 E60.12551
G1 X173.628 Y111.921 E60.17085
G1 X173.399 Y112.607 E60.22136
G1 X172.006 Y115.985 E60.47658
G1 X171.722 Y116.569 E60.52194
G1 X171.321 Y117.177 E60.57281
G1 X169.106 Y120.077 E60.82769
G1 X168.681 Y120.568 E60.87304
G1 X168.131 Y121.056 E60.9244
G1 X165.234 Y123.286 E61.17975
G1 X164.695 Y123.65 E61.22518
G1 X164.042 Y123.976 E61.27616
G1 X160.677 Y125.377 E61.53075
G1 X160.063 Y125.59 E61.57614
G1 X159.347 Y125.737 E61.62719
G1 X155.723 Y126.221 E61.88256
G1 X155.075 Y126.267 E61.92794
G1 X154.345 Y126.223 E61.97902
G1 X150.726 Y125.754 E62.23391
G1 X150.089 Y125.631 E62.27922
G1 X149.329 Y125.373 E62.33528
G1 X140.068 Y121.412 E63.03881
G1 X134.997 Y119.557 E63.41595
G1 X129.887 Y118.009 E63.78888
G1 X124.609 Y116.73 E64.1682
G1 X122.086 Y116.234 E64.3478
G1 X116.747 Y115.413 E64.72509
G1 X111.41 Y114.898 E65.09959
G1 X106.056 Y114.686 E65.47384
G1 X100.714 Y114.777 E65.84701
G1 X95.351 Y115.173 E66.22262
G1 X90.052 Y115.866 E66.59588
G1 X84.748 Y116.868 E66.9729
G1 X82.207 Y117.46 E67.15513
G1 X79.618 Y118.142 E67.34214
G1 X74.475 Y119.732 E67.71813
G1 X69.429 Y121.611 E68.09422
G1 X60.735 Y125.353 E68.75532
G1 X60.124 Y125.572 E68.80065
G1 X59.347 Y125.737 E68.85613
G1 X55.723 Y126.221 E69.11151
G1 X55.075 Y126.267 E69.15688
G1 X54.345 Y126.223 E69.20796
G1 X50.726 Y125.754 E69.46285
G1 X50.089 Y125.631 E69.50816
G1 X49.391 Y125.399 E69.55954
G1 X46.017 Y124.007 E69.81447
G1 X45.433 Y123.723 E69.85982
G1 X44.826 Y123.322 E69.91064
G1 X41.923 Y121.105 E70.16577
G1 X41.432 Y120.68 E70.21112
G1 X40.944 Y120.129 E70.26253
G1 X38.715 Y117.233 E70.51779
G1 X38.351 Y116.695 E70.56316
G1 X38.025 Y116.044 E70.61401
G1 X36.623 Y112.679 E70.86862
G1 X36.411 Y112.065 E70.91399
G1 X36.263 Y111.346 E70.96527
G1 X35.775 Y107.685 E71.22324
G1 X35.729 Y106.987 E71.27209
G1 X35.729 Y89.009 E72.52779
G1 X35.769 Y88.361 E72.57314
G1 X35.888 Y87.722 E72.61854
G1 X36.085 Y87.103 E72.66391
G1 X36.356 Y86.513 E72.70926
G1 X36.698 Y85.96 E72.75467
G1 X37.105 Y85.454 E72.80003
G1 X37.571 Y85.001 E72.84542
G1 X38.089 Y84.61 E72.89075
G1 X38.652 Y84.284 E72.93619
M204 S3000
M205 X10 Y10
G1 F2400 E66.93619
G0 F3000 X41.854 Y88.335
G0 X41.854 Y89.854
G0 X70.368 Y105.439
G0 X71.43 Y105.879
G0 X74.213 Y106.436
M204 S1800
M205 X8 Y8
;TYPE:WALL-INNER
G1 F2400 E72.93619
G1 F1800 X75.518 Y105.894 E73.03489
G1 X76.639 Y105.033 E73.13362
G1 X77.499 Y103.912 E73.2323
G1 X78.041 Y102.607 E73.331
G1 X78.224 Y101.207 E73.42962
G1 X78.041 Y99.807 E73.52823
G1 X77.499 Y98.502 E73.62693
G1 X76.639 Y97.381 E73.72562
G1 X75.518 Y96.52 E73.82434
G1 X74.213 Y95.978 E73.92304
G1 X72.812 Y95.795 E74.02173
G1 X71.412 Y95.978 E74.12034
G1 X70.105 Y96.52 E74.21917
G1 X68.986 Y97.381 E74.31779
G1 X68.125 Y98.502 E74.41651
G1 X67.584 Y99.807 E74.51519
G1 X67.4 Y101.207 E74.61381
G1 X67.584 Y102.607 E74.71244
G1 X68.125 Y103.912 E74.81111
G1 X68.986 Y105.033 E74.90984
G1 X70.105 Y105.894 E75.00845
G1 X71.412 Y106.436 E75.10728
G1 X72.812 Y106.619 E75.2059
G1 X74.213 Y106.436 E75.30458
M204 S3000
M205 X10 Y10
G0 F3000 X86.276 Y102.799
M204 S1800
M205 X8 Y8
G1 F1800 X86.615 Y102.658 E75.33023
G1 X87.339 Y102.357 E75.38499
G1 X88.254 Y101.657 E75.46546
G1 X88.956 Y100.741 E75.54607
G1 X89.397 Y99.677 E75.62651
G1 X89.546 Y98.536 E75.70688
G1 X89.397 Y97.394 E75.78732
G1 X88.956 Y96.331 E75.86771
G1 X88.254 Y95.415 E75.94831
G1 X87.339 Y94.715 E76.02878
G1 X86.276 Y94.273 E76.10919
G1 X85.134 Y94.124 E76.18963
G1 X83.993 Y94.273 E76.27
G1 X82.928 Y94.715 E76.35054
G1 X82.015 Y95.417 E76.43098
G1 X81.313 Y96.33 E76.51142
G1 X80.872 Y97.394 E76.59187
G1 X80.722 Y98.536 E76.67232
G1 X80.872 Y99.677 E76.7527
G1 X81.313 Y100.741 E76.83314
G1 X82.015 Y101.655 E76.91364
G1 X82.928 Y102.357 E76.99408
G1 X83.993 Y102.799 E77.07462
G1 X85.134 Y102.948 E77.15499
G1 X85.876 Y102.851 E77.20726
G1 X86.276 Y102.799 E77.23543
M204 S3000
M205 X10 Y10
G0 F3000 X87.883 Y101.285
G0 X88.501 Y100.478
G0 X88.889 Y99.541
G0 X89.021 Y98.536
G0 X88.915 Y97.722
G0 X87.6 Y93.4
M204 S1800
M205 X8 Y8
G1 F1800 X97.19 Y93.4 E77.90526
G1 X97.402 Y93.4 E77.92006
G1 X98.285 Y93.4 E77.98174
G1 X99.167 Y93.4 E78.04334
G1 X99.38 Y93.4 E78.05822
G1 X110.62 Y93.4 E78.84329
G1 X110.833 Y93.4 E78.85817
G1 X111.715 Y93.4 E78.91977
G1 X112.598 Y93.4 E78.98145
G1 X112.81 Y93.4 E78.99626
G1 X122.4 Y93.4 E79.66608
G1 X122.4 Y90.4 E79.87562
G1 X167.6 Y90.4 E83.03267
G1 X167.6 Y106.908 E84.1857
G1 X167.159 Y110.261 E84.42191
G1 X165.902 Y113.295 E84.65129
G1 X163.903 Y115.902 E84.88075
G1 X161.295 Y117.902 E85.1103
G1 X158.261 Y119.159 E85.33968
G1 X155 Y119.587 E85.56941
G1 X151.739 Y119.159 E85.79913
G1 X148.705 Y117.902 E86.02851
G1 X146.098 Y115.902 E86.25801
G1 X143.834 Y112.95 E86.51785
G1 X137.873 Y109.191 E87.01008
G1 X131.721 Y106.143 E87.48962
G1 X125.289 Y103.735 E87.96932
G1 X123.98 Y103.393 E88.06382
G1 X123.596 Y103.293 E88.09153
G1 X123.246 Y103.202 E88.11679
G1 X118.645 Y101.998 E88.44898
G1 X112.481 Y101.045 E88.88462
G1 X111.858 Y100.949 E88.92865
G1 X111.698 Y100.941 E88.93984
G1 X110.812 Y100.896 E89.0018
G1 X110.429 Y100.877 E89.02859
G1 X105 Y100.598 E89.40828
G1 X99.577 Y100.875 E89.78755
G1 X99.188 Y100.894 E89.81476
G1 X98.302 Y100.94 E89.87672
G1 X98.142 Y100.949 E89.88792
G1 X97.52 Y101.045 E89.93188
G1 X91.355 Y101.998 E90.36759
G1 X86.762 Y103.199 E90.69918
G1 X86.406 Y103.292 E90.72371
G1 X86.015 Y103.394 E90.75066
G1 X84.711 Y103.735 E90.8448
G1 X78.279 Y106.143 E91.3245
G1 X72.127 Y109.191 E91.80404
G1 X66.166 Y112.95 E92.29627
G1 X63.903 Y115.902 E92.55607
G1 X61.295 Y117.902 E92.78562
G1 X58.261 Y119.159 E93.015
G1 X55 Y119.587 E93.24473
G1 X51.739 Y119.159 E93.47445
G1 X48.705 Y117.902 E93.70383
G1 X46.098 Y115.902 E93.93333
G1 X44.098 Y113.295 E94.16283
G1 X42.841 Y110.261 E94.39221
G1 X42.4 Y106.908 E94.62842
G1 X42.4 Y90.4 E95.78145
G1 X87.6 Y90.4 E98.9385
G1 X87.6 Y93.4 E99.14804
M204 S3000
M205 X10 Y10
G0 F3000 X95.085 Y98.478
G0 X98.285 Y100.584
M204 S1800
M205 X8 Y8
G1 F1800 X99.167 Y100.469 E99.19176
G1 X99.527 Y100.32 E99.21574
G1 X99.991 Y100.127 E99.25084
G1 X100.697 Y99.584 E99.31305
G1 X101.24 Y98.878 E99.37526
G1 X101.582 Y98.054 E99.43757
G1 X101.697 Y97.172 E99.4997
G1 X101.582 Y96.289 E99.56189
G1 X101.239 Y95.467 E99.62411
G1 X100.699 Y94.76 E99.68624
G1 X99.99 Y94.217 E99.74862
G1 X99.363 Y93.956 E99.79606
G1 X99.167 Y93.875 E99.80977
G1 X98.285 Y93.76 E99.85618
G1 X97.402 Y93.875 E99.90265
G1 X97.207 Y93.956 E99.9163
G1 X96.579 Y94.218 E99.96383
G1 X95.873 Y94.76 E100.02599
G1 X95.331 Y95.466 E100.08816
G1 X94.988 Y96.289 E100.15044
G1 X94.873 Y97.172 E100.21263
G1 X94.988 Y98.054 E100.27476
G1 X95.33 Y98.877 E100.33701
G1 X95.873 Y99.586 E100.39938
G1 X96.58 Y100.126 E100.46152
G1 X97.402 Y100.469 E100.52373
G1 X97.566 Y100.491 E100.53529
G1 X98.191 Y100.571 E100.57234
G1 X98.285 Y100.584 E100.5759
M204 S3000
M205 X10 Y10
G0 F3000 X108.418 Y96.289
M204 S1800
M205 X8 Y8
G1 F1800 X108.303 Y97.172 E100.6381
G1 X108.418 Y98.054 E100.70022
G1 X108.76 Y98.878 E100.76254
G1 X109.303 Y99.584 E100.82475
G1 X110.009 Y100.127 E100.88696
G1 X110.479 Y100.322 E100.9225
G1 X110.833 Y100.469 E100.94614
G1 X111.715 Y100.584 E100.99001
G1 X111.808 Y100.572 E100.99352
G1 X112.434 Y100.491 E101.03059
G1 X112.598 Y100.469 E101.04215
G1 X113.42 Y100.126 E101.10436
G1 X114.127 Y99.586 E101.1665
G1 X114.67 Y98.877 E101.22887
G1 X115.012 Y98.054 E101.29112
G1 X115.127 Y97.172 E101.35325
G1 X115.012 Y96.289 E101.41544
G1 X114.669 Y95.466 E101.47772
G1 X114.127 Y94.76 E101.53989
G1 X113.421 Y94.218 E101.60206
G1 X112.793 Y93.956 E101.64958
G1 X112.598 Y93.875 E101.66323
G1 X111.715 Y93.76 E101.7097
G1 X110.833 Y93.875 E101.75611
G1 X110.637 Y93.956 E101.76982
G1 X110.01 Y94.217 E101.81726
G1 X109.301 Y94.76 E101.87964
G1 X108.761 Y95.467 E101.94177
G1 X108.418 Y96.289 E102.00399
M204 S3000
M205 X10 Y10
G0 F3000 X109.673 Y95.131
G0 X110.273 Y94.672
G0 X110.969 Y94.383
G0 X111.572 Y94.304
G0 X123.724 Y94.273
M204 S1800
M205 X8 Y8
G1 F1800 X122.66 Y94.715 E102.08446
G1 X121.746 Y95.417 E102.16496
G1 X121.045 Y96.33 E102.24535
G1 X120.603 Y97.394 E102.32583
G1 X120.454 Y98.536 E102.40627
G1 X120.603 Y99.677 E102.48664
G1 X121.045 Y100.741 E102.56711
G1 X121.746 Y101.655 E102.64757
G1 X122.66 Y102.357 E102.72806
G1 X123.39 Y102.661 E102.7833
G1 X123.724 Y102.799 E102.80741
G1 X124.117 Y102.85 E102.83386
G1 X124.866 Y102.948 E102.88662
