;FLAVOR:Marlin
;TIME:8171
;Filament used: 9.03957m
;Layer height: 0.2
;Generated with Cura_SteamEngine 3.5.0
M140 S60
M105
M190 S60
M104 S200
M105
M109 S200
M82 ;absolute extrusion mode
G21 ;metric values
G90 ;absolute positioning
M82 ;set extruder to absolute mode
M107 ;start with the fan off
G28 X0 Y0 ;move X/Y to min endstops
G28 Z0 ;move Z to min endstops
G1 Z15.0 F120 ;move the platform down 15mm
G92 E0 ;zero the extruded length
G1 F200 E3 ;extrude 3mm of feed stock
G92 E0 ;zero the extruded length again
G1 F120
M117 Printing...
G5
G92 E0
G1 F2400 E-6
;LAYER_COUNT:30
;LAYER:0
M106 S255
M204 S3000
M205 X10 Y10
G0 F3000 X17.056 Y83.776 Z0.3
M204 S1800
M205 X8 Y8
;TYPE:SKIRT
G1 F2400 E0
G1 X17.761 Y83.653 E0.04999
G1 X18.509 Y83.609 E0.10232
G1 X191.491 Y83.61 E12.18447
G1 X192.205 Y83.65 E12.23442
G1 X192.91 Y83.769 E12.28436
G1 X193.598 Y83.967 E12.33436
G1 X194.259 Y84.24 E12.38431
G1 X194.886 Y84.584 E12.43426
G1 X195.47 Y84.997 E12.48422
G1 X196.004 Y85.472 E12.53414
G1 X196.483 Y86.004 E12.58414
G1 X196.898 Y86.586 E12.63407
G1 X197.247 Y87.211 E12.68407
G1 X197.523 Y87.871 E12.73404
G1 X197.724 Y88.557 E12.78396
G1 X197.847 Y89.262 E12.83395
G1 X197.891 Y90.01 E12.88629
G1 X197.891 Y119.991 E14.98035
G1 X197.851 Y120.705 E15.0303
G1 X197.732 Y121.41 E15.08023
G1 X197.534 Y122.098 E15.13024
G1 X197.261 Y122.759 E15.18019
G1 X196.917 Y123.386 E15.23014
G1 X196.504 Y123.97 E15.2801
G1 X196.029 Y124.504 E15.33002
G1 X195.497 Y124.983 E15.38002
G1 X194.915 Y125.398 E15.42995
G1 X194.29 Y125.747 E15.47995
G1 X193.63 Y126.023 E15.52991
G1 X192.944 Y126.224 E15.57984
G1 X192.239 Y126.347 E15.62983
G1 X191.491 Y126.391 E15.68216
G1 X18.509 Y126.391 E27.76431
G1 X17.795 Y126.351 E27.81426
G1 X17.09 Y126.232 E27.8642
G1 X16.402 Y126.034 E27.9142
G1 X15.741 Y125.761 E27.96415
G1 X15.114 Y125.417 E28.01411
G1 X14.53 Y125.004 E28.06407
G1 X13.996 Y124.529 E28.11398
G1 X13.517 Y123.997 E28.16398
G1 X13.102 Y123.415 E28.21391
G1 X12.753 Y122.79 E28.26391
G1 X12.477 Y122.13 E28.31388
G1 X12.276 Y121.444 E28.36381
G1 X12.153 Y120.739 E28.41379
G1 X12.109 Y119.991 E28.46613
G1 X12.109 Y90.009 E30.56026
G1 X12.149 Y89.295 E30.61021
G1 X12.268 Y88.59 E30.66014
G1 X12.466 Y87.902 E30.71015
G1 X12.739 Y87.241 E30.7601
G1 X13.083 Y86.614 E30.81005
G1 X13.496 Y86.03 E30.86001
G1 X13.971 Y85.496 E30.90993
G1 X14.503 Y85.017 E30.95993
G1 X15.085 Y84.602 E31.00986
G1 X15.71 Y84.253 E31.05986
G1 X16.37 Y83.977 E31.10982
G1 X17.056 Y83.776 E31.15975
M204 S3000
M205 X10 Y10
G0 F3000 X16.877 Y84.402
M204 S1800
M205 X8 Y8
G1 F2400 X17.543 Y84.249 E31.20748
G1 X18.509 Y84.169 E31.27518
G1 X191.491 Y84.17 E43.35733
G1 X192.173 Y84.21 E43.40505
G1 X192.846 Y84.329 E43.45279
G1 X193.5 Y84.526 E43.50049
G1 X194.127 Y84.799 E43.54826
G1 X194.717 Y85.142 E43.59593
G1 X195.264 Y85.552 E43.64367
G1 X195.759 Y86.023 E43.6914
G1 X196.195 Y86.549 E43.73912
G1 X196.567 Y87.122 E43.78683
G1 X196.87 Y87.735 E43.83459
G1 X197.098 Y88.378 E43.88224
G1 X197.251 Y89.044 E43.92997
G1 X197.331 Y90.01 E43.99768
G1 X197.331 Y119.991 E46.09174
G1 X197.291 Y120.673 E46.13945
G1 X197.172 Y121.346 E46.18719
G1 X196.975 Y122 E46.2349
G1 X196.702 Y122.627 E46.28266
G1 X196.359 Y123.217 E46.33033
G1 X195.949 Y123.764 E46.37808
G1 X195.478 Y124.259 E46.4258
G1 X194.952 Y124.695 E46.47352
G1 X194.379 Y125.067 E46.52124
G1 X193.766 Y125.37 E46.569
G1 X193.123 Y125.598 E46.61665
G1 X192.457 Y125.751 E46.66438
G1 X191.491 Y125.831 E46.73208
G1 X18.509 Y125.831 E58.81423
G1 X17.827 Y125.791 E58.86195
G1 X17.154 Y125.672 E58.90968
G1 X16.5 Y125.475 E58.95739
G1 X15.873 Y125.202 E59.00515
G1 X15.283 Y124.859 E59.05282
G1 X14.736 Y124.449 E59.10057
G1 X14.241 Y123.978 E59.14829
G1 X13.805 Y123.452 E59.19601
G1 X13.433 Y122.879 E59.24373
G1 X13.13 Y122.266 E59.29149
G1 X12.902 Y121.623 E59.33914
G1 X12.749 Y120.957 E59.38687
G1 X12.669 Y119.991 E59.45457
G1 X12.669 Y90.009 E61.5487
G1 X12.709 Y89.327 E61.59642
G1 X12.828 Y88.654 E61.64416
G1 X13.025 Y88 E61.69186
G1 X13.298 Y87.373 E61.73963
G1 X13.641 Y86.783 E61.78729
G1 X14.051 Y86.236 E61.83504
G1 X14.522 Y85.741 E61.88277
G1 X15.048 Y85.305 E61.93048
G1 X15.621 Y84.933 E61.9782
G1 X16.234 Y84.63 E62.02596
G1 X16.877 Y84.402 E62.07361
M204 S3000
M205 X10 Y10
G0 F3000 X17.374 Y84.852
M204 S1800
M205 X8 Y8
G1 F2400 X18.016 Y84.752 E62.11899
G1 X18.509 Y84.729 E62.15347
G1 X191.491 Y84.73 E74.23562
G1 X192.139 Y84.77 E74.28096
G1 X192.778 Y84.889 E74.32636
G1 X193.397 Y85.086 E74.37173
G1 X193.987 Y85.357 E74.41708
G1 X194.54 Y85.699 E74.4625
G1 X195.046 Y86.106 E74.50785
G1 X195.499 Y86.572 E74.55325
G1 X195.89 Y87.09 E74.59858
G1 X196.216 Y87.653 E74.64402
G1 X196.469 Y88.251 E74.68937
G1 X196.648 Y88.875 E74.73471
G1 X196.748 Y89.517 E74.78009
G1 X196.771 Y90.01 E74.81456
G1 X196.771 Y119.991 E76.90863
G1 X196.731 Y120.639 E76.95397
G1 X196.612 Y121.278 E76.99937
G1 X196.415 Y121.897 E77.04474
G1 X196.144 Y122.487 E77.09009
G1 X195.802 Y123.04 E77.13551
G1 X195.395 Y123.546 E77.18086
G1 X194.929 Y123.999 E77.22626
G1 X194.411 Y124.39 E77.27159
G1 X193.848 Y124.716 E77.31703
G1 X193.25 Y124.969 E77.36238
G1 X192.626 Y125.148 E77.40772
G1 X191.984 Y125.248 E77.4531
G1 X191.491 Y125.271 E77.48757
G1 X18.509 Y125.271 E89.56972
G1 X17.861 Y125.231 E89.61507
G1 X17.222 Y125.112 E89.66047
G1 X16.603 Y124.915 E89.70584
G1 X16.013 Y124.644 E89.75119
G1 X15.46 Y124.302 E89.7966
G1 X14.954 Y123.895 E89.84196
G1 X14.501 Y123.429 E89.88735
G1 X14.11 Y122.911 E89.93268
G1 X13.784 Y122.348 E89.97812
G1 X13.531 Y121.75 E90.02348
G1 X13.352 Y121.126 E90.06882
G1 X13.252 Y120.484 E90.1142
G1 X13.229 Y119.991 E90.14867
G1 X13.229 Y90.009 E92.2428
G1 X13.269 Y89.361 E92.28815
G1 X13.388 Y88.722 E92.33355
G1 X13.585 Y88.103 E92.37892
G1 X13.856 Y87.513 E92.42427
G1 X14.198 Y86.96 E92.46968
G1 X14.605 Y86.454 E92.51504
G1 X15.071 Y86.001 E92.56043
G1 X15.589 Y85.61 E92.60576
G1 X16.152 Y85.284 E92.6512
G1 X16.75 Y85.031 E92.69656
G1 X17.374 Y84.852 E92.7419
M204 S3000
M205 X10 Y10
G1 F2400 E86.7419
G0 F3000 X19.354 Y89.335
G0 X19.354 Y90.854
G0 X190.1 Y118.6
M204 S1800
M205 X8 Y8
;TYPE:WALL-INNER
G1 F2400 E92.7419
G1 F1800 X19.9 Y118.6 E104.62974
G1 X19.9 Y91.4 E106.52955
G1 X190.1 Y91.4 E118.41739
G1 X190.1 Y118.6 E120.31721
M204 S3000
M205 X10 Y10
G0 F3000 X190.66 Y119.16
M204 S1800
M205 X8 Y8
G1 F1800 X19.34 Y119.16 E132.28328
G1 X19.34 Y90.84 E134.26132
G1 X190.66 Y90.84 E146.22739
G1 X190.66 Y119.16 E148.20543
M204 S3000
M205 X10 Y10
G0 F3000 X191.22 Y119.72
M204 S1800
M205 X8 Y8
;TYPE:WALL-OUTER
G1 F1800 X18.78 Y119.72 E160.24973
G1 X18.78 Y90.28 E162.306
G1 X191.22 Y90.28 E174.3503
G1 X191.22 Y119.72 E176.40657
M204 S3000
M205 X10 Y10
G0 F3000 X191.02 Y119.72
G0 X190.59 Y119.09
G0 X189.55 Y118.05
M204 S1800
M205 X8 Y8
;TYPE:SKIN
G1 F1800 X20.45 Y118.05 E188.21758
G1 X20.45 Y91.95 E190.04056
G1 X189.55 Y91.95 E201.85157
G1 X189.55 Y118.05 E203.67456
M204 S3000
M205 X10 Y10
G0 F3000 X189.289 Y92.67
M204 S1800
M205 X8 Y8
G1 F1800 X188.829 Y92.21 E203.72
M204 S3000
M205 X10 Y10
G0 F3000 X188.037 Y92.21
M204 S1800
M205 X8 Y8
G1 F1800 X189.289 Y93.462 E203.84367
M204 S3000
M205 X10 Y10
G0 F3000 X189.289 Y94.254
M204 S1800
M205 X8 Y8
G1 F1800 X187.245 Y92.21 E204.04557
M204 S3000
M205 X10 Y10
G0 F3000 X186.453 Y92.21
M204 S1800
M205 X8 Y8
G1 F1800 X189.289 Y95.046 E204.3257
M204 S3000
M205 X10 Y10
G0 F3000 X189.289 Y95.838
M204 S1800
M205 X8 Y8
G1 F1800 X185.661 Y92.21 E204.68407
M204 S3000
M205 X10 Y10
G0 F3000 X184.869 Y92.21
M204 S1800
M205 X8 Y8
G1 F1800 X189.289 Y96.63 E205.12066
M204 S3000
M205 X10 Y10
G0 F3000 X189.289 Y97.422
M204 S1800
M205 X8 Y8
G1 F1800 X184.077 Y92.21 E205.63549
M204 S3000
M205 X10 Y10
G0 F3000 X183.285 Y92.21
M204 S1800
M205 X8 Y8
G1 F1800 X189.289 Y98.214 E206.22855
M204 S3000
M205 X10 Y10
G0 F3000 X189.289 Y99.006
M204 S1800
M205 X8 Y8
G1 F1800 X182.493 Y92.21 E206.89984
M204 S3000
M205 X10 Y10
G0 F3000 X181.701 Y92.21
M204 S1800
M205 X8 Y8
G1 F1800 X189.289 Y99.798 E207.64937
M204 S3000
M205 X10 Y10
G0 F3000 X189.289 Y100.59
M204 S1800
M205 X8 Y8
G1 F1800 X180.909 Y92.21 E208.47712
M204 S3000
M205 X10 Y10
G0 F3000 X180.117 Y92.21
M204 S1800
M205 X8 Y8
G1 F1800 X189.289 Y101.382 E209.38311
M204 S3000
M205 X10 Y10
G0 F3000 X189.289 Y102.174
M204 S1800
M205 X8 Y8
G1 F1800 X179.325 Y92.21 E210.36733
M204 S3000
M205 X10 Y10
G0 F3000 X178.533 Y92.21
M204 S1800
M205 X8 Y8
G1 F1800 X189.289 Y102.966 E211.42978
M204 S3000
M205 X10 Y10
G0 F3000 X189.289 Y103.758
M204 S1800
M205 X8 Y8
G1 F1800 X177.741 Y92.21 E212.57047
M204 S3000
M205 X10 Y10
G0 F3000 X176.949 Y92.21
M204 S1800
M205 X8 Y8
G1 F1800 X189.289 Y104.549 E213.78933
M204 S3000
M205 X10 Y10
G0 F3000 X189.289 Y105.341
M204 S1800
M205 X8 Y8
G1 F1800 X176.157 Y92.21 E215.08643
M204 S3000
M205 X10 Y10
G0 F3000 X175.366 Y92.21
M204 S1800
M205 X8 Y8
G1 F1800 X189.289 Y106.133 E216.46171
M204 S3000
M205 X10 Y10
G0 F3000 X189.289 Y106.925
M204 S1800
M205 X8 Y8
G1 F1800 X174.574 Y92.21 E217.91522
M204 S3000
M205 X10 Y10
G0 F3000 X173.782 Y92.21
M204 S1800
M205 X8 Y8
G1 F1800 X189.289 Y107.717 E219.44697
M204 S3000
M205 X10 Y10
G0 F3000 X189.289 Y108.509
M204 S1800
M205 X8 Y8
G1 F1800 X172.99 Y92.21 E221.05694
M204 S3000
M205 X10 Y10
G0 F3000 X172.198 Y92.21
M204 S1800
M205 X8 Y8
G1 F1800 X189.289 Y109.301 E222.74515
M204 S3000
M205 X10 Y10
G0 F3000 X189.289 Y110.093
M204 S1800
M205 X8 Y8
G1 F1800 X171.406 Y92.21 E224.51159
M204 S3000
M205 X10 Y10
G0 F3000 X170.614 Y92.21
M204 S1800
M205 X8 Y8
G1 F1800 X189.289 Y110.885 E226.35626
M204 S3000
M205 X10 Y10
G0 F3000 X189.289 Y111.677
M204 S1800
M205 X8 Y8
G1 F1800 X169.822 Y92.21 E228.27916
M204 S3000
M205 X10 Y10
G0 F3000 X169.03 Y92.21
M204 S1800
M205 X8 Y8
G1 F1800 X189.289 Y112.469 E230.2803
M204 S3000
M205 X10 Y10
G0 F3000 X189.289 Y113.261
M204 S1800
M205 X8 Y8
G1 F1800 X168.238 Y92.21 E232.35966
M204 S3000
M205 X10 Y10
G0 F3000 X167.446 Y92.21
M204 S1800
M205 X8 Y8
G1 F1800 X189.289 Y114.053 E234.51726
M204 S3000
M205 X10 Y10
G0 F3000 X189.289 Y114.845
M204 S1800
M205 X8 Y8
G1 F1800 X166.654 Y92.21 E236.75309
M204 S3000
M205 X10 Y10
G0 F3000 X165.862 Y92.21
M204 S1800
M205 X8 Y8
G1 F1800 X189.289 Y115.637 E239.06715
M204 S3000
M205 X10 Y10
G0 F3000 X189.289 Y116.429
M204 S1800
M205 X8 Y8
G1 F1800 X165.07 Y92.21 E241.45945
M204 S3000
M205 X10 Y10
G0 F3000 X164.278 Y92.21
M204 S1800
M205 X8 Y8
G1 F1800 X189.289 Y117.221 E243.92997
M204 S3000
M205 X10 Y10
G0 F3000 X189.065 Y117.789
M204 S1800
M205 X8 Y8
G1 F1800 X163.486 Y92.21 E246.4566
M204 S3000
M205 X10 Y10
G0 F3000 X162.694 Y92.21
M204 S1800
M205 X8 Y8
G1 F1800 X188.273 Y117.789 E248.98323
M204 S3000
M205 X10 Y10
G0 F3000 X187.481 Y117.789
M204 S1800
M205 X8 Y8
G1 F1800 X161.902 Y92.21 E251.50987
M204 S3000
M205 X10 Y10
G0 F3000 X161.11 Y92.21
M204 S1800
M205 X8 Y8
G1 F1800 X186.689 Y117.789 E254.0365
M204 S3000
M205 X10 Y10
G0 F3000 X185.897 Y117.789
M204 S1800
M205 X8 Y8
G1 F1800 X160.318 Y92.21 E256.56313
M204 S3000
M205 X10 Y10
G0 F3000 X159.526 Y92.21
M204 S1800
M205 X8 Y8
G1 F1800 X185.105 Y117.789 E259.08976
M204 S3000
M205 X10 Y10
G0 F3000 X184.313 Y117.789
M204 S1800
M205 X8 Y8
G1 F1800 X158.734 Y92.21 E261.61639
M204 S3000
M205 X10 Y10
G0 F3000 X157.942 Y92.21
M204 S1800
M205 X8 Y8
G1 F1800 X183.521 Y117.789 E264.14302
M204 S3000
M205 X10 Y10
G0 F3000 X182.729 Y117.789
M204 S1800
M205 X8 Y8
G1 F1800 X157.15 Y92.21 E266.66965
M204 S3000
M205 X10 Y10
G0 F3000 X156.358 Y92.21
M204 S1800
M205 X8 Y8
G1 F1800 X181.937 Y117.789 E269.19628
M204 S3000
M205 X10 Y10
G0 F3000 X181.145 Y117.789
M204 S1800
M205 X8 Y8
G1 F1800 X155.567 Y92.21 E271.72287
M204 S3000
M205 X10 Y10
G0 F3000 X154.775 Y92.21
M204 S1800
M205 X8 Y8
G1 F1800 X180.353 Y117.789 E274.24945
M204 S3000
M205 X10 Y10
G0 F3000 X179.561 Y117.789
M204 S1800
M205 X8 Y8
G1 F1800 X153.983 Y92.21 E276.77603
M204 S3000
M205 X10 Y10
G0 F3000 X153.191 Y92.21
M204 S1800
M205 X8 Y8
G1 F1800 X178.77 Y117.789 E279.30266
M204 S3000
M205 X10 Y10
G0 F3000 X177.978 Y117.789
M204 S1800
M205 X8 Y8
G1 F1800 X152.399 Y92.21 E281.82929
M204 S3000
M205 X10 Y10
G0 F3000 X151.607 Y92.21
M204 S1800
M205 X8 Y8
G1 F1800 X177.186 Y117.789 E284.35592
M204 S3000
M205 X10 Y10
G0 F3000 X176.394 Y117.789
M204 S1800
M205 X8 Y8
G1 F1800 X150.815 Y92.21 E286.88255
M204 S3000
M205 X10 Y10
G0 F3000 X150.023 Y92.21
M204 S1800
M205 X8 Y8
G1 F1800 X175.602 Y117.789 E289.40919
M204 S3000
M205 X10 Y10
G0 F3000 X174.81 Y117.789
M204 S1800
M205 X8 Y8
G1 F1800 X149.231 Y92.21 E291.93582
M204 S3000
M205 X10 Y10
G0 F3000 X148.439 Y92.21
M204 S1800
M205 X8 Y8
G1 F1800 X174.018 Y117.789 E294.46245
M204 S3000
M205 X10 Y10
G0 F3000 X173.226 Y117.789
M204 S1800
M205 X8 Y8
G1 F1800 X147.647 Y92.21 E296.98908
M204 S3000
M205 X10 Y10
G0 F3000 X146.855 Y92.21
M204 S1800
M205 X8 Y8
G1 F1800 X172.434 Y117.789 E299.51571
M204 S3000
M205 X10 Y10
G0 F3000 X171.642 Y117.789
M204 S1800
M205 X8 Y8
G1 F1800 X146.063 Y92.21 E302.04234
M204 S3000
M205 X10 Y10
G0 F3000 X145.271 Y92.21
M204 S1800
M205 X8 Y8
G1 F1800 X170.85 Y117.789 E304.56897
M204 S3000
M205 X10 Y10
G0 F3000 X170.058 Y117.789
M204 S1800
M205 X8 Y8
G1 F1800 X144.479 Y92.21 E307.0956
M204 S3000
M205 X10 Y10
G0 F3000 X143.687 Y92.21
M204 S1800
M205 X8 Y8
G1 F1800 X169.266 Y117.789 E309.62224
M204 S3000
M205 X10 Y10
G0 F3000 X168.474 Y117.789
M204 S1800
M205 X8 Y8
G1 F1800 X142.895 Y92.21 E312.14887
M204 S3000
M205 X10 Y10
G0 F3000 X142.103 Y92.21
M204 S1800
M205 X8 Y8
G1 F1800 X167.682 Y117.789 E314.6755
M204 S3000
M205 X10 Y10
G0 F3000 X166.89 Y117.789
M204 S1800
M205 X8 Y8
G1 F1800 X141.311 Y92.21 E317.20213
M204 S3000
M205 X10 Y10
G0 F3000 X140.519 Y92.21
M204 S1800
M205 X8 Y8
G1 F1800 X166.098 Y117.789 E319.72876
M204 S3000
M205 X10 Y10
G0 F3000 X165.306 Y117.789
M204 S1800
M205 X8 Y8
G1 F1800 X139.727 Y92.21 E322.25539
M204 S3000
M205 X10 Y10
G0 F3000 X138.935 Y92.21
M204 S1800
M205 X8 Y8
G1 F1800 X164.514 Y117.789 E324.78202
M204 S3000
M205 X10 Y10
G0 F3000 X163.722 Y117.789
M204 S1800
M205 X8 Y8
G1 F1800 X138.143 Y92.21 E327.30865
M204 S3000
M205 X10 Y10
G0 F3000 X137.351 Y92.21
M204 S1800
M205 X8 Y8
G1 F1800 X162.93 Y117.789 E329.83529
M204 S3000
M205 X10 Y10
G0 F3000 X162.138 Y117.789
M204 S1800
M205 X8 Y8
G1 F1800 X136.559 Y92.21 E332.36192
M204 S3000
M205 X10 Y10
G0 F3000 X135.768 Y92.21
M204 S1800
M205 X8 Y8
G1 F1800 X161.346 Y117.789 E334.8885
M204 S3000
M205 X10 Y10
G0 F3000 X160.554 Y117.789
M204 S1800
M205 X8 Y8
G1 F1800 X134.976 Y92.21 E337.41508
M204 S3000
M205 X10 Y10
G0 F3000 X134.184 Y92.21
M204 S1800
M205 X8 Y8
G1 F1800 X159.762 Y117.789 E339.94166
M204 S3000
M205 X10 Y10
G0 F3000 X158.971 Y117.789
M204 S1800
M205 X8 Y8
G1 F1800 X133.392 Y92.21 E342.46829
M204 S3000
M205 X10 Y10
G0 F3000 X132.6 Y92.21
M204 S1800
M205 X8 Y8
G1 F1800 X158.179 Y117.789 E344.99493
M204 S3000
M205 X10 Y10
G0 F3000 X157.387 Y117.789
M204 S1800
M205 X8 Y8
G1 F1800 X131.808 Y92.21 E347.52156
M204 S3000
M205 X10 Y10
G0 F3000 X131.016 Y92.21
M204 S1800
M205 X8 Y8
G1 F1800 X156.595 Y117.789 E350.04819
M204 S3000
M205 X10 Y10
G0 F3000 X155.803 Y117.789
M204 S1800
M205 X8 Y8
G1 F1800 X130.224 Y92.21 E352.57482
M204 S3000
M205 X10 Y10
G0 F3000 X129.432 Y92.21
M204 S1800
M205 X8 Y8
G1 F1800 X155.011 Y117.789 E355.10145
M204 S3000
M205 X10 Y10
G0 F3000 X154.219 Y117.789
M204 S1800
M205 X8 Y8
G1 F1800 X128.64 Y92.21 E357.62808
M204 S3000
M205 X10 Y10
G0 F3000 X127.848 Y92.21
M204 S1800
M205 X8 Y8
G1 F1800 X153.427 Y117.789 E360.15471
M204 S3000
M205 X10 Y10
G0 F3000 X152.635 Y117.789
M204 S1800
M205 X8 Y8
G1 F1800 X127.056 Y92.21 E362.68134
M204 S3000
M205 X10 Y10
G0 F3000 X126.264 Y92.21
M204 S1800
M205 X8 Y8
G1 F1800 X151.843 Y117.789 E365.20798
M204 S3000
M205 X10 Y10
G0 F3000 X151.051 Y117.789
M204 S1800
M205 X8 Y8
G1 F1800 X125.472 Y92.21 E367.73461
M204 S3000
M205 X10 Y10
G0 F3000 X124.68 Y92.21
M204 S1800
M205 X8 Y8
G1 F1800 X150.259 Y117.789 E370.26124
M204 S3000
M205 X10 Y10
G0 F3000 X149.467 Y117.789
M204 S1800
M205 X8 Y8
G1 F1800 X123.888 Y92.21 E372.78787
M204 S3000
M205 X10 Y10
G0 F3000 X123.096 Y92.21
M204 S1800
M205 X8 Y8
G1 F1800 X148.675 Y117.789 E375.3145
M204 S3000
M205 X10 Y10
