;FLAVOR:Marlin
;TIME:2190
;Filament used: 1.52041m
;Layer height: 0.2
;Generated with Cura_SteamEngine 4.0.0
M140 S60
M105
M190 S60
M104 S200
M105
M109 S200
M82 ;absolute extrusion mode
G21 ;metric values
G90 ;absolute positioning
M82 ;set extruder to absolute mode
M107 ;start with the fan off
G28 X0 Y0 ;move X/Y to min endstops
G28 Z0 ;move Z to min endstops
G1 Z15.0 F200 ;move the platform down 15mm
G92 E0 ;zero the extruded length
G1 F200 E3 ;extrude 3mm of feed stock
G92 E0 ;zero the extruded length again
G1 F200
M117 Printing...
G5
G92 E0
G1 F2700 E-0.5
;LAYER_COUNT:326
;LAYER:0
M106 S255
M204 S3000
M205 X10 Y10
G0 F2000 X97.298 Y90.806 Z0.2
M205 X8 Y8
;TYPE:SKIRT
G1 F2700 E0
G1 F2400 X97.815 Y90.312 E0.0333
G1 X98.384 Y89.879 E0.06659
G1 X98.999 Y89.512 E0.09994
G1 X99.65 Y89.216 E0.13324
G1 X100.33 Y88.995 E0.16653
G1 X101.03 Y88.85 E0.19982
G1 X101.97 Y88.781 E0.24371
G1 X108.034 Y88.782 E0.52607
G1 X108.748 Y88.822 E0.55937
G1 X109.453 Y88.942 E0.59267
G1 X110.141 Y89.139 E0.626
G1 X110.802 Y89.412 E0.6593
G1 X111.429 Y89.757 E0.69262
G1 X112.013 Y90.17 E0.72593
G1 X112.714 Y90.817 E0.77035
G1 X114.399 Y92.624 E0.88539
G1 X119.277 Y97.377 E1.20253
G1 X119.761 Y97.904 E1.23585
G1 X120.183 Y98.482 E1.26917
G1 X120.537 Y99.103 E1.30246
G1 X120.821 Y99.76 E1.33578
G1 X121.029 Y100.444 E1.36907
G1 X121.159 Y101.147 E1.40236
G1 X121.211 Y101.954 E1.44002
G1 X121.218 Y108.013 E1.72215
G1 X121.179 Y108.727 E1.75545
G1 X121.06 Y109.432 E1.78874
G1 X120.864 Y110.12 E1.82205
G1 X120.592 Y110.781 E1.85533
G1 X120.247 Y111.408 E1.88866
G1 X119.835 Y111.993 E1.92198
G1 X119.253 Y112.634 E1.96229
G1 X115.491 Y116.25 E2.20526
G1 X112.681 Y119.218 E2.39558
G1 X112.161 Y119.709 E2.42888
G1 X111.589 Y120.139 E2.4622
G1 X110.973 Y120.503 E2.49552
G1 X110.321 Y120.795 E2.52879
G1 X109.64 Y121.013 E2.56208
G1 X108.938 Y121.154 E2.59542
G1 X108.032 Y121.218 E2.63772
G1 X101.964 Y121.217 E2.92027
G1 X101.25 Y121.177 E2.95357
G1 X100.545 Y121.057 E2.98687
G1 X99.857 Y120.86 E3.02019
G1 X99.196 Y120.587 E3.05349
G1 X98.569 Y120.242 E3.08681
G1 X97.985 Y119.829 E3.12012
G1 X97.284 Y119.182 E3.16454
G1 X95.512 Y117.282 E3.28552
G1 X90.72 Y112.608 E3.59722
G1 X90.237 Y112.08 E3.63054
G1 X89.816 Y111.503 E3.6638
G1 X89.461 Y110.881 E3.69715
G1 X89.178 Y110.224 E3.73046
G1 X88.971 Y109.54 E3.76373
G1 X88.841 Y108.837 E3.79702
G1 X88.789 Y108.034 E3.83449
G1 X88.782 Y102.138 E4.10903
G1 X88.821 Y101.423 E4.14238
G1 X88.94 Y100.718 E4.17567
G1 X89.136 Y100.03 E4.20898
G1 X89.408 Y99.369 E4.24226
G1 X89.752 Y98.742 E4.27556
G1 X90.164 Y98.157 E4.30888
G1 X90.722 Y97.54 E4.34762
G1 X93.708 Y94.639 E4.54147
G1 X97.298 Y90.806 E4.78601
M205 X10 Y10
G0 F2000 X97.707 Y91.189
M205 X8 Y8
G1 F2400 X98.202 Y90.718 E4.81783
G1 X98.749 Y90.309 E4.84963
G1 X99.34 Y89.966 E4.88145
G1 X99.967 Y89.695 E4.91326
G1 X100.622 Y89.499 E4.94509
G1 X101.294 Y89.38 E4.97687
G1 X101.97 Y89.341 E5.0084
G1 X108.034 Y89.342 E5.29077
G1 X108.716 Y89.382 E5.32258
G1 X109.389 Y89.502 E5.35441
G1 X110.043 Y89.699 E5.38621
G1 X110.67 Y89.971 E5.41804
G1 X111.26 Y90.315 E5.44984
G1 X111.806 Y90.725 E5.48163
G1 X112.304 Y91.199 E5.51365
G1 X113.984 Y93.001 E5.62837
G1 X118.887 Y97.778 E5.94711
G1 X119.347 Y98.283 E5.97892
G1 X119.746 Y98.838 E6.01075
G1 X120.077 Y99.436 E6.04258
G1 X120.336 Y100.068 E6.07438
G1 X120.519 Y100.726 E6.10618
G1 X120.624 Y101.401 E6.13799
G1 X120.651 Y101.954 E6.16377
G1 X120.658 Y108.013 E6.44591
G1 X120.619 Y108.695 E6.47771
G1 X120.5 Y109.368 E6.50954
G1 X120.304 Y110.023 E6.54137
G1 X120.032 Y110.65 E6.5732
G1 X119.69 Y111.241 E6.60499
G1 X119.28 Y111.788 E6.63682
G1 X118.865 Y112.231 E6.66509
G1 X115.081 Y115.868 E6.90948
G1 X112.274 Y118.833 E7.0996
G1 X111.776 Y119.301 E7.13142
G1 X111.227 Y119.707 E7.16322
G1 X110.634 Y120.047 E7.19505
G1 X110.006 Y120.315 E7.22684
G1 X109.35 Y120.507 E7.25867
G1 X108.677 Y120.622 E7.29046
G1 X108.032 Y120.658 E7.32054
G1 X101.964 Y120.657 E7.60309
G1 X101.282 Y120.617 E7.6349
G1 X100.609 Y120.497 E7.66673
G1 X99.955 Y120.3 E7.69854
G1 X99.328 Y120.028 E7.73036
G1 X98.738 Y119.684 E7.76216
G1 X98.192 Y119.274 E7.79396
G1 X97.694 Y118.8 E7.82597
G1 X95.918 Y116.895 E7.94725
G1 X91.111 Y112.207 E8.2599
G1 X90.651 Y111.702 E8.29171
G1 X90.253 Y111.147 E8.32351
G1 X89.922 Y110.549 E8.35534
G1 X89.663 Y109.917 E8.38714
G1 X89.48 Y109.258 E8.41899
G1 X89.376 Y108.583 E8.45079
G1 X89.349 Y108.033 E8.47643
G1 X89.342 Y102.137 E8.75097
G1 X89.381 Y101.455 E8.78278
G1 X89.5 Y100.782 E8.81461
G1 X89.696 Y100.128 E8.8464
G1 X89.967 Y99.501 E8.8782
G1 X90.31 Y98.91 E8.91002
G1 X90.72 Y98.363 E8.94185
G1 X91.113 Y97.941 E8.96871
G1 X94.112 Y95.028 E9.16338
G1 X97.707 Y91.189 E9.40829
M205 X10 Y10
G0 F2000 X98.115 Y91.572
M205 X8 Y8
G1 F2400 X98.588 Y91.126 E9.43856
G1 X99.111 Y90.741 E9.4688
G1 X99.678 Y90.424 E9.49905
G1 X100.28 Y90.179 E9.52931
G1 X100.907 Y90.009 E9.55956
G1 X101.55 Y89.918 E9.5898
G1 X101.97 Y89.901 E9.60937
G1 X108.034 Y89.902 E9.89174
G1 X108.682 Y89.942 E9.92197
G1 X109.321 Y90.061 E9.95223
G1 X109.94 Y90.258 E9.98248
G1 X110.53 Y90.53 E10.01273
G1 X111.082 Y90.872 E10.04297
G1 X111.589 Y91.279 E10.07325
G1 X111.895 Y91.581 E10.09326
G1 X113.59 Y93.399 E10.209
G1 X118.496 Y98.179 E10.52795
G1 X118.932 Y98.66 E10.55818
G1 X119.306 Y99.192 E10.58846
G1 X119.612 Y99.765 E10.61871
G1 X119.846 Y100.371 E10.64896
G1 X120.003 Y101.001 E10.67919
G1 X120.091 Y101.955 E10.7238
G1 X120.098 Y108.014 E11.00593
G1 X120.059 Y108.662 E11.03616
G1 X119.94 Y109.301 E11.06643
G1 X119.744 Y109.92 E11.09666
G1 X119.474 Y110.511 E11.12692
G1 X119.132 Y111.064 E11.15719
G1 X118.726 Y111.571 E11.18744
G1 X118.477 Y111.827 E11.20407
G1 X114.693 Y115.464 E11.44846
G1 X111.868 Y118.448 E11.6398
G1 X111.393 Y118.891 E11.67004
G1 X110.867 Y119.273 E11.70031
G1 X110.299 Y119.587 E11.73053
G1 X109.696 Y119.829 E11.76079
G1 X109.068 Y119.996 E11.79104
G1 X108.424 Y120.083 E11.8213
G1 X108.032 Y120.098 E11.83957
G1 X101.964 Y120.097 E12.12212
G1 X101.316 Y120.057 E12.15235
G1 X100.677 Y119.938 E12.18262
G1 X100.058 Y119.741 E12.21287
G1 X99.468 Y119.469 E12.24312
G1 X98.916 Y119.127 E12.27336
G1 X98.409 Y118.72 E12.30363
G1 X98.103 Y118.418 E12.32365
G1 X96.312 Y116.497 E12.44594
G1 X91.502 Y111.806 E12.7588
G1 X91.066 Y111.325 E12.78903
G1 X90.692 Y110.793 E12.81931
G1 X90.387 Y110.22 E12.84953
G1 X90.153 Y109.614 E12.87978
G1 X89.997 Y108.983 E12.91005
G1 X89.909 Y108.032 E12.95452
G1 X89.902 Y102.136 E13.22906
G1 X89.941 Y101.488 E13.25929
G1 X90.06 Y100.849 E13.28956
G1 X90.256 Y100.23 E13.31979
G1 X90.526 Y99.639 E13.35005
G1 X90.868 Y99.086 E13.38032
G1 X91.274 Y98.58 E13.41053
G1 X91.503 Y98.343 E13.42588
G1 X94.504 Y95.427 E13.62072
G1 X98.115 Y91.572 E13.86668
M205 X10 Y10
G1 F2700 E13.36668
G0 F2000 X100.225 Y97.379
G0 X101.142 Y98.304
G0 X103.641 Y98.832
M205 X8 Y8
;TYPE:SUPPORT
G1 F2700 E13.86668
G1 F600 X103.702 Y98.816 E13.86961
G1 X104.139 Y98.739 E13.89027
G1 X104.791 Y98.684 E13.92074
G1 X105.21 Y98.685 E13.94025
G1 X105.84 Y98.737 E13.96969
G1 X106.215 Y98.832 E13.9877
G1 X103.641 Y98.832 E14.10756
M205 X10 Y10
G0 F2000 X98.838 Y103.792
M205 X8 Y8
G1 F600 X98.838 Y106.355 E14.2269
G1 X98.823 Y106.298 E14.22964
G1 X98.745 Y105.856 E14.25054
G1 X98.693 Y105.238 E14.27942
G1 X98.721 Y104.864 E14.29689
G1 X98.72 Y104.409 E14.31807
G1 X98.74 Y104.165 E14.32947
G1 X98.838 Y103.792 E14.34743
M205 X10 Y10
G0 F2000 X104.625 Y104.936
M205 X8 Y8
G1 F600 X104.701 Y104.759 E14.3564
G1 X104.816 Y104.663 E14.36338
G1 X104.88 Y104.638 E14.36658
G1 X105.01 Y104.613 E14.37274
G1 X105.202 Y104.671 E14.38208
G1 X105.293 Y104.764 E14.38814
G1 X105.342 Y104.843 E14.39247
G1 X105.375 Y104.924 E14.39654
G1 X105.369 Y105.091 E14.40432
G1 X105.308 Y105.214 E14.41071
G1 X105.226 Y105.292 E14.41598
G1 X105.109 Y105.356 E14.42219
G1 X104.994 Y105.371 E14.42759
G1 X104.929 Y105.362 E14.43065
G1 X104.808 Y105.319 E14.43663
G1 X104.72 Y105.237 E14.44223
G1 X104.667 Y105.156 E14.44674
G1 X104.629 Y105.044 E14.45224
G1 X104.625 Y104.936 E14.45728
M205 X10 Y10
G0 F2000 X111.162 Y106.21
M205 X8 Y8
G1 F600 X111.162 Y103.635 E14.57718
G1 X111.182 Y103.713 E14.58093
G1 X111.255 Y104.13 E14.60064
G1 X111.31 Y104.78 E14.63102
G1 X111.309 Y105.207 E14.6509
G1 X111.257 Y105.833 E14.68015
G1 X111.162 Y106.21 E14.69825
M205 X10 Y10
G0 F2000 X106.36 Y111.155
M205 X8 Y8
G1 F600 X106.299 Y111.171 E14.70119
G1 X105.861 Y111.248 E14.7219
G1 X105.209 Y111.303 E14.75236
G1 X104.79 Y111.302 E14.77187
G1 X104.16 Y111.25 E14.80131
G1 X103.785 Y111.155 E14.81932
G1 X106.36 Y111.155 E14.93923
M205 X10 Y10
G0 F2000 X106.393 Y111.642
M205 X8 Y8
;TYPE:SUPPORT-INTERFACE
G1 F600 X107.203 Y111.425 E14.97827
G1 X107.455 Y111.327 E14.99086
G1 X108.01 Y111.075 E15.01924
G1 X109.55 Y111.075 E15.09095
G1 X109.808 Y110.889 E15.10576
G1 X109.902 Y110.931 E15.11056
G1 X109.943 Y111.044 E15.11616
G1 X109.508 Y111.995 E15.16485
G1 X108.913 Y111.396 E15.20416
G1 X108.519 Y111.573 E15.22428
G1 X108.41 Y111.464 E15.23145
G1 X107.924 Y111.33 E15.25493
G1 X106.167 Y111.783 E15.33942
G1 X105.001 Y111.883 E15.39391
G1 X103.829 Y111.783 E15.44868
G1 X102.077 Y111.326 E15.53299
G1 X101.59 Y111.459 E15.5565
G1 X101.477 Y111.572 E15.56394
G1 X101.082 Y111.396 E15.58408
G1 X100.49 Y111.997 E15.62336
G1 X100.056 Y111.051 E15.67182
G1 X100.087 Y110.968 E15.67595
G1 X100.294 Y111.075 E15.6868
G1 X101.986 Y111.075 E15.76559
G1 X102.647 Y111.37 E15.79929
G1 X102.787 Y111.423 E15.80626
G1 X103.245 Y111.547 E15.82836
G1 X103.709 Y111.629 E15.8503
G1 X103.727 Y111.632 E15.85115
G1 X104.077 Y111.725 E15.86801
G1 X104.771 Y111.782 E15.90043
G1 X105.228 Y111.783 E15.92171
G1 X105.927 Y111.725 E15.95437
G1 X106.393 Y111.642 E15.97641
M205 X10 Y10
G0 F2000 X110.973 Y109.905
M205 X8 Y8
G1 F600 X111.082 Y109.692 E15.98755
G1 X111.082 Y108.007 E16.06602
G1 X111.383 Y107.333 E16.10039
G1 X111.429 Y107.209 E16.10655
G1 X111.554 Y106.749 E16.12874
G1 X111.636 Y106.284 E16.15073
G1 X111.641 Y106.259 E16.15192
G1 X111.732 Y105.916 E16.16844
G1 X111.789 Y105.226 E16.20068
G1 X111.79 Y104.761 E16.22233
G1 X111.732 Y104.066 E16.25481
G1 X111.653 Y103.615 E16.27613
G1 X111.553 Y103.232 E16.29456
G1 X111.507 Y103.082 E16.30186
G1 X111.505 Y103.077 E16.30211
G1 X111.506 Y103.077 E16.30216
G1 X111.431 Y102.784 E16.31624
G1 X111.331 Y102.532 E16.32887
G1 X111.082 Y101.983 E16.35694
G1 X111.082 Y100.424 E16.42953
G1 X110.9 Y100.178 E16.44378
G1 X110.94 Y100.092 E16.4482
G1 X111.053 Y100.051 E16.45379
G1 X112 Y100.486 E16.50232
G1 X111.4 Y101.082 E16.5417
G1 X111.581 Y101.482 E16.56214
G1 X111.472 Y101.59 E16.56929
G1 X111.338 Y102.076 E16.59276
G1 X111.792 Y103.826 E16.67695
G1 X111.89 Y104.987 E16.7312
G1 X111.789 Y106.159 E16.78598
G1 X111.334 Y107.914 E16.8704
G1 X111.468 Y108.4 E16.89387
G1 X111.58 Y108.512 E16.90125
G1 X111.403 Y108.909 E16.92149
G1 X112.005 Y109.501 E16.9608
G1 X111.061 Y109.938 E17.00924
G1 X110.973 Y109.905 E17.01362
M205 X10 Y10
G0 F2000 X108.007 Y98.912
M205 X8 Y8
G1 F600 X107.347 Y98.614 E17.04734
G1 X107.215 Y98.564 E17.05391
G1 X106.755 Y98.44 E17.0761
G1 X106.291 Y98.358 E17.09804
G1 X106.273 Y98.355 E17.09889
G1 X105.923 Y98.262 E17.11575
G1 X105.229 Y98.205 E17.14817
G1 X104.772 Y98.204 E17.16945
G1 X104.073 Y98.262 E17.20211
G1 X103.608 Y98.345 E17.22411
G1 X102.794 Y98.563 E17.26335
G1 X102.554 Y98.656 E17.27533
G1 X101.99 Y98.912 E17.30417
G1 X100.431 Y98.912 E17.37677
G1 X100.185 Y99.093 E17.39099
G1 X100.099 Y99.053 E17.3954
G1 X100.058 Y98.942 E17.40091
G1 X100.493 Y97.994 E17.44948
G1 X101.088 Y98.594 E17.48883
G1 X101.49 Y98.412 E17.50938
G1 X101.601 Y98.525 E17.51675
G1 X102.088 Y98.659 E17.54027
G1 X103.843 Y98.204 E17.62469
G1 X104.999 Y98.105 E17.67872
G1 X106.168 Y98.205 E17.73335
G1 X107.914 Y98.658 E17.81734
G1 X108.4 Y98.524 E17.84082
G1 X108.513 Y98.41 E17.84829
G1 X108.915 Y98.589 E17.86878
G1 X109.506 Y97.989 E17.908
G1 X109.942 Y98.934 E17.95646
G1 X109.91 Y99.022 E17.96082
G1 X109.693 Y98.912 E17.97215
G1 X108.007 Y98.912 E18.05066
M205 X10 Y10
G0 F2000 X99.104 Y109.799
M205 X8 Y8
G1 F600 X99.06 Y109.896 E18.05562
G1 X98.95 Y109.936 E18.06107
G1 X98.001 Y109.5 E18.1097
G1 X98.6 Y108.905 E18.14901
G1 X98.42 Y108.506 E18.16939
G1 X98.533 Y108.394 E18.1768
G1 X98.666 Y107.907 E18.20031
G1 X98.21 Y106.172 E18.28384
G1 X98.107 Y104.985 E18.33932
G1 X98.202 Y103.855 E18.39212
G1 X98.639 Y102.159 E18.47367
G1 X98.506 Y101.673 E18.49714
G1 X98.381 Y101.548 E18.50537
G1 X98.55 Y101.165 E18.52486
G1 X97.915 Y100.563 E18.56561
G1 X98.907 Y100.063 E18.61733
G1 X99.02 Y100.101 E18.62288
G1 X98.918 Y100.301 E18.63334
G1 X98.918 Y101.982 E18.71161
G1 X98.798 Y102.246 E18.72512
G1 X98.739 Y102.404 E18.73297
G1 X98.564 Y102.797 E18.753
G1 X98.445 Y103.238 E18.77427
G1 X98.37 Y103.669 E18.79464
G1 X98.366 Y103.699 E18.79605
G1 X98.265 Y104.083 E18.81454
G1 X98.24 Y104.39 E18.82888
G1 X98.241 Y104.864 E18.85095
G1 X98.241 Y104.889 E18.85212
G1 X98.211 Y105.238 E18.86843
G1 X98.268 Y105.922 E18.90039
G1 X98.352 Y106.392 E18.92262
G1 X98.569 Y107.203 E18.96171
G1 X98.659 Y107.432 E18.97317
G1 X98.918 Y108.002 E19.00232
G1 X98.918 Y109.538 E19.07385
G1 X99.104 Y109.799 E19.08877
M205 X10 Y10
G1 F2700 E18.58877
;MESH:Tee1.STL
G0 F2000 X97.761 Y107.619
G0 X96.171 Y107.549
G0 X96.056 Y107.474
G0 X96.152 Y107.45
M205 X8 Y8
;TYPE:WALL-INNER
G1 F2700 E19.08877
G1 F600 X96.182 Y107.564 E19.09426
G1 X96.012 Y107.486 E19.09735
G1 X96.012 Y106.915 E19.11852
G1 X96.152 Y107.45 E19.12167
M205 X10 Y10
G0 F2000 X96.056 Y107.474
G0 X96.022 Y102.644
G0 X96.118 Y102.67
M205 X8 Y8
G1 F600 X96.012 Y103.078 E19.1413
G1 X96.012 Y102.643 E19.14371
G1 X96.141 Y102.578 E19.14943
G1 X96.118 Y102.67
M205 X10 Y10
G0 F2000 X96.467 Y103.556
M205 X8 Y8
;TYPE:WALL-OUTER
G1 F600 X96.347 Y105.011 E19.21741
G1 X96.473 Y106.464 E19.28532
G1 X96.827 Y107.817 E19.35044
G1 X96.849 Y107.88 E19.35355
G1 X96.869 Y107.938 E19.35641
G1 X97.188 Y108.644 E19.39248
G1 X96.658 Y108.4 E19.4034
G1 X96.602 Y108.375 E19.40614
G1 X95.452 Y107.845 E19.4651
G1 X95.452 Y102.298 E19.72339
G1 X96.537 Y101.752 E19.77995
G1 X96.612 Y101.714 E19.78386
G1 X97.135 Y101.45 E19.81114
G1 X96.83 Y102.145 E19.82967
G1 X96.809 Y102.227 E19.83336
G1 X96.467 Y103.556 E19.89726
M205 X10 Y10
G0 F2000 X96.451 Y103.755
G0 X96.171 Y103.808
M205 X8 Y8
;TYPE:SKIN
G1 F600 X95.726 Y103.363 E19.90773
M205 X10 Y10
G0 F2000 X95.981 Y103.335
M205 X8 Y8
G1 F600 X96.192 Y103.546 E19.91269
M205 X10 Y10
G0 F2000 X95.726 Y103.646
M205 X8 Y8
G1 F600 X96.149 Y104.069 E19.92264
M205 X10 Y10
G0 F2000 X96.127 Y104.33
M205 X8 Y8
G1 F600 X95.726 Y103.929 E19.93207
M205 X10 Y10
G0 F2000 X95.916 Y104.401
M205 X8 Y8
G1 F600 X95.905 Y104.673 E19.9437
G1 X95.93 Y105.547 E19.98107
M205 X10 Y10
G0 F2000 X96.162 Y106.061
M205 X8 Y8
G1 F600 X95.726 Y105.626 E19.99131
M205 X10 Y10
G0 F2000 X95.726 Y105.909
M205 X8 Y8
G1 F600 X96.189 Y106.371 E20.00219
M205 X10 Y10
G0 F2000 X96.166 Y106.631
M205 X8 Y8
G1 F600 X95.726 Y106.191 E20.01254
M205 X10 Y10
G0 F2000 X95.726 Y106.474
M205 X8 Y8
G1 F600 X95.916 Y106.664 E20.01701
M205 X10 Y10
G1 F2700 E19.51701
G0 F2000 X96.024 Y107.014
G0 X96.014 Y106.934
G0 X97.407 Y106.3
G0 X102.836 Y97.63
G0 X102.444 Y96.165
G0 X102.52 Y96.05
G0 X102.544 Y96.146
M205 X8 Y8
;TYPE:WALL-INNER
G1 F2700 E20.01701
G1 F600 X102.429 Y96.176 E20.02254
G1 X102.508 Y96.005 E20.02565
G1 X103.084 Y96.005 E20.04709
G1 X102.544 Y96.146 E20.0503
M205 X10 Y10
G0 F2000 X102.52 Y96.05
G0 X107.508 Y96.11
G0 X107.571 Y96.176
M205 X8 Y8
G1 F600 X107.456 Y96.146 E20.05583
G1 X106.917 Y96.005 E20.08177
G1 X107.492 Y96.005 E20.08581
G1 X107.571 Y96.176 E20.08891
M205 X10 Y10
G0 F2000 X107.508 Y96.11
G0 X107.016 Y96.017
G0 X106.458 Y96.464
M205 X8 Y8
;TYPE:WALL-OUTER
G1 F600 X105 Y96.34 E20.15705
G1 X103.543 Y96.464 E20.22514
G1 X102.184 Y96.818 E20.29053
G1 X102.114 Y96.842 E20.29398
G1 X102.063 Y96.86 E20.29649
G1 X101.349 Y97.182 E20.33297
G1 X101.596 Y96.646 E20.34419
G1 X101.619 Y96.597 E20.34661
G1 X102.149 Y95.445 E20.40566
G1 X107.851 Y95.445 E20.67117
G1 X108.339 Y96.504 E20.72546
G1 X108.649 Y97.178 E20.76001
G1 X107.971 Y96.877 E20.77838
