;FLAVOR:Marlin
;TIME:1167
;Filament used: 1.11763m
;Layer height: 0.2
;Generated with Cura_SteamEngine 3.5.0
M140 S60
M105
M190 S60
M104 S200
M105
M109 S200
M82 ;absolute extrusion mode
G21 ;metric values
G90 ;absolute positioning
M82 ;set extruder to absolute mode
M107 ;start with the fan off
G28 X0 Y0 ;move X/Y to min endstops
G28 Z0 ;move Z to min endstops
G1 Z15.0 F120 ;move the platform down 15mm
G92 E0 ;zero the extruded length
G1 F200 E3 ;extrude 3mm of feed stock
G92 E0 ;zero the extruded length again
G1 F120
M117 Printing...
G5
G92 E0
G1 F2400 E-6
;LAYER_COUNT:100
;LAYER:0
M106 S255
M204 S3000
M205 X10 Y10
G0 F3000 X95.404 Y95.097 Z0.3
M204 S1800
M205 X8 Y8
;TYPE:SKIRT
G1 F2400 E0
G1 X96.075 Y94.475 E0.06391
G1 X96.81 Y93.885 E0.12974
G1 X97.44 Y93.439 E0.18365
G1 X98.255 Y92.933 E0.25065
G1 X99.062 Y92.508 E0.31436
G1 X100.082 Y92.061 E0.39214
G1 X100.944 Y91.755 E0.45603
G1 X102.021 Y91.457 E0.53408
G1 X102.831 Y91.288 E0.59188
G1 X103.396 Y91.208 E0.63173
G1 X104.267 Y91.145 E0.69273
G1 X105.967 Y91.138 E0.81147
G1 X106.681 Y91.175 E0.8614
G1 X107.505 Y91.319 E0.91983
G1 X109.319 Y91.76 E1.05022
G1 X110.003 Y91.968 E1.10016
G1 X110.432 Y92.142 E1.13249
G1 X111.259 Y92.514 E1.19583
G1 X111.985 Y92.898 E1.25319
G1 X112.854 Y93.432 E1.32443
G1 X113.568 Y93.942 E1.38572
G1 X114.362 Y94.595 E1.45752
G1 X114.977 Y95.173 E1.51647
G1 X115.656 Y95.901 E1.58601
G1 X116.232 Y96.614 E1.65003
G1 X116.872 Y97.535 E1.72836
G1 X117.331 Y98.306 E1.79103
G1 X117.765 Y99.167 E1.85838
G1 X118.143 Y100.09 E1.92804
G1 X118.582 Y101.456 E2.02826
G1 X118.794 Y102.315 E2.09006
G1 X119.922 Y108.785 E2.54878
G1 X120.462 Y111.242 E2.72449
G1 X121.837 Y116.428 E3.09923
G1 X123.746 Y122.23 E3.52585
G1 X123.932 Y122.92 E3.57576
G1 X124.039 Y123.628 E3.62577
G1 X124.067 Y124.23 E3.66787
G1 X124.067 Y130.166 E4.08247
G1 X124.027 Y130.88 E4.13242
G1 X123.908 Y131.585 E4.18236
G1 X123.71 Y132.273 E4.23237
G1 X123.437 Y132.934 E4.28232
G1 X123.093 Y133.561 E4.33227
G1 X122.68 Y134.145 E4.38223
G1 X122.205 Y134.679 E4.43215
G1 X121.673 Y135.158 E4.48215
G1 X121.091 Y135.573 E4.53207
G1 X120.466 Y135.922 E4.58207
G1 X119.806 Y136.198 E4.63204
G1 X119.12 Y136.399 E4.68197
G1 X118.415 Y136.522 E4.73195
G1 X117.586 Y136.565 E4.78993
G1 X111.398 Y136.487 E5.22218
G1 X104.367 Y136.639 E5.71338
G1 X103.637 Y136.613 E5.7644
G1 X101.606 Y136.425 E5.90687
G1 X96.275 Y136.129 E6.27979
G1 X90.972 Y136.136 E6.65018
G1 X85.689 Y136.441 E7.0198
G1 X80.53 Y137.025 E7.38244
G1 X79.81 Y137.066 E7.43281
G1 X72.332 Y137.066 E7.95512
G1 X71.618 Y137.026 E8.00507
G1 X70.913 Y136.907 E8.055
G1 X70.225 Y136.709 E8.10501
G1 X69.564 Y136.436 E8.15496
G1 X68.937 Y136.092 E8.20491
G1 X68.353 Y135.679 E8.25487
G1 X67.819 Y135.204 E8.30479
G1 X67.34 Y134.672 E8.35479
G1 X66.925 Y134.09 E8.40472
G1 X66.576 Y133.465 E8.45471
G1 X66.3 Y132.805 E8.50468
G1 X66.099 Y132.119 E8.55461
G1 X65.976 Y131.414 E8.6046
G1 X65.932 Y130.665 E8.657
G1 X65.933 Y123.73 E9.14139
G1 X65.973 Y123.016 E9.19133
G1 X66.093 Y122.311 E9.24128
G1 X66.29 Y121.623 E9.29127
G1 X66.563 Y120.962 E9.34122
G1 X66.908 Y120.336 E9.39114
G1 X67.321 Y119.751 E9.44116
G1 X67.796 Y119.217 E9.49108
G1 X68.328 Y118.739 E9.54103
G1 X68.981 Y118.279 E9.59682
G1 X71.464 Y116.752 E9.80042
G1 X75.871 Y113.77 E10.17208
G1 X80.089 Y110.554 E10.54256
G1 X84.111 Y107.112 E10.91231
G1 X87.934 Y103.446 E11.28226
G1 X91.549 Y99.562 E11.65286
G1 X94.332 Y96.257 E11.95465
G1 X94.551 Y96.01 E11.9777
G1 X95.404 Y95.097 E12.06497
M204 S3000
M205 X10 Y10
G0 F3000 X95.814 Y95.479
M204 S1800
M205 X8 Y8
G1 F2400 X96.425 Y94.912 E12.1232
G1 X97.16 Y94.322 E12.18903
G1 X97.736 Y93.914 E12.23833
G1 X98.551 Y93.408 E12.30533
G1 X99.287 Y93.021 E12.36341
G1 X100.307 Y92.574 E12.4412
G1 X101.094 Y92.294 E12.49954
G1 X102.171 Y91.996 E12.57759
G1 X102.909 Y91.843 E12.63023
G1 X103.474 Y91.763 E12.67009
G1 X104.269 Y91.705 E12.72577
G1 X105.969 Y91.698 E12.84451
G1 X106.651 Y91.735 E12.89221
G1 X107.373 Y91.863 E12.94343
G1 X109.187 Y92.304 E13.07382
G1 X109.84 Y92.504 E13.12152
G1 X110.203 Y92.653 E13.14893
G1 X111.03 Y93.025 E13.21226
G1 X111.692 Y93.375 E13.26457
G1 X112.561 Y93.909 E13.33581
G1 X113.213 Y94.374 E13.39174
G1 X114.007 Y95.027 E13.46355
G1 X114.568 Y95.555 E13.51735
G1 X115.247 Y96.283 E13.58689
G1 X115.772 Y96.933 E13.64525
G1 X116.412 Y97.854 E13.72358
G1 X116.831 Y98.558 E13.7808
G1 X117.265 Y99.419 E13.84815
G1 X117.61 Y100.261 E13.9117
G1 X118.049 Y101.627 E14.01192
G1 X118.242 Y102.411 E14.06831
G1 X119.371 Y108.887 E14.52746
G1 X119.916 Y111.37 E14.70502
G1 X121.301 Y116.59 E15.08223
G1 X123.214 Y122.405 E15.5098
G1 X123.39 Y123.065 E15.55751
G1 X123.487 Y123.741 E15.60521
G1 X123.507 Y124.23 E15.63939
G1 X123.507 Y130.166 E16.054
G1 X123.467 Y130.848 E16.10172
G1 X123.348 Y131.521 E16.14945
G1 X123.151 Y132.175 E16.19716
G1 X122.878 Y132.802 E16.24493
G1 X122.535 Y133.392 E16.29259
G1 X122.125 Y133.939 E16.34034
G1 X121.654 Y134.434 E16.38806
G1 X121.128 Y134.87 E16.43578
G1 X120.555 Y135.242 E16.4835
G1 X119.942 Y135.545 E16.53126
G1 X119.299 Y135.773 E16.57891
G1 X118.633 Y135.926 E16.62664
G1 X117.953 Y135.999 E16.67441
G1 X117.593 Y136.006 E16.69956
G1 X111.363 Y135.927 E17.13474
G1 X104.354 Y136.079 E17.6244
G1 X103.689 Y136.055 E17.67088
G1 X101.662 Y135.867 E17.81307
G1 X96.288 Y135.569 E18.189
G1 X90.957 Y135.576 E18.56135
G1 X85.647 Y135.882 E18.93285
G1 X80.467 Y136.469 E19.29697
G1 X79.81 Y136.506 E19.34293
G1 X72.332 Y136.506 E19.86524
G1 X71.65 Y136.466 E19.91296
G1 X70.977 Y136.347 E19.96069
G1 X70.323 Y136.15 E20.0084
G1 X69.696 Y135.877 E20.05616
G1 X69.106 Y135.534 E20.10383
G1 X68.559 Y135.124 E20.15158
G1 X68.064 Y134.653 E20.1993
G1 X67.628 Y134.127 E20.24702
G1 X67.256 Y133.554 E20.29474
G1 X66.953 Y132.941 E20.3425
G1 X66.725 Y132.298 E20.39015
G1 X66.572 Y131.632 E20.43788
G1 X66.492 Y130.665 E20.50565
G1 X66.493 Y123.73 E20.99004
G1 X66.533 Y123.048 E21.03775
G1 X66.653 Y122.375 E21.0855
G1 X66.85 Y121.721 E21.13321
G1 X67.122 Y121.095 E21.18088
G1 X67.466 Y120.504 E21.22864
G1 X67.876 Y119.958 E21.27633
G1 X68.347 Y119.463 E21.32406
G1 X68.873 Y119.027 E21.37178
G1 X69.274 Y118.756 E21.40558
G1 X71.777 Y117.217 E21.61081
G1 X76.197 Y114.225 E21.98361
G1 X80.432 Y110.997 E22.35554
G1 X84.495 Y107.519 E22.7291
G1 X88.326 Y103.846 E23.0998
G1 X91.983 Y99.918 E23.47465
G1 X94.761 Y96.618 E23.77594
G1 X94.961 Y96.392 E23.79702
G1 X95.814 Y95.479 E23.88429
M204 S3000
M205 X10 Y10
G0 F3000 X96.223 Y95.861
M204 S1800
M205 X8 Y8
G1 F2400 X96.776 Y95.348 E23.93697
G1 X97.511 Y94.758 E24.00281
G1 X98.031 Y94.39 E24.0473
G1 X98.846 Y93.884 E24.1143
G1 X99.512 Y93.534 E24.16685
G1 X100.532 Y93.087 E24.24464
G1 X101.243 Y92.834 E24.29735
G1 X102.32 Y92.536 E24.3754
G1 X102.988 Y92.397 E24.42306
G1 X103.553 Y92.317 E24.46291
G1 X104.271 Y92.265 E24.5132
G1 X105.971 Y92.258 E24.63193
G1 X106.62 Y92.295 E24.67734
G1 X107.24 Y92.407 E24.72134
G1 X109.054 Y92.848 E24.85174
G1 X109.973 Y93.164 E24.91961
G1 X110.8 Y93.536 E24.98295
G1 X111.398 Y93.852 E25.03019
G1 X112.267 Y94.386 E25.10143
G1 X112.857 Y94.807 E25.15206
G1 X113.651 Y95.46 E25.22386
G1 X114.158 Y95.937 E25.27248
G1 X114.837 Y96.665 E25.34201
G1 X115.312 Y97.253 E25.39481
G1 X115.952 Y98.174 E25.47315
G1 X116.331 Y98.81 E25.52486
G1 X116.765 Y99.671 E25.5922
G1 X117.077 Y100.433 E25.64971
G1 X117.516 Y101.799 E25.74993
G1 X117.691 Y102.507 E25.80087
G1 X118.825 Y109.011 E26.262
G1 X119.37 Y111.492 E26.43942
G1 X120.766 Y116.757 E26.81987
G1 X122.682 Y122.58 E27.24804
G1 X122.847 Y123.208 E27.29339
G1 X122.933 Y123.852 E27.33877
G1 X122.947 Y124.23 E27.36519
G1 X122.947 Y130.166 E27.7798
G1 X122.907 Y130.814 E27.82514
G1 X122.788 Y131.453 E27.87054
G1 X122.591 Y132.072 E27.91591
G1 X122.32 Y132.662 E27.96126
G1 X121.978 Y133.215 E28.00668
G1 X121.571 Y133.721 E28.05203
G1 X121.105 Y134.174 E28.09743
G1 X120.587 Y134.565 E28.14276
G1 X120.024 Y134.891 E28.1882
G1 X119.426 Y135.144 E28.23355
G1 X118.802 Y135.323 E28.27889
G1 X118.16 Y135.423 E28.32427
G1 X117.6 Y135.446 E28.36342
G1 X111.358 Y135.367 E28.79944
G1 X104.342 Y135.519 E29.28959
G1 X103.74 Y135.497 E29.33167
G1 X101.716 Y135.309 E29.47365
G1 X96.301 Y135.009 E29.85244
G1 X90.941 Y135.016 E30.22682
G1 X85.589 Y135.325 E30.60126
G1 X80.404 Y135.912 E30.96573
G1 X79.81 Y135.946 E31.00728
G1 X72.332 Y135.946 E31.52959
G1 X71.684 Y135.906 E31.57494
G1 X71.045 Y135.787 E31.62034
G1 X70.426 Y135.59 E31.66571
G1 X69.836 Y135.319 E31.71106
G1 X69.283 Y134.977 E31.75647
G1 X68.777 Y134.57 E31.80183
G1 X68.324 Y134.104 E31.84722
G1 X67.933 Y133.586 E31.89255
G1 X67.607 Y133.023 E31.93799
G1 X67.354 Y132.425 E31.98335
G1 X67.175 Y131.801 E32.02869
G1 X67.075 Y131.159 E32.07407
G1 X67.052 Y130.665 E32.10861
G1 X67.053 Y123.73 E32.593
G1 X67.093 Y123.082 E32.63834
G1 X67.212 Y122.443 E32.68374
G1 X67.409 Y121.824 E32.72911
G1 X67.681 Y121.234 E32.77449
G1 X68.023 Y120.682 E32.81985
G1 X68.43 Y120.175 E32.86526
G1 X68.896 Y119.723 E32.9106
G1 X69.567 Y119.233 E32.96863
G1 X72.073 Y117.692 E33.17411
G1 X76.532 Y114.674 E33.55019
G1 X80.798 Y111.422 E33.92486
G1 X84.86 Y107.945 E34.29832
G1 X88.72 Y104.245 E34.67178
G1 X92.396 Y100.295 E35.04866
G1 X95.189 Y96.978 E35.35153
G1 X95.37 Y96.774 E35.37058
G1 X96.223 Y95.861 E35.45785
M204 S3000
M205 X10 Y10
G1 F2400 E29.45785
G0 F3000 X101.019 Y97.936
G0 X101.824 Y99.231
G0 X100.794 Y104.576
G0 X100.84 Y105.774
G0 X101.073 Y106.595
G0 X101.469 Y107.371
G0 X102.03 Y108.07
G0 X102.701 Y108.63
G0 X103.484 Y109.049
G0 X104.31 Y109.297
G0 X105.152 Y109.378
G0 X106.338 Y109.214
G0 X107.136 Y108.904
G0 X107.876 Y108.427
G0 X108.515 Y107.801
G0 X109.015 Y107.059
G0 X109.348 Y106.246
G0 X109.508 Y105.424
G0 X109.462 Y104.226
G0 X109.229 Y103.405
G0 X107.888 Y100.934
M204 S1800
M205 X8 Y8
;TYPE:WALL-INNER
G1 F2400 E35.45785
G1 F1800 X107.546 Y100.729 E35.4857
G1 X107.504 Y99.734 E35.55526
G1 X107.493 Y99.464 E35.57414
G1 X107.487 Y99.346 E35.58239
G1 X107.736 Y99.453 E35.59202
G1 X107.977 Y99.576 E35.6063
G1 X108.125 Y99.651 E35.61789
G1 X108.444 Y99.841 E35.64383
G1 X108.802 Y100.088 E35.67421
G1 X109.125 Y100.346 E35.70308
G1 X109.428 Y100.623 E35.73175
G1 X109.734 Y100.944 E35.76273
G1 X109.982 Y101.243 E35.78986
G1 X110.221 Y101.571 E35.81821
G1 X110.453 Y101.945 E35.84895
G1 X110.649 Y102.309 E35.87782
G1 X110.807 Y102.662 E35.90484
G1 X110.954 Y103.058 E35.93434
G1 X111.069 Y103.444 E35.96247
G1 X111.16 Y103.843 E35.99106
G1 X111.22 Y104.217 E36.01751
G1 X111.256 Y104.582 E36.04313
G1 X111.27 Y105.011 E36.07311
G1 X111.261 Y105.327 E36.09519
G1 X111.232 Y105.693 E36.12083
G1 X111.175 Y106.077 E36.14795
G1 X111.087 Y106.489 E36.17738
G1 X110.985 Y106.85 E36.20358
G1 X110.858 Y107.21 E36.23024
G1 X110.691 Y107.598 E36.25974
G1 X110.506 Y107.963 E36.28833
G1 X110.315 Y108.284 E36.31442
G1 X110.055 Y108.661 E36.3464
G1 X109.805 Y108.974 E36.37438
G1 X109.528 Y109.277 E36.40306
G1 X109.21 Y109.58 E36.43374
G1 X108.91 Y109.83 E36.46101
G1 X108.578 Y110.07 E36.48962
G1 X108.191 Y110.311 E36.52147
G1 X107.866 Y110.485 E36.54722
G1 X107.469 Y110.664 E36.57763
G1 X107.092 Y110.803 E36.6057
G1 X106.723 Y110.914 E36.63261
G1 X106.303 Y111.011 E36.66272
G1 X105.929 Y111.071 E36.68918
G1 X105.575 Y111.104 E36.71401
G1 X105.142 Y111.119 E36.74427
G1 X104.827 Y111.11 E36.76628
G1 X104.455 Y111.08 E36.79235
G1 X104.057 Y111.02 E36.82046
G1 X103.663 Y110.937 E36.84859
G1 X103.3 Y110.834 E36.87494
G1 X102.924 Y110.701 E36.9028
G1 X102.566 Y110.547 E36.93002
G1 X102.177 Y110.349 E36.96051
G1 X101.848 Y110.153 E36.98725
G1 X101.492 Y109.907 E37.01748
G1 X101.19 Y109.667 E37.04442
G1 X100.874 Y109.378 E37.07433
G1 X100.576 Y109.064 E37.10457
G1 X100.313 Y108.748 E37.13328
G1 X100.082 Y108.429 E37.16079
G1 X99.842 Y108.043 E37.19254
G1 X99.653 Y107.691 E37.22044
G1 X99.495 Y107.337 E37.24752
G1 X99.347 Y106.937 E37.27731
G1 X99.236 Y106.566 E37.30436
G1 X99.14 Y106.149 E37.33425
G1 X99.082 Y105.782 E37.3602
G1 X99.046 Y105.414 E37.38602
G1 X99.032 Y104.984 E37.41607
G1 X99.041 Y104.665 E37.43836
G1 X99.071 Y104.3 E37.46394
G1 X99.13 Y103.913 E37.49129
G1 X99.216 Y103.505 E37.52041
G1 X99.317 Y103.149 E37.54626
G1 X99.444 Y102.79 E37.57285
G1 X99.611 Y102.402 E37.60236
G1 X99.796 Y102.037 E37.63094
G1 X99.987 Y101.716 E37.65703
G1 X100.247 Y101.339 E37.68902
G1 X100.497 Y101.026 E37.717
G1 X100.774 Y100.723 E37.74567
G1 X101.087 Y100.425 E37.77586
G1 X101.401 Y100.164 E37.80437
G1 X101.724 Y99.93 E37.83223
G1 X102.111 Y99.689 E37.86408
G1 X102.293 Y99.591 E37.87851
G1 X102.44 Y99.512 E37.89017
G1 X102.817 Y99.343 E37.91903
G1 X102.81 Y99.526 E37.91965
G1 X102.803 Y99.692 E37.92954
G1 X102.758 Y100.731 E38.00218
G1 X102.502 Y100.877 E38.02276
G1 X102.096 Y101.169 E38.05769
G1 X101.722 Y101.501 E38.09262
G1 X101.386 Y101.866 E38.12727
G1 X101.085 Y102.263 E38.16207
G1 X100.829 Y102.69 E38.19685
G1 X100.618 Y103.139 E38.2315
G1 X100.456 Y103.601 E38.26569
G1 X100.342 Y104.063 E38.29893
G1 X100.274 Y104.526 E38.33161
G1 X100.251 Y104.994 E38.36434
G1 X100.268 Y105.41 E38.39342
G1 X100.329 Y105.877 E38.42632
G1 X100.436 Y106.331 E38.4589
G1 X100.587 Y106.781 E38.49205
G1 X100.783 Y107.221 E38.52569
G1 X101.028 Y107.649 E38.56014
G1 X101.32 Y108.055 E38.59507
G1 X101.652 Y108.429 E38.63
G1 X102.017 Y108.765 E38.66465
G1 X102.414 Y109.066 E38.69945
G1 X102.841 Y109.322 E38.73422
G1 X103.29 Y109.533 E38.76887
G1 X103.751 Y109.695 E38.803
G1 X104.211 Y109.809 E38.8361
G1 X104.683 Y109.879 E38.86943
G1 X105.151 Y109.898 E38.90215
G1 X105.56 Y109.883 E38.93073
G1 X106.028 Y109.822 E38.9637
G1 X106.482 Y109.715 E38.99628
G1 X106.932 Y109.564 E39.02943
G1 X107.372 Y109.368 E39.06307
G1 X107.8 Y109.123 E39.09752
G1 X108.206 Y108.831 E39.13245
G1 X108.58 Y108.499 E39.16738
G1 X108.916 Y108.134 E39.20203
G1 X109.217 Y107.737 E39.23683
G1 X109.473 Y107.31 E39.2716
G1 X109.684 Y106.861 E39.30625
G1 X109.846 Y106.399 E39.34045
G1 X109.96 Y105.937 E39.37369
G1 X110.028 Y105.474 E39.40637
G1 X110.051 Y105.003 E39.43931
G1 X110.034 Y104.59 E39.46818
G1 X109.973 Y104.123 E39.50107
G1 X109.866 Y103.669 E39.53365
G1 X109.715 Y103.219 E39.56681
G1 X109.519 Y102.779 E39.60045
G1 X109.274 Y102.351 E39.6349
G1 X108.982 Y101.945 E39.66983
G1 X108.65 Y101.571 E39.70476
G1 X108.285 Y101.235 E39.73941
G1 X107.888 Y100.934 E39.7742
M204 S3000
M205 X10 Y10
G0 F3000 X109.229 Y103.405
G0 X109.462 Y104.226
G0 X109.508 Y105.424
G0 X109.348 Y106.246
G0 X109.015 Y107.059
G0 X108.515 Y107.801
G0 X107.876 Y108.427
G0 X107.136 Y108.904
G0 X106.338 Y109.214
G0 X105.152 Y109.378
G0 X104.31 Y109.297
G0 X103.484 Y109.049
G0 X102.701 Y108.63
G0 X102.03 Y108.07
G0 X101.469 Y107.371
G0 X101.073 Y106.595
G0 X100.84 Y105.774
G0 X100.794 Y104.576
G0 X100.938 Y103.837
G0 X101.466 Y102.526
G0 X101.55 Y102.577
M204 S1800
M205 X8 Y8
G1 F1800 X101.324 Y102.954 E39.80491
G1 X101.137 Y103.352 E39.83562
G1 X100.993 Y103.761 E39.86591
G1 X100.892 Y104.171 E39.8954
G1 X100.832 Y104.58 E39.92427
G1 X100.812 Y104.996 E39.95336
G1 X100.827 Y105.362 E39.97895
G1 X100.881 Y105.777 E40.00818
G1 X100.975 Y106.178 E40.03695
G1 X101.109 Y106.577 E40.06634
G1 X101.283 Y106.967 E40.09617
G1 X101.5 Y107.346 E40.12668
G1 X101.758 Y107.705 E40.15755
G1 X102.052 Y108.036 E40.18848
G1 X102.377 Y108.335 E40.21932
G1 X102.728 Y108.601 E40.25008
G1 X103.105 Y108.827 E40.28078
G1 X103.503 Y109.014 E40.3115
G1 X103.912 Y109.158 E40.34178
G1 X104.32 Y109.259 E40.37114
G1 X104.736 Y109.321 E40.40052
G1 X105.152 Y109.338 E40.4296
G1 X105.513 Y109.324 E40.45483
G1 X105.928 Y109.27 E40.48406
G1 X106.329 Y109.176 E40.51283
G1 X106.728 Y109.042 E40.54223
G1 X107.118 Y108.868 E40.57206
G1 X107.497 Y108.651 E40.60256
G1 X107.856 Y108.393 E40.63344
G1 X108.187 Y108.099 E40.66436
G1 X108.486 Y107.774 E40.69521
G1 X108.752 Y107.423 E40.72597
G1 X108.978 Y107.046 E40.75667
G1 X109.165 Y106.648 E40.78738
G1 X109.309 Y106.239 E40.81767
G1 X109.41 Y105.829 E40.84716
G1 X109.47 Y105.42 E40.87603
G1 X109.49 Y105.001 E40.90533
G1 X109.475 Y104.638 E40.93071
G1 X109.421 Y104.223 E40.95994
G1 X109.327 Y103.822 E40.98871
G1 X109.193 Y103.423 E41.0181
