;FLAVOR:Marlin
;TIME:4219
;Filament used: 5.02088m
;Layer height: 0.2
;Generated with Cura_SteamEngine 3.6.0
M140 S60
M105
M190 S60
M104 S200
M105
M109 S200
M82 ;absolute extrusion mode
G21 ;metric values
G90 ;absolute positioning
M82 ;set extruder to absolute mode
M107 ;start with the fan off
G28 X0 Y0 ;move X/Y to min endstops
G28 Z0 ;move Z to min endstops
G1 Z15.0 F300 ;move the platform down 15mm
G92 E0 ;zero the extruded length
G1 F200 E3 ;extrude 3mm of feed stock
G92 E0 ;zero the extruded length again
G1 F300
M117 Printing...
G5
G92 E0
G1 F2700 E-0.5
;LAYER_COUNT:25
;LAYER:0
M106 S255
M204 S3500
M205 X10 Y10
G0 F9000 X52.482 Y48.488 Z0.3
M204 S2000
M205 X8 Y8
;TYPE:SKIRT
G1 F2700 E0
G1 F2400 X53.015 Y48.011 E0.04996
G1 X53.598 Y47.597 E0.0999
G1 X54.223 Y47.25 E0.14983
G1 X54.884 Y46.975 E0.19984
G1 X55.571 Y46.776 E0.24979
G1 X56.275 Y46.654 E0.2997
G1 X56.989 Y46.612 E0.34966
G1 X57.704 Y46.65 E0.39967
G1 X58.154 Y46.715 E0.43142
G1 X61.755 Y47.37 E0.68707
G1 X67.027 Y48.078 E1.0586
G1 X72.322 Y48.487 E1.42954
G1 X76.945 Y48.6 E1.75254
G1 X135.791 Y48.56 E5.86271
G1 X141.09 Y48.26 E6.23342
G1 X146.346 Y47.663 E6.60289
G1 X151.905 Y46.707 E6.99687
G1 X152.615 Y46.625 E7.04679
G1 X153.331 Y46.623 E7.0968
G1 X154.042 Y46.701 E7.14676
G1 X154.74 Y46.858 E7.19673
G1 X155.416 Y47.091 E7.24667
G1 X156.061 Y47.399 E7.29659
G1 X156.669 Y47.777 E7.3466
G1 X157.23 Y48.22 E7.39652
G1 X157.51 Y48.483 E7.42336
G1 X161.511 Y52.474 E7.81807
G1 X161.988 Y53.006 E7.86798
G1 X162.403 Y53.589 E7.91796
G1 X162.751 Y54.214 E7.96793
G1 X163.026 Y54.874 E8.01787
G1 X163.226 Y55.561 E8.06784
G1 X163.348 Y56.266 E8.11782
G1 X163.391 Y56.98 E8.16778
G1 X163.354 Y57.694 E8.21771
G1 X163.303 Y58.065 E8.24387
G1 X162.234 Y64.43 E8.69467
G1 X161.68 Y69.663 E9.06222
G1 X161.421 Y74.97 E9.43333
G1 X161.4 Y133.078 E13.49196
G1 X161.552 Y138.437 E13.86642
G1 X162.001 Y143.718 E14.23661
G1 X162.754 Y149.003 E14.60947
G1 X163.278 Y151.819 E14.80954
G1 X163.369 Y152.528 E14.85946
G1 X163.381 Y153.243 E14.90941
G1 X163.313 Y153.955 E14.95937
G1 X163.166 Y154.655 E15.00933
G1 X162.941 Y155.334 E15.05929
G1 X162.642 Y155.984 E15.10926
G1 X162.273 Y156.597 E15.15924
G1 X161.837 Y157.164 E15.20919
G1 X161.517 Y157.51 E15.24211
G1 X157.528 Y161.509 E15.63663
G1 X156.996 Y161.986 E15.68654
G1 X156.413 Y162.401 E15.73652
G1 X155.788 Y162.749 E15.78648
G1 X155.128 Y163.024 E15.83642
G1 X154.441 Y163.224 E15.8864
G1 X153.736 Y163.346 E15.93637
G1 X153.022 Y163.389 E15.98633
G1 X152.308 Y163.352 E16.03627
G1 X151.853 Y163.286 E16.06838
G1 X148.249 Y162.631 E16.32423
G1 X142.973 Y161.922 E16.69606
G1 X137.678 Y161.513 E17.06699
G1 X133.055 Y161.4 E17.38999
G1 X74.209 Y161.44 E21.50016
G1 X68.91 Y161.74 E21.87087
G1 X63.654 Y162.337 E22.24035
G1 X58.095 Y163.293 E22.63432
G1 X57.385 Y163.375 E22.68424
G1 X56.669 Y163.377 E22.73425
G1 X55.958 Y163.299 E22.78421
G1 X55.26 Y163.142 E22.83418
G1 X54.584 Y162.909 E22.88412
G1 X53.939 Y162.601 E22.93405
G1 X53.331 Y162.223 E22.98405
G1 X52.77 Y161.78 E23.03398
G1 X52.491 Y161.518 E23.06071
G1 X48.493 Y157.531 E23.45508
G1 X48.015 Y156.998 E23.50509
G1 X47.6 Y156.416 E23.55501
G1 X47.253 Y155.79 E23.60501
G1 X46.977 Y155.13 E23.65497
G1 X46.777 Y154.444 E23.70488
G1 X46.655 Y153.739 E23.75486
G1 X46.612 Y153.025 E23.80482
G1 X46.649 Y152.311 E23.85475
G1 X46.7 Y151.942 E23.88077
G1 X47.765 Y145.58 E24.33132
G1 X48.32 Y140.337 E24.69957
G1 X48.579 Y135.03 E25.07068
G1 X48.6 Y76.922 E29.12931
G1 X48.448 Y71.563 E29.50377
G1 X47.999 Y66.282 E29.87396
G1 X47.246 Y60.997 E30.24682
G1 X46.722 Y58.181 E30.44688
G1 X46.631 Y57.472 E30.49681
G1 X46.619 Y56.757 E30.54676
G1 X46.687 Y56.045 E30.59672
G1 X46.834 Y55.345 E30.64667
G1 X47.059 Y54.666 E30.69664
G1 X47.358 Y54.016 E30.74661
G1 X47.727 Y53.403 E30.79658
G1 X48.163 Y52.836 E30.84654
G1 X48.487 Y52.486 E30.87985
G1 X52.482 Y48.488 E31.27462
M204 S3500
M205 X10 Y10
G0 F9000 X52.878 Y48.884
M204 S2000
M205 X8 Y8
G1 F2400 X53.388 Y48.43 E31.32231
G1 X53.948 Y48.038 E31.37005
G1 X54.55 Y47.715 E31.41777
G1 X55.186 Y47.464 E31.46553
G1 X55.846 Y47.289 E31.51322
G1 X56.522 Y47.192 E31.56092
G1 X57.205 Y47.175 E31.60864
G1 X58.053 Y47.266 E31.66821
G1 X61.662 Y47.922 E31.92441
G1 X66.964 Y48.634 E32.29806
G1 X72.304 Y49.047 E32.67216
G1 X76.931 Y49.16 E32.99543
G1 X135.806 Y49.12 E37.10763
G1 X141.132 Y48.818 E37.48023
G1 X146.435 Y48.216 E37.85301
G1 X152 Y47.259 E38.24741
G1 X152.679 Y47.182 E38.29514
G1 X153.362 Y47.186 E38.34284
G1 X154.04 Y47.269 E38.39055
G1 X154.704 Y47.431 E38.43829
G1 X155.344 Y47.67 E38.48601
G1 X155.952 Y47.981 E38.53371
G1 X156.52 Y48.361 E38.58144
G1 X157.114 Y48.879 E38.63649
G1 X161.115 Y52.87 E39.0312
G1 X161.57 Y53.38 E39.07894
G1 X161.962 Y53.94 E39.12668
G1 X162.286 Y54.541 E39.17437
G1 X162.537 Y55.177 E39.22213
G1 X162.713 Y55.837 E39.26984
G1 X162.81 Y56.513 E39.31754
G1 X162.828 Y57.196 E39.36526
G1 X162.75 Y57.972 E39.41973
G1 X161.682 Y64.328 E39.8699
G1 X161.122 Y69.629 E40.24222
G1 X160.861 Y74.964 E40.61529
G1 X160.84 Y133.059 E44.67301
G1 X160.993 Y138.481 E45.05187
G1 X161.443 Y143.775 E45.42297
G1 X162.204 Y149.111 E45.79944
G1 X162.727 Y151.921 E45.99908
G1 X162.813 Y152.599 E46.04681
G1 X162.819 Y153.282 E46.09452
G1 X162.745 Y153.961 E46.14223
G1 X162.592 Y154.627 E46.18996
G1 X162.362 Y155.271 E46.23772
G1 X162.059 Y155.883 E46.28542
G1 X161.686 Y156.456 E46.33317
G1 X161.121 Y157.114 E46.39375
G1 X157.132 Y161.113 E46.78827
G1 X156.622 Y161.568 E46.836
G1 X156.062 Y161.96 E46.88375
G1 X155.461 Y162.284 E46.93144
G1 X154.825 Y162.535 E46.97919
G1 X154.165 Y162.711 E47.0269
G1 X153.489 Y162.808 E47.0746
G1 X152.806 Y162.826 E47.12233
G1 X151.953 Y162.735 E47.18224
G1 X148.338 Y162.078 E47.43887
G1 X143.036 Y161.366 E47.81252
G1 X137.696 Y160.953 E48.18662
G1 X133.069 Y160.84 E48.50989
G1 X74.194 Y160.88 E52.62209
G1 X68.868 Y161.182 E52.99469
G1 X63.565 Y161.784 E53.36746
G1 X58 Y162.741 E53.76186
G1 X57.321 Y162.818 E53.80959
G1 X56.638 Y162.814 E53.8573
G1 X55.96 Y162.731 E53.90501
G1 X55.296 Y162.569 E53.95275
G1 X54.656 Y162.33 E54.00046
G1 X54.048 Y162.019 E54.04816
G1 X53.48 Y161.639 E54.0959
G1 X52.886 Y161.121 E54.15094
G1 X48.888 Y157.134 E54.54531
G1 X48.433 Y156.624 E54.59305
G1 X48.041 Y156.065 E54.64074
G1 X47.717 Y155.463 E54.68849
G1 X47.466 Y154.828 E54.73618
G1 X47.29 Y154.168 E54.78389
G1 X47.193 Y153.491 E54.83166
G1 X47.175 Y152.808 E54.87938
G1 X47.252 Y152.035 E54.93364
G1 X48.318 Y145.666 E55.38468
G1 X48.878 Y140.371 E55.75658
G1 X49.139 Y135.036 E56.12965
G1 X49.16 Y76.941 E60.18737
G1 X49.007 Y71.519 E60.56623
G1 X48.557 Y66.225 E60.93733
G1 X47.796 Y60.889 E61.3138
G1 X47.273 Y58.079 E61.51344
G1 X47.187 Y57.401 E61.56117
G1 X47.181 Y56.718 E61.60888
G1 X47.255 Y56.039 E61.65659
G1 X47.408 Y55.373 E61.70432
G1 X47.638 Y54.729 E61.75208
G1 X47.941 Y54.117 E61.79978
G1 X48.314 Y53.544 E61.84753
G1 X48.883 Y52.882 E61.9085
G1 X52.878 Y48.884 E62.30327
M204 S3500
M205 X10 Y10
G0 F9000 X53.274 Y49.28
M204 S2000
M205 X8 Y8
G1 F2400 X53.761 Y48.849 E62.34869
G1 X54.296 Y48.482 E62.39401
G1 X54.873 Y48.183 E62.4394
G1 X55.482 Y47.958 E62.48474
G1 X56.115 Y47.808 E62.53018
G1 X56.76 Y47.738 E62.5755
G1 X57.41 Y47.747 E62.6209
G1 X57.953 Y47.817 E62.65914
G1 X61.575 Y48.475 E62.91627
G1 X66.916 Y49.193 E63.29267
G1 X72.266 Y49.606 E63.66746
G1 X76.919 Y49.72 E63.99255
G1 X135.819 Y49.68 E68.1065
G1 X141.193 Y49.376 E68.48245
G1 X146.488 Y48.775 E68.85466
G1 X152.095 Y47.81 E69.25205
G1 X152.741 Y47.74 E69.29743
G1 X153.39 Y47.749 E69.34277
G1 X154.034 Y47.838 E69.38818
G1 X154.661 Y48.005 E69.4335
G1 X155.264 Y48.249 E69.47893
G1 X155.832 Y48.564 E69.5243
G1 X156.357 Y48.947 E69.56969
G1 X156.719 Y49.276 E69.60385
G1 X160.72 Y53.267 E69.99857
G1 X161.151 Y53.753 E70.04394
G1 X161.519 Y54.288 E70.0893
G1 X161.818 Y54.865 E70.13469
G1 X162.044 Y55.474 E70.18006
G1 X162.194 Y56.106 E70.22543
G1 X162.265 Y56.752 E70.27082
G1 X162.256 Y57.401 E70.31615
G1 X162.198 Y57.88 E70.34985
G1 X161.127 Y64.258 E70.80157
G1 X160.564 Y69.58 E71.17537
G1 X160.301 Y74.957 E71.55138
G1 X160.28 Y133.075 E75.61071
G1 X160.434 Y138.51 E75.99047
G1 X160.887 Y143.848 E76.36465
G1 X161.647 Y149.178 E76.7407
G1 X162.177 Y152.024 E76.9429
G1 X162.256 Y152.668 E76.98822
G1 X162.256 Y153.318 E77.03362
G1 X162.176 Y153.963 E77.07901
G1 X162.017 Y154.593 E77.1244
G1 X161.782 Y155.198 E77.16973
G1 X161.475 Y155.771 E77.21513
G1 X161.099 Y156.301 E77.26052
G1 X160.724 Y156.719 E77.29974
G1 X156.735 Y160.718 E77.69426
G1 X156.249 Y161.149 E77.73963
G1 X155.714 Y161.517 E77.78499
G1 X155.137 Y161.816 E77.83038
G1 X154.528 Y162.042 E77.87575
G1 X153.896 Y162.192 E77.92112
G1 X153.25 Y162.263 E77.96651
G1 X152.601 Y162.254 E78.01184
G1 X152.053 Y162.184 E78.05043
G1 X148.425 Y161.525 E78.30798
G1 X143.084 Y160.807 E78.68438
G1 X137.734 Y160.394 E79.05917
G1 X133.081 Y160.28 E79.38427
G1 X74.181 Y160.32 E83.49821
G1 X68.807 Y160.624 E83.87417
G1 X63.512 Y161.225 E84.24638
G1 X57.905 Y162.19 E84.64376
G1 X57.259 Y162.26 E84.68915
G1 X56.61 Y162.251 E84.73448
G1 X55.966 Y162.162 E84.77989
G1 X55.339 Y161.995 E84.82521
G1 X54.736 Y161.751 E84.87065
G1 X54.168 Y161.436 E84.91601
G1 X53.643 Y161.053 E84.9614
G1 X53.282 Y160.725 E84.99547
G1 X49.284 Y156.738 E85.38984
G1 X48.853 Y156.252 E85.43521
G1 X48.485 Y155.716 E85.48062
G1 X48.185 Y155.14 E85.52598
G1 X47.959 Y154.531 E85.57136
G1 X47.809 Y153.899 E85.61672
G1 X47.738 Y153.253 E85.66212
G1 X47.747 Y152.603 E85.70752
G1 X47.804 Y152.127 E85.74101
G1 X48.874 Y145.735 E86.19367
G1 X49.436 Y140.42 E86.56698
G1 X49.699 Y135.043 E86.94299
G1 X49.72 Y76.925 E91.00232
G1 X49.566 Y71.49 E91.38208
G1 X49.113 Y66.152 E91.75626
G1 X48.353 Y60.822 E92.13231
G1 X47.823 Y57.976 E92.33451
G1 X47.744 Y57.332 E92.37983
G1 X47.744 Y56.682 E92.42523
G1 X47.824 Y56.037 E92.47062
G1 X47.983 Y55.407 E92.51601
G1 X48.218 Y54.802 E92.56134
G1 X48.525 Y54.229 E92.60674
G1 X48.901 Y53.699 E92.65213
G1 X49.279 Y53.278 E92.69165
G1 X53.274 Y49.28 E93.08641
M204 S3500
M205 X10 Y10
G1 F2700 E92.58641
;MESH:YACS.stl
G0 F9000 X54.676 Y54.384
G0 X56.146 Y55.854
G0 X104.992 Y104.901
M204 S2000
M205 X8 Y8
;TYPE:WALL-INNER
G1 F2700 E93.08641
G1 F1800 X149.579 Y60.33 E97.48982
G1 X148.864 Y58.6 E97.62057
G1 X61.136 Y58.6 E103.74804
G1 X60.421 Y60.33 E103.87879
G1 X104.992 Y104.901 E108.2814
M204 S3500
M205 X10 Y10
G0 F9000 X104.901 Y104.992
M204 S2000
M205 X8 Y8
G1 F1800 X60.33 Y60.421 E109.28769
G1 X58.6 Y61.136 E109.41844
G1 X58.6 Y148.864 E115.54591
G1 X60.33 Y149.579 E115.67666
G1 X104.901 Y104.992 E120.08006
M204 S3500
M205 X10 Y10
G0 F9000 X105.008 Y105.099
M204 S2000
M205 X8 Y8
G1 F1800 X60.421 Y149.67 E121.17698
G1 X61.136 Y151.4 E121.30773
G1 X148.864 Y151.4 E127.43521
G1 X149.579 Y149.67 E127.56595
G1 X105.008 Y105.099 E131.96857
M204 S3500
M205 X10 Y10
G0 F9000 X105.099 Y105.008
M204 S2000
M205 X8 Y8
G1 F1800 X149.67 Y149.579 E132.97485
G1 X151.4 Y148.864 E133.1056
G1 X151.4 Y61.136 E139.23307
G1 X149.67 Y60.421 E139.36382
G1 X105.099 Y105.008 E140.46074
M204 S3500
M205 X10 Y10
G0 F9000 X153.6 Y153.6
M204 S2000
M205 X8 Y8
G1 F1800 X56.4 Y153.6 E147.2498
G1 X56.4 Y56.4 E154.03886
G1 X153.6 Y56.4 E160.82792
G1 X153.6 Y153.6 E167.61698
M204 S3500
M205 X10 Y10
G0 F9000 X105.008 Y105.79
G0 X105.008 Y105.891
M204 S2000
M205 X8 Y8
G1 F1800 X61.081 Y149.802 E171.95519
G1 X61.51 Y150.84 E172.03364
G1 X148.49 Y150.84 E178.10887
G1 X148.919 Y149.802 E178.18732
G1 X105.008 Y105.891 E182.52474
M204 S3500
M205 X10 Y10
G0 F9000 X105.891 Y105.008
M204 S2000
M205 X8 Y8
G1 F1800 X149.802 Y148.919 E186.86216
G1 X150.84 Y148.49 E186.94061
G1 X150.84 Y61.51 E193.01584
G1 X149.802 Y61.081 E193.09429
G1 X105.891 Y105.008 E197.4325
M204 S3500
M205 X10 Y10
G0 F9000 X104.992 Y104.109
M204 S2000
M205 X8 Y8
G1 F1800 X148.919 Y60.198 E201.77071
G1 X148.49 Y59.16 E201.84916
G1 X61.51 Y59.16 E207.92439
G1 X61.081 Y60.198 E208.00284
G1 X104.992 Y104.109 E212.34026
M204 S3500
M205 X10 Y10
G0 F9000 X104.109 Y104.992
M204 S2000
M205 X8 Y8
G1 F1800 X60.198 Y61.081 E216.67768
G1 X59.16 Y61.51 E216.75613
G1 X59.16 Y148.49 E222.83136
G1 X60.198 Y148.919 E222.9098
G1 X104.109 Y104.992 E227.24802
M204 S3500
M205 X10 Y10
G0 F9000 X104.21 Y104.992
G0 X154.09 Y56.09
G0 X154.16 Y56.16
M204 S2000
M205 X8 Y8
G1 F1800 X154.16 Y153.84 E234.0706
G1 X154.972 Y153.84 E234.12732
G1 X153.84 Y154.972 E234.23913
G1 X153.84 Y154.16 E234.29585
G1 X56.16 Y154.16 E241.11843
G1 X56.16 Y154.972 E241.17515
G1 X55.028 Y153.84 E241.28696
G1 X55.84 Y153.84 E241.34368
G1 X55.84 Y56.16 E248.16626
G1 X55.028 Y56.16 E248.22298
G1 X56.16 Y55.028 E248.3348
G1 X56.16 Y55.84 E248.39151
G1 X153.84 Y55.84 E255.2141
G1 X153.84 Y55.028 E255.27081
G1 X154.972 Y56.16 E255.38263
G1 X154.16 Y56.16 E255.43934
M204 S3500
M205 X10 Y10
G0 F9000 X154.72 Y56.72
M204 S2000
M205 X8 Y8
;TYPE:WALL-OUTER
G1 F1800 X154.72 Y153.28 E262.1837
G1 X155.649 Y153.28 E262.24859
G1 X155.65 Y153.28 E262.24866
G1 X156.324 Y153.28 E262.29573
G1 X155.847 Y153.757 E262.32109
G1 X153.757 Y155.847 E262.52754
G1 X153.28 Y156.324 E262.57465
G1 X153.28 Y155.65 E262.59999
G1 X153.28 Y155.649 E262.60006
G1 X153.28 Y154.72 E262.66495
G1 X56.72 Y154.72 E269.4093
G1 X56.72 Y155.649 E269.47419
G1 X56.72 Y155.65 E269.47426
G1 X56.72 Y156.324 E269.52134
G1 X56.243 Y155.847 E269.5467
G1 X54.153 Y153.757 E269.75314
G1 X53.676 Y153.28 E269.80026
G1 X54.35 Y153.28 E269.8256
G1 X54.351 Y153.28 E269.82567
G1 X55.28 Y153.28 E269.89055
G1 X55.28 Y56.72 E276.63491
G1 X54.351 Y56.72 E276.6998
G1 X54.35 Y56.72 E276.69987
G1 X53.676 Y56.72 E276.74694
G1 X54.153 Y56.243 E276.7723
G1 X56.243 Y54.153 E276.97875
G1 X56.72 Y53.676 E277.02586
G1 X56.72 Y54.35 E277.0512
G1 X56.72 Y54.351 E277.05127
G1 X56.72 Y55.28 E277.11616
G1 X153.28 Y55.28 E283.86051
G1 X153.28 Y54.351 E283.9254
G1 X153.28 Y54.35 E283.92547
G1 X153.28 Y53.676 E283.97255
G1 X153.757 Y54.153 E283.99791
G1 X155.847 Y56.243 E284.20435
G1 X156.324 Y56.72 E284.25147
G1 X155.65 Y56.72 E284.27681
G1 X155.649 Y56.72 E284.27688
G1 X154.72 Y56.72 E284.34176
M204 S3500
M205 X10 Y10
G0 F9000 X154.72 Y56.92
G0 X154.06 Y56.92
G0 X150.605 Y60.258
G0 X106.216 Y104.542
G0 X106.683 Y105.008
M204 S2000
M205 X8 Y8
G1 F1800 X149.776 Y148.101 E288.59838
G1 X149.934 Y148.259 E288.61399
G1 X150.28 Y148.116 E288.64014
G1 X150.28 Y147.892 E288.65339
G1 X150.28 Y62.108 E294.64508
G1 X150.28 Y61.884 E294.66073
G1 X149.934 Y61.741 E294.68688
G1 X149.776 Y61.899 E294.70009
G1 X106.683 Y105.008 E298.9575
M204 S3500
M205 X10 Y10
G0 F9000 X106.824 Y105.149
G0 X106.357 Y105.615
G0 X105.474 Y106.216
G0 X105.008 Y106.683
M204 S2000
M205 X8 Y8
G1 F1800 X61.899 Y149.776 E303.21491
G1 X61.741 Y149.934 E303.23052
G1 X61.884 Y150.28 E303.25667
G1 X62.108 Y150.28 E303.26992
G1 X147.892 Y150.28 E309.26161
G1 X148.116 Y150.28 E309.27726
G1 X148.259 Y149.934 E309.3034
G1 X148.101 Y149.776 E309.31661
G1 X105.008 Y106.683 E313.57323
M204 S3500
M205 X10 Y10
G0 F9000 X104.867 Y106.824
G0 X104.401 Y106.357
G0 X103.784 Y105.458
G0 X103.317 Y104.992
M204 S2000
M205 X8 Y8
G1 F1800 X60.224 Y61.899 E317.82985
G1 X60.066 Y61.741 E317.84546
G1 X59.72 Y61.884 E317.87161
G1 X59.72 Y62.108 E317.88486
G1 X59.72 Y147.892 E323.87655
G1 X59.72 Y148.116 E323.8922
G1 X60.066 Y148.259 E323.91835
G1 X60.224 Y148.101 E323.93156
G1 X103.317 Y104.992 E328.18897
M204 S3500
M205 X10 Y10
G0 F9000 X103.176 Y104.851
G0 X103.643 Y104.385
G0 X104.526 Y103.784
G0 X104.992 Y103.317
M204 S2000
M205 X8 Y8
G1 F1800 X148.101 Y60.224 E332.44638
G1 X148.259 Y60.066 E332.46199
G1 X148.116 Y59.72 E332.48814
G1 X147.892 Y59.72 E332.50139
G1 X62.108 Y59.72 E338.49308
G1 X61.884 Y59.72 E338.50873
G1 X61.741 Y60.066 E338.53488
G1 X61.899 Y60.224 E338.54808
G1 X104.992 Y103.317 E342.8047
M204 S3500
M205 X10 Y10
G0 F9000 X105.133 Y103.176
G0 X105.599 Y103.643
G0 X150.027 Y59.973
M204 S2000
M205 X8 Y8
;TYPE:SKIN
G1 F1800 X149.232 Y58.05 E342.95004
G1 X60.768 Y58.05 E349.12893
G1 X59.973 Y59.973 E349.27427
G1 X58.05 Y60.768 E349.41961
G1 X58.05 Y149.232 E355.59849
G1 X59.973 Y150.027 E355.74383
G1 X60.768 Y151.95 E355.88917
G1 X149.232 Y151.95 E362.06805
