;FLAVOR:Marlin
;TIME:3625
;Filament used: 3.72791m
;Layer height: 0.2
;Generated with Cura_SteamEngine 3.4.1
M190 S60
M104 S200
M109 S200
M82 ;absolute extrusion mode
G21 ;metric values
G90 ;absolute positioning
M82 ;set extruder to absolute mode
M107 ;start with the fan off
G28 X0 Y0 ;move X/Y to min endstops
G28 Z0 ;move Z to min endstops
G1 Z15.0 F100 ;move the platform down 15mm
G92 E0 ;zero the extruded length
G1 F200 E3 ;extrude 3mm of feed stock
G92 E0 ;zero the extruded length again
G1 F100
M117 Printing...
G5
G92 E0
G1 F2400 E-6
;LAYER_COUNT:176
;LAYER:0
M106 S255
M204 S3000
M205 X10 Y10
G0 F3000 X86.236 Y82.995 Z0.2
M204 S1800
M205 X8 Y8
;TYPE:SKIRT
G1 F2400 E0
G1 X86.768 Y82.517 E0.0333
G1 X87.35 Y82.102 E0.06659
G1 X87.974 Y81.753 E0.09988
G1 X88.634 Y81.477 E0.13319
G1 X89.321 Y81.276 E0.16652
G1 X90.025 Y81.153 E0.1998
G1 X90.773 Y81.109 E0.23469
G1 X119.228 Y81.11 E1.55967
G1 X119.942 Y81.15 E1.59297
G1 X120.648 Y81.269 E1.62631
G1 X121.335 Y81.467 E1.6596
G1 X121.996 Y81.74 E1.6929
G1 X122.623 Y82.085 E1.72623
G1 X123.207 Y82.497 E1.75951
G1 X123.742 Y82.973 E1.79285
G1 X124.22 Y83.505 E1.82615
G1 X124.635 Y84.087 E1.85944
G1 X124.984 Y84.711 E1.89273
G1 X125.26 Y85.371 E1.92604
G1 X125.461 Y86.058 E1.95937
G1 X125.584 Y86.762 E1.99265
G1 X125.628 Y87.505 E2.02731
G1 X125.637 Y99.079 E2.56624
G1 X125.629 Y99.411 E2.5817
G1 X125.542 Y101.114 E2.66111
G1 X125.403 Y102.149 E2.70973
G1 X125.214 Y103.017 E2.7511
G1 X124.968 Y103.864 E2.79217
G1 X124.64 Y104.756 E2.83642
G1 X124.266 Y105.584 E2.87873
G1 X123.825 Y106.402 E2.922
G1 X123.451 Y107.012 E2.95532
G1 X123.211 Y107.335 E2.97406
G1 X122.401 Y108.359 E3.03485
G1 X121.821 Y108.999 E3.07507
G1 X108.934 Y121.408 E3.90811
G1 X103.269 Y127.031 E4.27978
G1 X102.734 Y127.506 E4.31309
G1 X102.15 Y127.918 E4.34637
G1 X101.523 Y128.262 E4.37967
G1 X100.861 Y128.535 E4.41302
G1 X100.174 Y128.731 E4.44628
G1 X99.468 Y128.85 E4.47962
G1 X98.763 Y128.889 E4.5125
G1 X95.774 Y128.89 E4.65168
G1 X95.06 Y128.85 E4.68498
G1 X94.355 Y128.731 E4.71827
G1 X93.667 Y128.534 E4.7516
G1 X93.006 Y128.261 E4.7849
G1 X92.379 Y127.917 E4.8182
G1 X91.795 Y127.504 E4.8515
G1 X91.247 Y127.015 E4.8857
G1 X86.247 Y122.015 E5.21496
G1 X85.77 Y121.482 E5.24827
G1 X85.356 Y120.899 E5.28156
G1 X85.009 Y120.273 E5.31489
G1 X84.734 Y119.613 E5.34818
G1 X84.535 Y118.926 E5.38149
G1 X84.414 Y118.221 E5.4148
G1 X84.372 Y117.49 E5.44889
G1 X84.373 Y87.509 E6.84493
G1 X84.413 Y86.795 E6.87823
G1 X84.532 Y86.089 E6.91157
G1 X84.73 Y85.402 E6.94486
G1 X85.003 Y84.741 E6.97816
G1 X85.348 Y84.114 E7.01149
G1 X85.76 Y83.53 E7.04476
G1 X86.236 Y82.995 E7.07811
M204 S3000
M205 X10 Y10
G0 F3000 X86.786 Y83.241
M204 S1800
M205 X8 Y8
G1 F2400 X87.312 Y82.805 E7.10992
G1 X87.885 Y82.433 E7.14173
G1 X88.498 Y82.13 E7.17357
G1 X89.142 Y81.902 E7.20539
G1 X89.808 Y81.749 E7.2372
G1 X90.773 Y81.669 E7.28229
G1 X119.228 Y81.67 E8.60728
G1 X119.91 Y81.71 E8.63909
G1 X120.583 Y81.829 E8.67091
G1 X121.237 Y82.026 E8.70272
G1 X121.864 Y82.299 E8.73456
G1 X122.454 Y82.642 E8.76634
G1 X123.001 Y83.052 E8.79817
G1 X123.496 Y83.523 E8.82999
G1 X123.932 Y84.049 E8.8618
G1 X124.304 Y84.622 E8.89361
G1 X124.607 Y85.235 E8.92545
G1 X124.835 Y85.879 E8.95726
G1 X124.988 Y86.545 E8.98908
G1 X125.068 Y87.505 E9.03394
G1 X125.077 Y99.079 E9.57287
G1 X125.069 Y99.382 E9.58699
G1 X124.982 Y101.085 E9.66639
G1 X124.856 Y102.029 E9.71073
G1 X124.667 Y102.897 E9.7521
G1 X124.442 Y103.671 E9.78963
G1 X124.114 Y104.563 E9.83389
G1 X123.774 Y105.318 E9.87244
G1 X123.333 Y106.136 E9.91571
G1 X122.772 Y106.988 E9.96321
G1 X121.962 Y108.012 E10.02401
G1 X121.433 Y108.596 E10.0607
G1 X108.564 Y120.988 E10.89259
G1 X102.875 Y126.634 E11.26581
G1 X102.363 Y127.086 E11.29761
G1 X101.801 Y127.475 E11.32944
G1 X101.198 Y127.796 E11.36124
G1 X100.561 Y128.045 E11.39309
G1 X99.9 Y128.217 E11.4249
G1 X99.224 Y128.311 E11.45668
G1 X98.763 Y128.329 E11.47816
G1 X95.774 Y128.33 E11.61734
G1 X95.092 Y128.29 E11.64915
G1 X94.419 Y128.171 E11.68097
G1 X93.765 Y127.974 E11.71278
G1 X93.138 Y127.702 E11.7446
G1 X92.547 Y127.359 E11.77642
G1 X92.001 Y126.949 E11.80822
G1 X91.642 Y126.62 E11.83089
G1 X86.642 Y121.62 E12.16015
G1 X86.188 Y121.109 E12.19198
G1 X85.797 Y120.549 E12.22378
G1 X85.474 Y119.947 E12.25559
G1 X85.223 Y119.311 E12.28743
G1 X85.049 Y118.651 E12.31921
G1 X84.952 Y117.974 E12.35106
G1 X84.932 Y117.49 E12.37361
G1 X84.933 Y87.509 E13.76966
G1 X84.973 Y86.827 E13.80147
G1 X85.092 Y86.154 E13.83329
G1 X85.289 Y85.5 E13.86509
G1 X85.562 Y84.873 E13.89694
G1 X85.905 Y84.283 E13.92872
G1 X86.315 Y83.736 E13.96055
G1 X86.786 Y83.241 E13.99236
M204 S3000
M205 X10 Y10
G0 F3000 X86.869 Y83.954
M204 S1800
M205 X8 Y8
G1 F2400 X87.335 Y83.501 E14.02263
G1 X87.854 Y83.11 E14.05288
G1 X88.416 Y82.784 E14.08314
G1 X89.014 Y82.531 E14.11337
G1 X89.639 Y82.352 E14.14364
G1 X90.28 Y82.252 E14.17385
G1 X90.773 Y82.229 E14.19683
G1 X119.228 Y82.23 E15.52182
G1 X119.877 Y82.27 E15.55209
G1 X120.515 Y82.389 E15.58232
G1 X121.134 Y82.586 E15.61256
G1 X121.724 Y82.857 E15.6428
G1 X122.277 Y83.199 E15.67307
G1 X122.783 Y83.606 E15.70331
G1 X123.236 Y84.072 E15.73357
G1 X123.627 Y84.591 E15.76383
G1 X123.953 Y85.153 E15.79408
G1 X124.206 Y85.751 E15.82432
G1 X124.385 Y86.376 E15.85459
G1 X124.485 Y87.017 E15.8848
G1 X124.508 Y87.506 E15.90759
G1 X124.517 Y99.08 E16.44653
G1 X124.51 Y99.353 E16.45924
G1 X124.423 Y101.056 E16.53865
G1 X124.309 Y101.91 E16.57876
G1 X124.12 Y102.778 E16.62013
G1 X123.917 Y103.477 E16.65402
G1 X123.589 Y104.369 E16.69828
G1 X123.281 Y105.053 E16.73321
G1 X122.84 Y105.871 E16.77648
G1 X122.333 Y106.641 E16.81941
G1 X121.523 Y107.665 E16.8802
G1 X121.044 Y108.192 E16.91336
G1 X108.214 Y120.546 E17.74272
G1 X102.48 Y126.237 E18.1189
G1 X101.992 Y126.665 E18.14912
G1 X101.455 Y127.03 E18.17936
G1 X100.877 Y127.327 E18.20962
G1 X100.267 Y127.55 E18.23986
G1 X99.634 Y127.696 E18.27011
G1 X98.763 Y127.769 E18.31081
G1 X95.774 Y127.77 E18.44999
G1 X95.125 Y127.73 E18.48027
G1 X94.487 Y127.611 E18.51049
G1 X93.868 Y127.415 E18.54072
G1 X93.277 Y127.143 E18.57101
G1 X92.725 Y126.802 E18.60123
G1 X92.038 Y126.224 E18.64303
G1 X87.038 Y121.224 E18.97229
G1 X86.608 Y120.737 E19.00254
G1 X86.241 Y120.201 E19.03279
G1 X85.942 Y119.624 E19.06305
G1 X85.717 Y119.015 E19.09328
G1 X85.568 Y118.382 E19.12356
G1 X85.492 Y117.49 E19.16525
G1 X85.493 Y87.509 E20.56129
G1 X85.533 Y86.86 E20.59157
G1 X85.652 Y86.222 E20.62179
G1 X85.849 Y85.603 E20.65203
G1 X86.12 Y85.013 E20.68227
G1 X86.462 Y84.46 E20.71254
G1 X86.869 Y83.954 E20.74278
M204 S3000
M205 X10 Y10
G1 F2400 E14.74278
G0 F3000 X90.098 Y88.354
G0 X91.617 Y88.354
G0 X109.641 Y97.037
M204 S1800
M205 X8 Y8
;TYPE:WALL-INNER
G1 F2400 E20.74278
G1 F1500 X108.843 Y97.37 E20.78304
G1 X108.159 Y97.894 E20.82317
G1 X107.632 Y98.582 E20.86352
G1 X107.3 Y99.381 E20.90381
G1 X107.188 Y100.237 E20.94401
G1 X107.3 Y101.094 E20.98425
G1 X107.632 Y101.892 E21.0245
G1 X108.158 Y102.58 E21.06482
G1 X108.843 Y103.105 E21.10501
G1 X109.643 Y103.438 E21.14536
G1 X110.5 Y103.549 E21.1856
G1 X111.357 Y103.438 E21.22584
G1 X112.156 Y103.106 E21.26613
G1 X112.842 Y102.579 E21.30641
G1 X113.369 Y101.893 E21.34669
G1 X113.701 Y101.094 E21.38698
G1 X113.812 Y100.237 E21.42722
G1 X113.701 Y99.382 E21.46736
G1 X113.369 Y98.582 E21.5077
G1 X112.842 Y97.894 E21.54805
G1 X112.155 Y97.369 E21.58831
G1 X111.357 Y97.037 E21.62856
G1 X110.5 Y96.925 E21.6688
G1 X109.641 Y97.037 E21.70914
M204 S3000
M205 X10 Y10
G0 F3000 X108.53 Y98.266
G0 X108.087 Y98.844
G0 X107.93 Y99.224
G0 X102.783 Y116.5
M204 S1800
M205 X8 Y8
G1 F1500 X98.183 Y121.1 E22.01206
G1 X96.343 Y121.1 E22.09773
G1 X92.163 Y116.917 E22.37309
G1 X92.163 Y88.9 E23.67768
G1 X117.837 Y88.9 E24.87317
G1 X117.837 Y99.741 E25.37797
G1 X117.782 Y100.528 E25.41471
G1 X117.625 Y101.263 E25.44971
G1 X117.373 Y101.951 E25.48382
G1 X117.019 Y102.614 E25.51882
G1 X116.582 Y103.211 E25.55327
G1 X116.029 Y103.779 E25.59018
G1 X102.783 Y116.5 E26.44534
M204 S3000
M205 X10 Y10
G0 F3000 X103.175 Y116.9
M204 S1800
M205 X8 Y8
G1 F1500 X98.415 Y121.66 E26.7588
G1 X96.111 Y121.66 E26.86608
G1 X91.603 Y117.149 E27.16304
G1 X91.603 Y88.34 E28.50451
G1 X118.397 Y88.34 E29.75215
G1 X118.397 Y99.766 E30.28419
G1 X118.338 Y100.607 E30.32345
G1 X118.165 Y101.416 E30.36197
G1 X117.885 Y102.181 E30.3999
G1 X117.494 Y102.913 E30.43855
G1 X117.015 Y103.568 E30.47633
G1 X116.417 Y104.183 E30.51627
G1 X103.175 Y116.9 E31.37117
M204 S3000
M205 X10 Y10
G0 F3000 X103.106 Y116.829
G0 X109.764 Y102.988
G0 X109.789 Y102.892
M204 S1800
M205 X8 Y8
G1 F1500 X110.5 Y102.984 E31.40455
G1 X111.211 Y102.892 E31.43794
G1 X111.873 Y102.617 E31.47132
G1 X112.443 Y102.18 E31.50476
G1 X112.88 Y101.61 E31.53821
G1 X113.155 Y100.948 E31.57158
G1 X113.247 Y100.237 E31.60497
G1 X113.155 Y99.528 E31.63826
G1 X112.88 Y98.864 E31.67172
G1 X112.443 Y98.294 E31.70517
G1 X111.873 Y97.858 E31.73858
G1 X111.211 Y97.583 E31.77196
G1 X110.5 Y97.49 E31.80535
G1 X109.788 Y97.583 E31.83879
G1 X109.126 Y97.859 E31.87219
G1 X108.558 Y98.294 E31.9055
G1 X108.121 Y98.864 E31.93894
G1 X107.846 Y99.527 E31.97237
G1 X107.753 Y100.237 E32.00571
G1 X107.846 Y100.948 E32.0391
G1 X108.121 Y101.61 E32.07248
G1 X108.558 Y102.181 E32.10596
G1 X109.126 Y102.616 E32.13927
G1 X109.789 Y102.892 E32.17271
M204 S3000
M205 X10 Y10
G0 F3000 X109.935 Y102.346
M204 S1800
M205 X8 Y8
;TYPE:WALL-OUTER
G1 F1500 X110.5 Y102.419 E32.19924
G1 X111.065 Y102.346 E32.22577
G1 X111.591 Y102.128 E32.25228
G1 X112.044 Y101.781 E32.27885
G1 X112.391 Y101.328 E32.30542
G1 X112.609 Y100.802 E32.33194
G1 X112.682 Y100.237 E32.35846
G1 X112.609 Y99.673 E32.38494
G1 X112.391 Y99.146 E32.4115
G1 X112.044 Y98.694 E32.43803
G1 X111.591 Y98.347 E32.4646
G1 X111.065 Y98.129 E32.49112
G1 X110.5 Y98.055 E32.51765
G1 X109.935 Y98.129 E32.54418
G1 X109.409 Y98.348 E32.57072
G1 X108.957 Y98.694 E32.59722
G1 X108.61 Y99.146 E32.62376
G1 X108.392 Y99.673 E32.65031
G1 X108.318 Y100.237 E32.6768
G1 X108.392 Y100.802 E32.70333
G1 X108.61 Y101.328 E32.72985
G1 X108.957 Y101.781 E32.75642
G1 X109.409 Y102.127 E32.78292
G1 X109.935 Y102.346 E32.80945
M204 S3000
M205 X10 Y10
G0 F3000 X110.133 Y102.371
G0 X110.049 Y103.026
G0 X103.102 Y116.833
G0 X103.567 Y117.3
M204 S1800
M205 X8 Y8
G1 F1500 X98.647 Y122.22 E33.13344
G1 X95.879 Y122.22 E33.26233
G1 X91.043 Y117.381 E33.58089
G1 X91.043 Y87.78 E34.95924
G1 X118.957 Y87.78 E36.25903
G1 X118.957 Y99.791 E36.81831
G1 X118.894 Y100.686 E36.86009
G1 X118.705 Y101.569 E36.90214
G1 X118.396 Y102.414 E36.94403
G1 X117.971 Y103.209 E36.98601
G1 X117.442 Y103.933 E37.02776
G1 X116.805 Y104.587 E37.07027
G1 X103.567 Y117.3 E37.92491
M204 S3000
M205 X10 Y10
G0 F3000 X103.426 Y117.441
G0 X102.961 Y116.974
G0 X102.398 Y116.107
M204 S1800
M205 X8 Y8
;TYPE:SKIN
G1 F1500 X97.955 Y120.55 E38.21749
G1 X96.571 Y120.55 E38.28193
G1 X92.713 Y116.689 E38.53608
G1 X92.713 Y89.45 E39.80445
G1 X117.287 Y89.45 E40.94872
G1 X117.287 Y99.741 E41.42791
G1 X117.238 Y100.445 E41.46077
G1 X117.095 Y101.108 E41.49235
G1 X116.868 Y101.73 E41.52318
G1 X116.552 Y102.322 E41.55443
G1 X116.161 Y102.857 E41.58528
G1 X115.648 Y103.382 E41.61946
G1 X102.398 Y116.107 E42.47489
M204 S3000
M205 X10 Y10
G0 F3000 X109.5 Y103.974
M204 S1800
M205 X8 Y8
G1 F1500 X110.5 Y104.103 E42.52184
G1 X111.5 Y103.974 E42.56879
G1 X112.433 Y103.586 E42.61584
G1 X113.235 Y102.972 E42.66287
G1 X113.849 Y102.17 E42.7099
G1 X114.237 Y101.237 E42.75695
G1 X114.366 Y100.237 E42.8039
G1 X114.237 Y99.239 E42.85076
G1 X113.85 Y98.305 E42.89784
G1 X113.235 Y97.501 E42.94497
G1 X112.432 Y96.888 E42.99201
G1 X111.5 Y96.501 E43.039
G1 X110.5 Y96.371 E43.08596
G1 X109.497 Y96.501 E43.13305
G1 X108.566 Y96.89 E43.18004
G1 X107.766 Y97.501 E43.22691
G1 X107.151 Y98.305 E43.27405
G1 X106.764 Y99.238 E43.32108
G1 X106.634 Y100.237 E43.36799
G1 X106.764 Y101.237 E43.41494
G1 X107.151 Y102.169 E43.46194
G1 X107.765 Y102.973 E43.50904
G1 X108.566 Y103.585 E43.55598
G1 X109.5 Y103.974 E43.60309
M204 S3000
M205 X10 Y10
G0 F3000 X111.893 Y102.651
G0 X112.471 Y102.208
G0 X112.914 Y101.63
G0 X117.026 Y90.1
M204 S1800
M205 X8 Y8
G1 F1500 X116.636 Y89.709 E43.62881
M204 S3000
M205 X10 Y10
G0 F3000 X115.844 Y89.709
M204 S1800
M205 X8 Y8
G1 F1500 X117.026 Y90.892 E43.70668
G1 X117.096 Y90.962
M204 S3000
M205 X10 Y10
G0 F3000 X117.026 Y91.684
M204 S1800
M205 X8 Y8
G1 F1500 X115.052 Y89.709 E43.8367
G1 X114.982 Y89.639
M204 S3000
M205 X10 Y10
G0 F3000 X114.26 Y89.709
M204 S1800
M205 X8 Y8
G1 F1500 X117.026 Y92.476 E44.01888
G1 X117.096 Y92.546
M204 S3000
M205 X10 Y10
G0 F3000 X117.026 Y93.268
M204 S1800
M205 X8 Y8
G1 F1500 X113.468 Y89.709 E44.25321
G1 X113.398 Y89.639
M204 S3000
M205 X10 Y10
G0 F3000 X112.676 Y89.709
M204 S1800
M205 X8 Y8
G1 F1500 X117.026 Y94.06 E44.5397
G1 X117.096 Y94.13
M204 S3000
M205 X10 Y10
G0 F3000 X117.026 Y94.852
M204 S1800
M205 X8 Y8
G1 F1500 X111.884 Y89.709 E44.87834
G1 X111.814 Y89.639
M204 S3000
M205 X10 Y10
G0 F3000 X111.092 Y89.709
M204 S1800
M205 X8 Y8
G1 F1500 X117.026 Y95.643 E45.26911
G1 X117.096 Y95.713
M204 S3000
M205 X10 Y10
G0 F3000 X117.026 Y96.435
M204 S1800
M205 X8 Y8
G1 F1500 X110.3 Y89.709 E45.71203
G1 X110.23 Y89.639
M204 S3000
M205 X10 Y10
G0 F3000 X109.508 Y89.709
M204 S1800
M205 X8 Y8
G1 F1500 X117.026 Y97.227 E46.2071
G1 X117.096 Y97.297
M204 S3000
M205 X10 Y10
G0 F3000 X117.026 Y98.019
M204 S1800
M205 X8 Y8
G1 F1500 X108.716 Y89.709 E46.75433
G1 X108.646 Y89.639
M204 S3000
M205 X10 Y10
G0 F3000 X107.925 Y89.709
M204 S1800
M205 X8 Y8
G1 F1500 X117.026 Y98.811 E47.35368
G1 X117.096 Y98.881
M204 S3000
M205 X10 Y10
G0 F3000 X117.026 Y99.603
M204 S1800
M205 X8 Y8
G1 F1500 X107.133 Y89.709 E48.00518
G1 X107.063 Y89.639
M204 S3000
M205 X10 Y10
G0 F3000 X106.341 Y89.709
M204 S1800
M205 X8 Y8
G1 F1500 X116.984 Y100.353 E48.70607
G1 X117.054 Y100.423
M204 S3000
M205 X10 Y10
G0 F3000 X116.849 Y101.01
M204 S1800
M205 X8 Y8
G1 F1500 X114.122 Y98.283 E48.88565
G1 X114.052 Y98.213
M204 S3000
M205 X10 Y10
G0 F3000 X114.529 Y99.482
M204 S1800
M205 X8 Y8
G1 F1500 X116.64 Y101.593 E49.02466
G1 X116.71 Y101.663
M204 S3000
M205 X10 Y10
G0 F3000 X116.368 Y102.113
M204 S1800
M205 X8 Y8
G1 F1500 X114.611 Y100.356 E49.14036
G1 X114.541 Y100.286
M204 S3000
M205 X10 Y10
G0 F3000 X114.52 Y101.057
M204 S1800
M205 X8 Y8
G1 F1500 X116.042 Y102.579 E49.24059
G1 X116.112 Y102.649
M204 S3000
M205 X10 Y10
G0 F3000 X115.664 Y102.992
M204 S1800
M205 X8 Y8
G1 F1500 X114.339 Y101.667 E49.32784
G1 X114.269 Y101.597
M204 S3000
M205 X10 Y10
G0 F3000 X114.106 Y102.227
M204 S1800
M205 X8 Y8
G1 F1500 X115.266 Y103.386 E49.4042
G1 X115.336 Y103.456
M204 S3000
M205 X10 Y10
G0 F3000 X114.862 Y103.774
M204 S1800
M205 X8 Y8
G1 F1500 X113.777 Y102.69 E49.47562
G1 X113.707 Y102.62
M204 S3000
M205 X10 Y10
G0 F3000 X113.434 Y103.138
M204 S1800
M205 X8 Y8
G1 F1500 X114.457 Y104.162 E49.54302
G1 X114.527 Y104.232
M204 S3000
M205 X10 Y10
G0 F3000 X114.054 Y104.55
M204 S1800
M205 X8 Y8
G1 F1500 X112.99 Y103.487 E49.61305
G1 X112.92 Y103.417
M204 S3000
M205 X10 Y10
G0 F3000 X112.536 Y103.825
M204 S1800
M205 X8 Y8
G1 F1500 X113.65 Y104.938 E49.68637
G1 X113.72 Y105.008
M204 S3000
M205 X10 Y10
G0 F3000 X113.245 Y105.326
M204 S1800
M205 X8 Y8
G1 F1500 X111.977 Y104.057 E49.76991
G1 X111.907 Y103.987
M204 S3000
M205 X10 Y10
G0 F3000 X111.379 Y104.251
M204 S1800
M205 X8 Y8
G1 F1500 X112.842 Y105.714 E49.86625
G1 X112.912 Y105.784
M204 S3000
M205 X10 Y10
G0 F3000 X112.438 Y106.102
M204 S1800
M205 X8 Y8
G1 F1500 X110.677 Y104.342 E49.98218
G1 X110.607 Y104.272
M204 S3000
M205 X10 Y10
G0 F3000 X109.821 Y104.277
M204 S1800
M205 X8 Y8
G1 F1500 X112.033 Y106.49 E50.12788
G1 X112.103 Y106.56
M204 S3000
M205 X10 Y10
G0 F3000 X111.63 Y106.878
M204 S1800
M205 X8 Y8
G1 F1500 X108.657 Y103.905 E50.32365
G1 X108.587 Y103.835
M204 S3000
M205 X10 Y10
G0 F3000 X106.83 Y102.078
M204 S1800
M205 X8 Y8
G1 F1500 X94.461 Y89.709 E51.13817
G1 X94.391 Y89.639
M204 S3000
M205 X10 Y10
G0 F3000 X93.669 Y89.709
M204 S1800
M205 X8 Y8
G1 F1500 X111.226 Y107.266 E52.29433
G1 X111.296 Y107.336
M204 S3000
M205 X10 Y10
G0 F3000 X110.822 Y107.654
M204 S1800
