;FLAVOR:Marlin
;TIME:3824
;Filament used: 4.04308m
;Layer height: 0.2
;Generated with Cura_SteamEngine 3.4.1
M190 S60
M104 S200
M109 S200
M82 ;absolute extrusion mode
G21 ;metric values
G90 ;absolute positioning
M82 ;set extruder to absolute mode
M107 ;start with the fan off
G28 X0 Y0 ;move X/Y to min endstops
G28 Z0 ;move Z to min endstops
G1 Z15.0 F100 ;move the platform down 15mm
G92 E0 ;zero the extruded length
G1 F200 E3 ;extrude 3mm of feed stock
G92 E0 ;zero the extruded length again
G1 F100
M117 Printing...
G5
G92 E0
G1 F2400 E-6
;LAYER_COUNT:251
;LAYER:0
M106 S255
M204 S3000
M205 X10 Y10
G0 F3000 X75.809 Y78.027 Z0.2
M204 S1800
M205 X8 Y8
;TYPE:SKIRT
G1 F2400 E0
G1 X76.322 Y77.529 E0.03329
G1 X76.888 Y77.091 E0.06662
G1 X77.499 Y76.72 E0.0999
G1 X78.148 Y76.418 E0.13323
G1 X78.826 Y76.192 E0.16651
G1 X79.526 Y76.042 E0.19985
G1 X80.509 Y75.965 E0.24576
G1 X82.841 Y75.963 E0.35435
G1 X83.555 Y76.002 E0.38764
G1 X84.26 Y76.121 E0.42094
G1 X84.948 Y76.318 E0.45426
G1 X85.609 Y76.59 E0.48754
G1 X86.321 Y76.989 E0.52555
G1 X90.114 Y79.441 E0.73586
G1 X94.723 Y82.101 E0.98365
G1 X99.438 Y84.477 E1.2295
G1 X104.341 Y86.609 E1.47845
G1 X106.829 Y87.57 E1.60265
G1 X109.2 Y88.405 E1.7197
G1 X114.337 Y89.978 E1.96986
G1 X119.509 Y91.246 E2.21782
G1 X122.096 Y91.766 E2.34069
G1 X124.64 Y92.2 E2.46086
G1 X129.958 Y92.882 E2.71052
G1 X133.657 Y93.182 E2.88333
G1 X134.365 Y93.28 E2.91661
G1 X135.059 Y93.456 E2.94995
G1 X135.728 Y93.708 E2.98324
G1 X136.365 Y94.033 E3.01653
G1 X136.961 Y94.428 E3.04983
G1 X137.51 Y94.886 E3.08312
G1 X138.005 Y95.403 E3.11645
G1 X138.438 Y95.972 E3.14974
G1 X138.806 Y96.586 E3.18307
G1 X139.102 Y97.237 E3.21637
G1 X139.324 Y97.917 E3.24968
G1 X139.469 Y98.617 E3.28297
G1 X139.539 Y99.561 E3.32705
G1 X139.54 Y113.492 E3.97573
G1 X139.5 Y114.206 E4.00903
G1 X139.381 Y114.911 E4.04232
G1 X139.183 Y115.598 E4.07562
G1 X138.911 Y116.26 E4.10894
G1 X138.566 Y116.886 E4.14222
G1 X138.153 Y117.471 E4.17557
G1 X137.665 Y118.018 E4.2097
G1 X127.443 Y128.238 E4.88277
G1 X127.344 Y128.335 E4.88923
G1 X126.64 Y129.009 E4.93461
G1 X125.82 Y129.674 E4.98377
G1 X123.597 Y131.19 E5.10906
G1 X122.76 Y131.672 E5.15404
G1 X121.443 Y132.304 E5.22206
G1 X120.76 Y132.584 E5.25643
G1 X118.872 Y133.235 E5.34942
G1 X117.873 Y133.492 E5.39745
G1 X115.535 Y133.895 E5.50793
G1 X114.627 Y133.985 E5.55041
G1 X113.058 Y134.029 E5.6235
G1 X112.397 Y134.014 E5.65429
G1 X110.968 Y133.906 E5.72102
G1 X110.107 Y133.782 E5.76152
G1 X107.87 Y133.302 E5.86806
G1 X106.874 Y133.001 E5.91651
G1 X104.755 Y132.169 E6.02251
G1 X104.047 Y131.84 E6.05886
G1 X103.042 Y131.296 E6.11208
G1 X102.422 Y130.914 E6.14599
G1 X100.897 Y129.848 E6.23263
G1 X100.586 Y129.616 E6.25069
G1 X96.682 Y126.519 E6.48273
G1 X76.861 Y111.571 E7.63872
G1 X76.315 Y111.109 E7.67202
G1 X75.824 Y110.589 E7.70533
G1 X75.474 Y110.134 E7.73206
G1 X71.621 Y104.635 E8.04471
G1 X71.244 Y104.027 E8.07802
G1 X70.937 Y103.381 E8.11133
G1 X70.704 Y102.704 E8.14467
G1 X70.548 Y102.006 E8.17797
G1 X70.462 Y100.962 E8.22675
G1 X70.463 Y86.325 E8.90831
G1 X70.503 Y85.61 E8.94165
G1 X70.622 Y84.905 E8.97495
G1 X70.82 Y84.218 E9.00824
G1 X71.093 Y83.557 E9.04154
G1 X71.438 Y82.93 E9.07486
G1 X71.85 Y82.346 E9.10814
G1 X72.158 Y81.987 E9.13017
G1 X75.809 Y78.027 E9.38097
M204 S3000
M205 X10 Y10
G0 F3000 X76.22 Y78.406
M204 S1800
M205 X8 Y8
G1 F2400 X76.712 Y77.932 E9.41278
G1 X77.256 Y77.518 E9.44462
G1 X77.844 Y77.171 E9.47641
G1 X78.469 Y76.895 E9.50822
G1 X79.122 Y76.693 E9.54005
G1 X79.794 Y76.57 E9.57186
G1 X80.509 Y76.525 E9.60522
G1 X82.841 Y76.523 E9.71381
G1 X83.523 Y76.562 E9.74562
G1 X84.196 Y76.681 E9.77744
G1 X84.85 Y76.878 E9.80925
G1 X85.477 Y77.149 E9.84105
G1 X86.017 Y77.459 E9.87004
G1 X89.827 Y79.922 E10.0813
G1 X94.455 Y82.593 E10.33011
G1 X99.213 Y84.99 E10.57819
G1 X104.127 Y87.128 E10.82773
G1 X106.608 Y88.085 E10.95155
G1 X109.041 Y88.942 E11.07166
G1 X114.18 Y90.516 E11.32193
G1 X119.407 Y91.798 E11.57253
G1 X121.961 Y92.311 E11.69383
G1 X124.547 Y92.752 E11.81599
G1 X129.907 Y93.439 E12.06761
G1 X133.611 Y93.74 E12.24065
G1 X134.288 Y93.835 E12.27249
G1 X134.949 Y94.009 E12.30431
G1 X135.585 Y94.258 E12.33612
G1 X136.188 Y94.58 E12.36795
G1 X136.748 Y94.97 E12.39972
G1 X137.26 Y95.423 E12.43156
G1 X137.715 Y95.933 E12.46338
G1 X138.108 Y96.492 E12.4952
G1 X138.432 Y97.093 E12.52699
G1 X138.684 Y97.728 E12.5588
G1 X138.86 Y98.388 E12.59061
G1 X138.958 Y99.065 E12.62246
G1 X138.979 Y99.561 E12.64558
G1 X138.98 Y113.492 E13.29427
G1 X138.94 Y114.174 E13.32608
G1 X138.821 Y114.846 E13.35786
G1 X138.624 Y115.501 E13.3897
G1 X138.352 Y116.127 E13.42149
G1 X138.008 Y116.718 E13.45333
G1 X137.598 Y117.264 E13.48512
G1 X137.269 Y117.622 E13.50776
G1 X127.047 Y127.842 E14.18083
G1 X126.957 Y127.93 E14.18669
G1 X126.253 Y128.604 E14.23208
G1 X125.504 Y129.211 E14.27697
G1 X123.281 Y130.727 E14.40226
G1 X122.518 Y131.167 E14.44327
G1 X121.201 Y131.799 E14.51129
G1 X120.578 Y132.055 E14.54266
G1 X118.69 Y132.706 E14.63565
G1 X117.778 Y132.94 E14.67949
G1 X115.44 Y133.343 E14.78996
G1 X114.612 Y133.426 E14.82871
G1 X113.043 Y133.47 E14.9018
G1 X112.439 Y133.455 E14.92993
G1 X111.01 Y133.347 E14.99666
G1 X110.225 Y133.234 E15.03359
G1 X107.988 Y132.754 E15.14013
G1 X107.079 Y132.48 E15.18434
G1 X104.96 Y131.648 E15.29034
G1 X104.314 Y131.348 E15.3235
G1 X103.309 Y130.804 E15.37672
G1 X102.743 Y130.455 E15.40768
G1 X101.218 Y129.389 E15.49432
G1 X100.935 Y129.177 E15.51078
G1 X97.039 Y126.086 E15.74236
G1 X77.199 Y111.124 E16.89945
G1 X76.678 Y110.681 E16.93129
G1 X76.213 Y110.181 E16.96308
G1 X75.932 Y109.812 E16.98468
G1 X72.079 Y104.313 E17.29734
G1 X71.721 Y103.732 E17.32911
G1 X71.432 Y103.112 E17.36097
G1 X71.218 Y102.463 E17.39279
G1 X71.082 Y101.794 E17.42458
G1 X71.022 Y100.962 E17.46342
G1 X71.023 Y86.325 E18.14498
G1 X71.063 Y85.643 E18.17679
G1 X71.182 Y84.97 E18.20861
G1 X71.38 Y84.316 E18.24043
G1 X71.652 Y83.689 E18.27226
G1 X71.995 Y83.098 E18.30407
G1 X72.569 Y82.366 E18.34739
G1 X76.22 Y78.406 E18.59819
M204 S3000
M205 X10 Y10
G0 F3000 X76.632 Y78.786
M204 S1800
M205 X8 Y8
G1 F2400 X77.101 Y78.336 E18.62846
G1 X77.622 Y77.948 E18.65871
G1 X78.186 Y77.626 E18.68895
G1 X78.785 Y77.376 E18.71917
G1 X79.411 Y77.201 E18.74944
G1 X80.054 Y77.105 E18.77971
G1 X80.509 Y77.085 E18.80092
G1 X82.841 Y77.083 E18.90951
G1 X83.49 Y77.122 E18.93978
G1 X84.129 Y77.241 E18.97005
G1 X84.748 Y77.437 E19.00028
G1 X85.338 Y77.708 E19.03051
G1 X85.713 Y77.929 E19.05078
G1 X89.539 Y80.403 E19.26294
G1 X94.187 Y83.085 E19.51281
G1 X98.966 Y85.493 E19.762
G1 X103.922 Y87.649 E20.01366
G1 X106.417 Y88.612 E20.13819
G1 X108.861 Y89.472 E20.25883
G1 X114.043 Y91.059 E20.51119
G1 X119.282 Y92.344 E20.76237
G1 X121.854 Y92.861 E20.88453
G1 X124.478 Y93.309 E21.00848
G1 X129.834 Y93.995 E21.25992
G1 X133.566 Y94.298 E21.43427
G1 X134.209 Y94.391 E21.46452
G1 X134.836 Y94.561 E21.49477
G1 X135.437 Y94.807 E21.52501
G1 X136.003 Y95.126 E21.55526
G1 X136.526 Y95.511 E21.5855
G1 X136.998 Y95.958 E21.61577
G1 X137.411 Y96.459 E21.64601
G1 X137.76 Y97.007 E21.67626
G1 X138.039 Y97.594 E21.70652
G1 X138.243 Y98.21 E21.73674
G1 X138.371 Y98.847 E21.76699
G1 X138.419 Y99.561 E21.80031
G1 X138.42 Y113.492 E22.449
G1 X138.38 Y114.14 E22.47923
G1 X138.261 Y114.779 E22.5095
G1 X138.064 Y115.398 E22.53974
G1 X137.793 Y115.988 E22.56998
G1 X137.451 Y116.54 E22.60021
G1 X136.873 Y117.226 E22.64198
G1 X126.651 Y127.446 E23.31505
G1 X126.569 Y127.526 E23.32039
G1 X125.865 Y128.2 E23.36577
G1 X125.189 Y128.748 E23.40629
G1 X122.966 Y130.264 E23.53158
G1 X122.275 Y130.662 E23.56871
G1 X120.958 Y131.294 E23.63673
G1 X120.395 Y131.526 E23.66509
G1 X118.507 Y132.177 E23.75808
G1 X117.683 Y132.388 E23.79769
G1 X115.345 Y132.791 E23.90816
G1 X114.596 Y132.866 E23.94321
G1 X113.027 Y132.91 E24.0163
G1 X112.481 Y132.897 E24.04173
G1 X111.052 Y132.789 E24.10846
G1 X110.342 Y132.686 E24.14187
G1 X108.105 Y132.206 E24.2484
G1 X107.283 Y131.959 E24.28837
G1 X105.164 Y131.127 E24.39437
G1 X104.581 Y130.855 E24.42433
G1 X103.576 Y130.311 E24.47754
G1 X103.064 Y129.996 E24.50553
G1 X101.539 Y128.93 E24.59217
G1 X101.283 Y128.738 E24.60707
G1 X97.395 Y125.653 E24.83818
G1 X77.536 Y110.677 E25.99637
G1 X77.042 Y110.254 E26.02665
G1 X76.604 Y109.775 E26.05687
G1 X76.391 Y109.491 E26.0734
G1 X72.538 Y103.992 E26.38606
G1 X72.198 Y103.438 E26.41633
G1 X71.93 Y102.846 E26.44659
G1 X71.736 Y102.227 E26.47679
G1 X71.619 Y101.587 E26.50709
G1 X71.582 Y100.962 E26.53624
G1 X71.583 Y86.325 E27.2178
G1 X71.623 Y85.676 E27.24808
G1 X71.742 Y85.038 E27.2783
G1 X71.939 Y84.419 E27.30855
G1 X72.211 Y83.828 E27.33884
G1 X72.552 Y83.276 E27.36905
G1 X72.981 Y82.746 E27.4008
G1 X76.632 Y78.786 E27.65161
M204 S3000
M205 X10 Y10
G1 F2400 E21.65161
G0 F3000 X79.77 Y82.177
G0 X80.887 Y83.21
G0 X81.448 Y100.952
M204 S1800
M205 X8 Y8
;TYPE:WALL-INNER
G1 F2400 E27.65161
G1 F1500 X131.75 Y100.952 E29.99388
G1 X131.75 Y112.927 E30.55149
G1 X131.033 Y113.655 E30.59906
G1 X122.106 Y122.548 E31.1858
G1 X121.298 Y123.337 E31.23839
G1 X119.288 Y124.701 E31.3515
G1 X118.4 Y125.147 E31.39777
G1 X116.441 Y125.835 E31.49445
G1 X114.381 Y126.195 E31.59183
G1 X113.023 Y126.245 E31.65511
G1 X111.644 Y126.145 E31.71949
G1 X110.271 Y125.893 E31.78449
G1 X109.648 Y125.723 E31.81456
G1 X107.672 Y124.947 E31.91341
G1 X107.071 Y124.631 E31.94503
G1 X106.473 Y124.271 E31.97753
G1 X105.932 Y123.905 E32.00794
G1 X104.797 Y122.992 E32.07577
G1 X104.285 Y122.505 E32.10867
G1 X104.09 Y122.334 E32.12075
G1 X81.72 Y105.477 E33.42503
G1 X78.251 Y100.522 E33.70668
G1 X78.253 Y86.852 E34.34321
G1 X80.92 Y83.971 E34.52602
G1 X81.123 Y83.752 E34.53992
G1 X81.448 Y83.752 E34.55505
G1 X81.448 Y84.051 E34.56626
G1 X81.448 Y100.952 E35.35324
M204 S3000
M205 X10 Y10
G0 F3000 X82.008 Y100.392
M204 S1800
M205 X8 Y8
G1 F1500 X132.31 Y100.392 E37.69551
G1 X132.31 Y113.156 E38.28986
G1 X131.428 Y114.052 E38.3484
G1 X122.497 Y122.949 E38.93541
G1 X121.656 Y123.77 E38.99013
G1 X119.569 Y125.186 E39.10757
G1 X118.623 Y125.662 E39.15688
G1 X116.577 Y126.38 E39.25785
G1 X114.441 Y126.754 E39.35882
G1 X113.012 Y126.806 E39.42541
G1 X111.575 Y126.702 E39.49249
G1 X110.149 Y126.44 E39.56001
G1 X109.472 Y126.255 E39.59269
G1 X107.434 Y125.455 E39.69463
G1 X106.799 Y125.121 E39.72804
G1 X106.184 Y124.751 E39.76146
G1 X105.599 Y124.356 E39.79433
G1 X104.423 Y123.41 E39.86461
G1 X103.907 Y122.919 E39.89778
G1 X103.736 Y122.769 E39.90837
G1 X81.312 Y105.87 E41.21583
G1 X77.691 Y100.699 E41.50978
G1 X77.693 Y86.633 E42.16475
G1 X80.879 Y83.192 E42.38311
G1 X82.008 Y83.192 E42.43568
G1 X82.008 Y100.392 E43.23658
M204 S3000
M205 X10 Y10
G0 F3000 X82.568 Y99.832
M204 S1800
M205 X8 Y8
;TYPE:WALL-OUTER
G1 F1500 X132.87 Y99.832 E45.57886
G1 X132.87 Y113.386 E46.20999
G1 X131.823 Y114.449 E46.27946
G1 X122.888 Y123.35 E46.86673
G1 X122.014 Y124.203 E46.9236
G1 X119.85 Y125.671 E47.04536
G1 X118.846 Y126.177 E47.09771
G1 X116.713 Y126.925 E47.20296
G1 X114.5 Y127.313 E47.30758
G1 X113.001 Y127.367 E47.37743
G1 X111.506 Y127.259 E47.44722
G1 X110.027 Y126.987 E47.51724
G1 X109.296 Y126.787 E47.55253
G1 X107.2 Y125.964 E47.65739
G1 X106.528 Y125.611 E47.69273
G1 X105.884 Y125.224 E47.72772
G1 X105.266 Y124.807 E47.76243
G1 X104.056 Y123.833 E47.83476
G1 X103.529 Y123.333 E47.86859
G1 X103.382 Y123.204 E47.87769
G1 X80.904 Y106.263 E49.18834
G1 X77.131 Y100.876 E49.49459
G1 X77.133 Y86.414 E50.168
G1 X80.635 Y82.632 E50.40801
G1 X82.568 Y82.632 E50.49802
G1 X82.568 Y99.832 E51.29892
M204 S3000
M205 X10 Y10
G0 F3000 X82.768 Y99.832
G0 X82.768 Y100.492
G0 X80.898 Y101.502
M204 S1800
M205 X8 Y8
;TYPE:SKIN
G1 F1500 X131.2 Y101.502 E53.64119
G1 X131.2 Y112.702 E54.16271
G1 X130.644 Y113.266 E54.19959
G1 X121.721 Y122.155 E54.78606
G1 X120.948 Y122.91 E54.83638
G1 X119.007 Y124.228 E54.94563
G1 X118.187 Y124.639 E54.98834
G1 X116.303 Y125.301 E55.08132
G1 X114.324 Y125.647 E55.17487
G1 X113.025 Y125.695 E55.2354
G1 X111.72 Y125.6 E55.29633
G1 X110.385 Y125.355 E55.35953
G1 X109.827 Y125.203 E55.38646
G1 X107.903 Y124.446 E55.48273
G1 X107.333 Y124.147 E55.5127
G1 X106.779 Y123.813 E55.54283
G1 X106.254 Y123.459 E55.57231
G1 X105.165 Y122.582 E55.63742
G1 X104.656 Y122.098 E55.67012
G1 X104.437 Y121.907 E55.68365
G1 X82.119 Y105.088 E56.98493
G1 X78.801 Y100.349 E57.25431
G1 X78.803 Y87.066 E57.87282
G1 X80.898 Y84.803 E58.01642
G1 X80.898 Y101.502 E58.79399
M204 S3000
M205 X10 Y10
G0 F3000 X81.326 Y103.501
M204 S1800
M205 X8 Y8
G1 F1500 X84.012 Y106.186 E58.97084
G1 X84.082 Y106.256
M204 S3000
M205 X10 Y10
G0 F3000 X87.226 Y108.609
M204 S1800
M205 X8 Y8
G1 F1500 X79.477 Y100.86 E59.48112
G1 X79.407 Y100.79
M204 S3000
M205 X10 Y10
G0 F3000 X80.638 Y101.229
M204 S1800
M205 X8 Y8
G1 F1500 X79.061 Y99.652 E59.58497
G1 X78.991 Y99.582
M204 S3000
M205 X10 Y10
G0 F3000 X79.061 Y98.86
M204 S1800
M205 X8 Y8
G1 F1500 X80.638 Y100.437 E59.68882
G1 X80.708 Y100.507
M204 S3000
M205 X10 Y10
G0 F3000 X80.638 Y99.645
M204 S1800
M205 X8 Y8
G1 F1500 X79.061 Y98.068 E59.79267
G1 X78.991 Y97.998
M204 S3000
M205 X10 Y10
G0 F3000 X79.061 Y97.276
M204 S1800
M205 X8 Y8
G1 F1500 X80.638 Y98.853 E59.89652
G1 X80.708 Y98.923
M204 S3000
M205 X10 Y10
G0 F3000 X80.638 Y98.061
M204 S1800
M205 X8 Y8
G1 F1500 X79.061 Y96.484 E60.00036
G1 X78.991 Y96.414
M204 S3000
M205 X10 Y10
G0 F3000 X79.061 Y95.692
M204 S1800
M205 X8 Y8
G1 F1500 X80.638 Y97.269 E60.10421
G1 X80.708 Y97.339
M204 S3000
M205 X10 Y10
G0 F3000 X80.638 Y96.477
M204 S1800
M205 X8 Y8
G1 F1500 X79.061 Y94.9 E60.20806
G1 X78.991 Y94.83
M204 S3000
M205 X10 Y10
G0 F3000 X79.061 Y94.108
M204 S1800
M205 X8 Y8
G1 F1500 X80.638 Y95.685 E60.31191
G1 X80.708 Y95.755
M204 S3000
M205 X10 Y10
G0 F3000 X80.638 Y94.893
M204 S1800
M205 X8 Y8
G1 F1500 X79.062 Y93.317 E60.41569
G1 X78.992 Y93.247
M204 S3000
M205 X10 Y10
G0 F3000 X79.062 Y92.525
M204 S1800
M205 X8 Y8
G1 F1500 X80.638 Y94.101 E60.51947
G1 X80.708 Y94.171
M204 S3000
M205 X10 Y10
G0 F3000 X80.638 Y93.309
M204 S1800
M205 X8 Y8
G1 F1500 X79.062 Y91.733 E60.62326
G1 X78.992 Y91.663
M204 S3000
M205 X10 Y10
G0 F3000 X79.062 Y90.941
M204 S1800
M205 X8 Y8
G1 F1500 X80.638 Y92.517 E60.72704
G1 X80.708 Y92.587
M204 S3000
M205 X10 Y10
G0 F3000 X80.638 Y91.725
M204 S1800
M205 X8 Y8
G1 F1500 X79.062 Y90.149 E60.83082
G1 X78.992 Y90.079
M204 S3000
M205 X10 Y10
G0 F3000 X79.062 Y89.357
M204 S1800
M205 X8 Y8
G1 F1500 X80.638 Y90.933 E60.9346
G1 X80.708 Y91.003
M204 S3000
M205 X10 Y10
G0 F3000 X80.638 Y90.141
M204 S1800
M205 X8 Y8
G1 F1500 X79.062 Y88.565 E61.03838
G1 X78.992 Y88.495
M204 S3000
M205 X10 Y10
G0 F3000 X79.062 Y87.773
M204 S1800
M205 X8 Y8
G1 F1500 X80.638 Y89.35 E61.1422
G1 X80.708 Y89.42
M204 S3000
M205 X10 Y10
G0 F3000 X80.638 Y88.558
M204 S1800
M205 X8 Y8
G1 F1500 X79.15 Y87.07 E61.24019
G1 X79.08 Y87
M204 S3000
M205 X10 Y10
G0 F3000 X79.531 Y86.659
M204 S1800
M205 X8 Y8
G1 F1500 X80.638 Y87.766 E61.31309
G1 X80.708 Y87.836
M204 S3000
M205 X10 Y10
G0 F3000 X80.638 Y86.974
M204 S1800
M205 X8 Y8
G1 F1500 X79.912 Y86.247 E61.36093
M204 S3000
M205 X10 Y10
G0 F3000 X80.293 Y85.837
M204 S1800
M205 X8 Y8
G1 F1500 X80.638 Y86.182 E61.38365
M204 S3000
M205 X10 Y10
G0 F3000 X81.17 Y101.761
M204 S1800
M205 X8 Y8
G1 F1500 X90.441 Y111.032 E61.99416
G1 X90.511 Y111.102
M204 S3000
M205 X10 Y10
G0 F3000 X93.655 Y113.454
M204 S1800
M205 X8 Y8
G1 F1500 X81.962 Y101.761 E62.76416
G1 X81.892 Y101.691
M204 S3000
M205 X10 Y10
G0 F3000 X82.754 Y101.761
M204 S1800
M205 X8 Y8
G1 F1500 X96.87 Y115.877 E63.69372
G1 X96.94 Y115.947
M204 S3000
M205 X10 Y10
G0 F3000 X100.084 Y118.299
M204 S1800
M205 X8 Y8
G1 F1500 X83.546 Y101.761 E64.78278
G1 X83.476 Y101.691
M204 S3000
M205 X10 Y10
G0 F3000 X84.338 Y101.761
M204 S1800
M205 X8 Y8
G1 F1500 X103.299 Y120.722 E66.03139
G1 X103.369 Y120.792
M204 S3000
M205 X10 Y10
G0 F3000 X107.026 Y123.657
M204 S1800
M205 X8 Y8
G1 F1500 X85.13 Y101.761 E67.47328
G1 X85.06 Y101.691
M204 S3000
M205 X10 Y10
G0 F3000 X85.922 Y101.761
M204 S1800
M205 X8 Y8
G1 F1500 X108.598 Y124.438 E68.96657
G1 X108.668 Y124.508
M204 S3000
M205 X10 Y10
G0 F3000 X109.904 Y124.952
M204 S1800
M205 X8 Y8
