;FLAVOR:Marlin
;TIME:7043
;Filament used: 7.33308m
;Layer height: 0.2
;Generated with Cura_SteamEngine 3.4.1
M190 S60
M104 S200
M109 S200
M82 ;absolute extrusion mode
G21 ;metric values
G90 ;absolute positioning
M82 ;set extruder to absolute mode
M107 ;start with the fan off
G28 X0 Y0 ;move X/Y to min endstops
G28 Z0 ;move Z to min endstops
G1 Z15.0 F100 ;move the platform down 15mm
G92 E0 ;zero the extruded length
G1 F200 E3 ;extrude 3mm of feed stock
G92 E0 ;zero the extruded length again
G1 F100
M117 Printing...
G5
G92 E0
G1 F2400 E-6
;LAYER_COUNT:176
;LAYER:0
M106 S255
M204 S3000
M205 X10 Y10
G0 F3000 X53.35 Y82.102 Z0.2
M204 S1800
M205 X8 Y8
;TYPE:SKIRT
G1 F2400 E0
G1 X53.974 Y81.753 E0.03329
G1 X54.634 Y81.477 E0.0666
G1 X55.321 Y81.276 E0.09993
G1 X56.025 Y81.153 E0.13321
G1 X56.773 Y81.109 E0.1681
G1 X119.228 Y81.109 E3.07627
G1 X119.942 Y81.149 E3.10957
G1 X120.647 Y81.268 E3.14286
G1 X121.335 Y81.466 E3.1762
G1 X121.996 Y81.739 E3.2095
G1 X122.623 Y82.083 E3.2428
G1 X123.207 Y82.496 E3.2761
G1 X123.741 Y82.971 E3.30938
G1 X124.22 Y83.503 E3.34272
G1 X124.635 Y84.085 E3.376
G1 X124.984 Y84.71 E3.40933
G1 X125.26 Y85.37 E3.44265
G1 X125.461 Y86.056 E3.47593
G1 X125.584 Y86.761 E3.50925
G1 X125.628 Y87.504 E3.54391
G1 X125.637 Y99.079 E4.08289
G1 X125.629 Y99.411 E4.09836
G1 X125.542 Y101.114 E4.17776
G1 X125.403 Y102.149 E4.22639
G1 X125.214 Y103.017 E4.26775
G1 X124.968 Y103.864 E4.30882
G1 X124.64 Y104.756 E4.35307
G1 X124.266 Y105.584 E4.39538
G1 X123.825 Y106.402 E4.43865
G1 X123.451 Y107.012 E4.47197
G1 X123.211 Y107.335 E4.49071
G1 X122.401 Y108.359 E4.5515
G1 X121.821 Y108.999 E4.59172
G1 X108.934 Y121.408 E5.42476
G1 X103.269 Y127.031 E5.79643
G1 X102.734 Y127.506 E5.82975
G1 X102.15 Y127.918 E5.86303
G1 X101.523 Y128.262 E5.89633
G1 X100.861 Y128.535 E5.92967
G1 X100.174 Y128.731 E5.96294
G1 X99.468 Y128.85 E5.99627
G1 X98.757 Y128.889 E6.02943
G1 X95.732 Y128.887 E6.17029
G1 X94.921 Y128.835 E6.20813
G1 X89.571 Y128.148 E6.45929
G1 X84.278 Y127.77 E6.70639
G1 X78.995 Y127.693 E6.95241
G1 X73.714 Y127.914 E7.19853
G1 X68.393 Y128.44 E7.44751
G1 X65.652 Y128.827 E7.5764
G1 X64.756 Y128.89 E7.61823
G1 X61.772 Y128.89 E7.75718
G1 X61.058 Y128.85 E7.79048
G1 X60.353 Y128.731 E7.82377
G1 X59.665 Y128.533 E7.8571
G1 X59.004 Y128.26 E7.89041
G1 X58.377 Y127.916 E7.92371
G1 X57.793 Y127.503 E7.95701
G1 X57.247 Y127.015 E7.99111
G1 X52.247 Y122.015 E8.32037
G1 X51.77 Y121.482 E8.35368
G1 X51.356 Y120.899 E8.38697
G1 X51.009 Y120.273 E8.4203
G1 X50.734 Y119.613 E8.45359
G1 X50.535 Y118.926 E8.4869
G1 X50.414 Y118.221 E8.52021
G1 X50.372 Y117.49 E8.5543
G1 X50.373 Y87.509 E9.95034
G1 X50.413 Y86.795 E9.98364
G1 X50.532 Y86.089 E10.01698
G1 X50.73 Y85.402 E10.05027
G1 X51.003 Y84.741 E10.08357
G1 X51.348 Y84.114 E10.11689
G1 X51.76 Y83.53 E10.15017
G1 X52.236 Y82.995 E10.18352
G1 X52.768 Y82.517 E10.21682
G1 X53.35 Y82.102 E10.25011
M204 S3000
M205 X10 Y10
G0 F3000 X53.885 Y82.433
M204 S1800
M205 X8 Y8
G1 F2400 X54.498 Y82.13 E10.28195
G1 X55.142 Y81.902 E10.31376
G1 X55.808 Y81.749 E10.34558
G1 X56.773 Y81.669 E10.39067
G1 X119.228 Y81.669 E13.29883
G1 X119.91 Y81.709 E13.33064
G1 X120.583 Y81.828 E13.36247
G1 X121.237 Y82.025 E13.39427
G1 X121.864 Y82.298 E13.42611
G1 X122.454 Y82.641 E13.45789
G1 X123.001 Y83.051 E13.48972
G1 X123.496 Y83.522 E13.52154
G1 X123.932 Y84.048 E13.55335
G1 X124.304 Y84.621 E13.58516
G1 X124.607 Y85.234 E13.617
G1 X124.835 Y85.877 E13.64877
G1 X124.988 Y86.543 E13.68059
G1 X125.068 Y87.504 E13.72549
G1 X125.077 Y99.079 E14.26447
G1 X125.069 Y99.382 E14.27859
G1 X124.982 Y101.085 E14.35799
G1 X124.856 Y102.029 E14.40234
G1 X124.667 Y102.897 E14.4437
G1 X124.442 Y103.671 E14.48123
G1 X124.114 Y104.563 E14.52549
G1 X123.774 Y105.318 E14.56405
G1 X123.333 Y106.136 E14.60732
G1 X122.772 Y106.988 E14.65482
G1 X121.962 Y108.012 E14.71561
G1 X121.433 Y108.596 E14.75231
G1 X108.564 Y120.988 E15.58419
G1 X102.875 Y126.634 E15.95741
G1 X102.363 Y127.086 E15.98921
G1 X101.801 Y127.475 E16.02104
G1 X101.198 Y127.796 E16.05285
G1 X100.561 Y128.045 E16.08469
G1 X99.9 Y128.217 E16.1165
G1 X99.224 Y128.311 E16.14828
G1 X98.757 Y128.329 E16.17004
G1 X95.732 Y128.327 E16.3109
G1 X94.993 Y128.279 E16.34538
G1 X89.63 Y127.591 E16.59715
G1 X84.308 Y127.211 E16.8456
G1 X78.998 Y127.133 E17.09288
G1 X73.67 Y127.356 E17.34119
G1 X68.329 Y127.884 E17.5911
G1 X65.573 Y128.273 E17.7207
G1 X64.756 Y128.33 E17.75884
G1 X61.772 Y128.33 E17.89779
G1 X61.09 Y128.29 E17.9296
G1 X60.417 Y128.171 E17.96142
G1 X59.763 Y127.974 E17.99323
G1 X59.136 Y127.701 E18.02507
G1 X58.546 Y127.358 E18.05685
G1 X57.999 Y126.948 E18.08868
G1 X57.642 Y126.62 E18.11125
G1 X52.642 Y121.62 E18.44051
G1 X52.188 Y121.109 E18.47234
G1 X51.797 Y120.549 E18.50414
G1 X51.474 Y119.947 E18.53596
G1 X51.223 Y119.311 E18.56779
G1 X51.049 Y118.651 E18.59958
G1 X50.952 Y117.974 E18.63142
G1 X50.932 Y117.49 E18.65398
G1 X50.933 Y87.509 E20.05002
G1 X50.973 Y86.827 E20.08183
G1 X51.092 Y86.154 E20.11365
G1 X51.289 Y85.5 E20.14546
G1 X51.562 Y84.873 E20.1773
G1 X51.905 Y84.283 E20.20908
G1 X52.315 Y83.736 E20.24091
G1 X52.786 Y83.241 E20.27273
G1 X53.312 Y82.805 E20.30454
G1 X53.885 Y82.433 E20.33635
M204 S3000
M205 X10 Y10
G0 F3000 X53.854 Y83.11
M204 S1800
M205 X8 Y8
G1 F2400 X54.416 Y82.784 E20.36661
G1 X55.014 Y82.531 E20.39684
G1 X55.639 Y82.352 E20.42711
G1 X56.28 Y82.252 E20.45732
G1 X56.773 Y82.229 E20.4803
G1 X119.228 Y82.229 E23.38847
G1 X119.876 Y82.269 E23.4187
G1 X120.515 Y82.388 E23.44897
G1 X121.134 Y82.585 E23.47921
G1 X121.724 Y82.856 E23.50945
G1 X122.277 Y83.198 E23.53972
G1 X122.783 Y83.605 E23.56996
G1 X123.236 Y84.071 E23.60022
G1 X123.627 Y84.589 E23.63044
G1 X123.953 Y85.152 E23.66074
G1 X124.206 Y85.75 E23.69097
G1 X124.385 Y86.374 E23.7212
G1 X124.485 Y87.016 E23.75145
G1 X124.508 Y87.505 E23.77425
G1 X124.517 Y99.08 E24.31323
G1 X124.51 Y99.353 E24.32595
G1 X124.423 Y101.056 E24.40535
G1 X124.309 Y101.91 E24.44547
G1 X124.12 Y102.778 E24.48683
G1 X123.917 Y103.477 E24.52072
G1 X123.589 Y104.369 E24.56498
G1 X123.281 Y105.053 E24.59991
G1 X122.84 Y105.871 E24.64318
G1 X122.333 Y106.641 E24.68611
G1 X121.523 Y107.665 E24.74691
G1 X121.044 Y108.192 E24.78007
G1 X108.214 Y120.546 E25.60942
G1 X102.48 Y126.237 E25.9856
G1 X101.992 Y126.665 E26.01582
G1 X101.455 Y127.03 E26.04606
G1 X100.877 Y127.327 E26.07632
G1 X100.267 Y127.55 E26.10656
G1 X99.634 Y127.696 E26.13681
G1 X98.758 Y127.769 E26.17774
G1 X95.733 Y127.767 E26.3186
G1 X95.064 Y127.724 E26.34981
G1 X89.688 Y127.034 E26.6022
G1 X84.321 Y126.651 E26.85274
G1 X78.982 Y126.572 E27.10137
G1 X73.627 Y126.797 E27.35095
G1 X68.268 Y127.326 E27.6017
G1 X65.495 Y127.718 E27.7321
G1 X64.756 Y127.77 E27.7666
G1 X61.772 Y127.77 E27.90555
G1 X61.124 Y127.73 E27.93578
G1 X60.485 Y127.611 E27.96604
G1 X59.866 Y127.414 E27.99629
G1 X59.276 Y127.143 E28.02652
G1 X58.723 Y126.801 E28.0568
G1 X58.038 Y126.224 E28.0985
G1 X53.038 Y121.224 E28.42776
G1 X52.608 Y120.737 E28.45801
G1 X52.241 Y120.201 E28.48826
G1 X51.942 Y119.624 E28.51852
G1 X51.717 Y119.015 E28.54875
G1 X51.568 Y118.382 E28.57903
G1 X51.492 Y117.49 E28.62072
G1 X51.493 Y87.509 E30.01676
G1 X51.533 Y86.86 E30.04704
G1 X51.652 Y86.222 E30.07726
G1 X51.849 Y85.603 E30.10751
G1 X52.12 Y85.013 E30.13774
G1 X52.462 Y84.46 E30.16802
G1 X52.869 Y83.954 E30.19825
G1 X53.335 Y83.501 E30.22852
G1 X53.854 Y83.11 E30.25877
M204 S3000
M205 X10 Y10
G1 F2400 E24.25877
G0 F3000 X57.617 Y86.835
G0 X57.617 Y88.354
G0 X75.641 Y97.037
M204 S1800
M205 X8 Y8
;TYPE:WALL-INNER
G1 F2400 E30.25877
G1 F1500 X74.843 Y97.37 E30.29904
G1 X74.159 Y97.894 E30.33916
G1 X73.632 Y98.582 E30.37951
G1 X73.3 Y99.381 E30.4198
G1 X73.188 Y100.237 E30.46
G1 X73.3 Y101.094 E30.50025
G1 X73.632 Y101.892 E30.54049
G1 X74.158 Y102.58 E30.58082
G1 X74.843 Y103.105 E30.621
G1 X75.643 Y103.438 E30.66135
G1 X76.5 Y103.549 E30.70159
G1 X77.357 Y103.438 E30.74183
G1 X78.156 Y103.106 E30.78212
G1 X78.842 Y102.579 E30.8224
G1 X79.369 Y101.893 E30.86268
G1 X79.701 Y101.094 E30.90297
G1 X79.812 Y100.237 E30.94321
G1 X79.701 Y99.382 E30.98336
G1 X79.369 Y98.582 E31.02369
G1 X78.842 Y97.894 E31.06404
G1 X78.155 Y97.369 E31.1043
G1 X77.357 Y97.037 E31.14455
G1 X76.5 Y96.925 E31.18479
G1 X75.641 Y97.037 E31.22513
M204 S3000
M205 X10 Y10
G0 F3000 X74.53 Y98.266
G0 X74.087 Y98.844
G0 X73.93 Y99.224
G0 X68.783 Y116.5
M204 S1800
M205 X8 Y8
G1 F1500 X64.183 Y121.1 E31.52805
G1 X62.343 Y121.1 E31.61373
G1 X58.163 Y116.917 E31.88909
G1 X58.163 Y88.9 E33.19368
G1 X83.837 Y88.9 E34.38916
G1 X83.837 Y99.741 E34.89397
G1 X83.782 Y100.528 E34.9307
G1 X83.625 Y101.263 E34.9657
G1 X83.373 Y101.951 E34.99982
G1 X83.019 Y102.614 E35.03481
G1 X82.582 Y103.211 E35.06926
G1 X82.029 Y103.779 E35.10618
G1 X68.783 Y116.5 E35.96134
M204 S3000
M205 X10 Y10
G0 F3000 X69.175 Y116.9
M204 S1800
M205 X8 Y8
G1 F1500 X64.415 Y121.66 E36.27479
G1 X62.111 Y121.66 E36.38208
G1 X57.603 Y117.149 E36.67903
G1 X57.603 Y88.34 E38.0205
G1 X84.397 Y88.34 E39.26814
G1 X84.397 Y99.766 E39.80018
G1 X84.338 Y100.607 E39.83944
G1 X84.165 Y101.416 E39.87796
G1 X83.885 Y102.181 E39.9159
G1 X83.494 Y102.913 E39.95454
G1 X83.015 Y103.568 E39.99232
G1 X82.417 Y104.183 E40.03227
G1 X69.175 Y116.9 E40.88716
M204 S3000
M205 X10 Y10
G0 F3000 X69.106 Y116.829
G0 X75.764 Y102.988
G0 X75.789 Y102.892
M204 S1800
M205 X8 Y8
G1 F1500 X76.5 Y102.984 E40.92055
G1 X77.211 Y102.892 E40.95393
G1 X77.873 Y102.617 E40.98731
G1 X78.443 Y102.18 E41.02075
G1 X78.88 Y101.61 E41.0542
G1 X79.155 Y100.948 E41.08758
G1 X79.247 Y100.237 E41.12096
G1 X79.155 Y99.528 E41.15425
G1 X78.88 Y98.864 E41.18772
G1 X78.443 Y98.294 E41.22116
G1 X77.873 Y97.858 E41.25458
G1 X77.211 Y97.583 E41.28796
G1 X76.5 Y97.49 E41.32135
G1 X75.788 Y97.583 E41.35478
G1 X75.126 Y97.859 E41.38818
G1 X74.558 Y98.294 E41.42149
G1 X74.121 Y98.864 E41.45494
G1 X73.846 Y99.527 E41.48836
G1 X73.753 Y100.237 E41.5217
G1 X73.846 Y100.948 E41.55509
G1 X74.121 Y101.61 E41.58847
G1 X74.558 Y102.181 E41.62195
G1 X75.126 Y102.616 E41.65527
G1 X75.789 Y102.892 E41.68871
M204 S3000
M205 X10 Y10
G0 F3000 X75.935 Y102.346
M204 S1800
M205 X8 Y8
;TYPE:WALL-OUTER
G1 F1500 X76.5 Y102.419 E41.71523
G1 X77.065 Y102.346 E41.74176
G1 X77.591 Y102.128 E41.76827
G1 X78.044 Y101.781 E41.79484
G1 X78.391 Y101.328 E41.82142
G1 X78.609 Y100.802 E41.84793
G1 X78.682 Y100.237 E41.87446
G1 X78.609 Y99.673 E41.90094
G1 X78.391 Y99.146 E41.92749
G1 X78.044 Y98.694 E41.95403
G1 X77.591 Y98.347 E41.9806
G1 X77.065 Y98.129 E42.00711
G1 X76.5 Y98.055 E42.03364
G1 X75.935 Y98.129 E42.06018
G1 X75.409 Y98.348 E42.08671
G1 X74.957 Y98.694 E42.11321
G1 X74.61 Y99.146 E42.13975
G1 X74.392 Y99.673 E42.1663
G1 X74.318 Y100.237 E42.19279
G1 X74.392 Y100.802 E42.21932
G1 X74.61 Y101.328 E42.24584
G1 X74.957 Y101.781 E42.27241
G1 X75.409 Y102.127 E42.29891
G1 X75.935 Y102.346 E42.32545
M204 S3000
M205 X10 Y10
G0 F3000 X76.133 Y102.371
G0 X76.049 Y103.026
G0 X69.102 Y116.833
G0 X69.567 Y117.3
M204 S1800
M205 X8 Y8
G1 F1500 X64.647 Y122.22 E42.64944
G1 X61.879 Y122.22 E42.77833
G1 X57.043 Y117.381 E43.09688
G1 X57.043 Y87.78 E44.47523
G1 X84.957 Y87.78 E45.77502
G1 X84.957 Y99.791 E46.3343
G1 X84.894 Y100.686 E46.37608
G1 X84.705 Y101.569 E46.41813
G1 X84.396 Y102.414 E46.46003
G1 X83.971 Y103.209 E46.502
G1 X83.442 Y103.933 E46.54375
G1 X82.805 Y104.587 E46.58627
G1 X69.567 Y117.3 E47.4409
M204 S3000
M205 X10 Y10
G0 F3000 X69.426 Y117.441
G0 X68.961 Y116.974
G0 X68.398 Y116.107
M204 S1800
M205 X8 Y8
;TYPE:SKIN
G1 F1500 X63.955 Y120.55 E47.73348
G1 X62.571 Y120.55 E47.79792
G1 X58.713 Y116.689 E48.05208
G1 X58.713 Y89.45 E49.32044
G1 X83.287 Y89.45 E50.46471
G1 X83.287 Y99.741 E50.9439
G1 X83.238 Y100.445 E50.97676
G1 X83.095 Y101.108 E51.00834
G1 X82.868 Y101.73 E51.03917
G1 X82.552 Y102.322 E51.07042
G1 X82.161 Y102.857 E51.10128
G1 X81.648 Y103.382 E51.13546
G1 X68.398 Y116.107 E51.99088
M204 S3000
M205 X10 Y10
G0 F3000 X75.5 Y103.974
M204 S1800
M205 X8 Y8
G1 F1500 X76.5 Y104.103 E52.03783
G1 X77.5 Y103.974 E52.08478
G1 X78.433 Y103.586 E52.13183
G1 X79.235 Y102.972 E52.17886
G1 X79.849 Y102.17 E52.2259
G1 X80.237 Y101.237 E52.27295
G1 X80.366 Y100.237 E52.3199
G1 X80.237 Y99.239 E52.36675
G1 X79.85 Y98.305 E52.41383
G1 X79.235 Y97.501 E52.46097
G1 X78.432 Y96.888 E52.50801
G1 X77.5 Y96.501 E52.555
G1 X76.5 Y96.371 E52.60195
G1 X75.497 Y96.501 E52.64905
G1 X74.566 Y96.89 E52.69603
G1 X73.766 Y97.501 E52.7429
G1 X73.151 Y98.305 E52.79004
G1 X72.764 Y99.238 E52.83707
G1 X72.634 Y100.237 E52.88398
G1 X72.764 Y101.237 E52.93094
G1 X73.151 Y102.169 E52.97793
G1 X73.765 Y102.973 E53.02503
G1 X74.566 Y103.585 E53.07197
G1 X75.5 Y103.974 E53.11908
M204 S3000
M205 X10 Y10
G0 F3000 X77.893 Y102.651
G0 X78.471 Y102.208
G0 X78.914 Y101.63
G0 X83.027 Y90.154
M204 S1800
M205 X8 Y8
G1 F1500 X82.581 Y89.709 E53.14842
M204 S3000
M205 X10 Y10
G0 F3000 X81.789 Y89.709
M204 S1800
M205 X8 Y8
G1 F1500 X83.027 Y90.946 E53.22991
G1 X83.097 Y91.016
M204 S3000
M205 X10 Y10
G0 F3000 X83.027 Y91.738
M204 S1800
M205 X8 Y8
G1 F1500 X80.997 Y89.709 E53.36356
G1 X80.927 Y89.639
M204 S3000
M205 X10 Y10
G0 F3000 X80.205 Y89.709
M204 S1800
M205 X8 Y8
G1 F1500 X83.027 Y92.53 E53.54936
G1 X83.097 Y92.6
M204 S3000
M205 X10 Y10
G0 F3000 X83.027 Y93.322
M204 S1800
M205 X8 Y8
G1 F1500 X79.413 Y89.709 E53.78732
G1 X79.343 Y89.639
M204 S3000
M205 X10 Y10
G0 F3000 X78.621 Y89.709
M204 S1800
M205 X8 Y8
G1 F1500 X83.027 Y94.114 E54.07742
G1 X83.097 Y94.184
M204 S3000
M205 X10 Y10
G0 F3000 X83.027 Y94.906
M204 S1800
M205 X8 Y8
G1 F1500 X77.829 Y89.709 E54.41969
G1 X77.759 Y89.639
M204 S3000
M205 X10 Y10
G0 F3000 X77.037 Y89.709
M204 S1800
M205 X8 Y8
G1 F1500 X83.027 Y95.698 E54.81411
G1 X83.097 Y95.768
M204 S3000
M205 X10 Y10
G0 F3000 X83.027 Y96.49
M204 S1800
M205 X8 Y8
G1 F1500 X76.245 Y89.709 E55.26068
G1 X76.175 Y89.639
M204 S3000
M205 X10 Y10
G0 F3000 X75.453 Y89.709
M204 S1800
M205 X8 Y8
G1 F1500 X83.027 Y97.282 E55.75941
G1 X83.097 Y97.352
M204 S3000
M205 X10 Y10
G0 F3000 X83.027 Y98.074
M204 S1800
M205 X8 Y8
G1 F1500 X74.661 Y89.709 E56.31029
G1 X74.591 Y89.639
M204 S3000
M205 X10 Y10
G0 F3000 X73.87 Y89.709
M204 S1800
M205 X8 Y8
G1 F1500 X83.027 Y98.866 E56.9133
G1 X83.097 Y98.936
M204 S3000
M205 X10 Y10
G0 F3000 X83.027 Y99.658
M204 S1800
M205 X8 Y8
G1 F1500 X73.078 Y89.709 E57.56845
G1 X73.008 Y89.639
M204 S3000
M205 X10 Y10
G0 F3000 X72.286 Y89.709
M204 S1800
M205 X8 Y8
G1 F1500 X82.981 Y100.404 E58.27274
G1 X83.051 Y100.474
M204 S3000
M205 X10 Y10
G0 F3000 X82.838 Y101.053
M204 S1800
M205 X8 Y8
G1 F1500 X80.162 Y98.377 E58.44896
G1 X80.092 Y98.307
M204 S3000
M205 X10 Y10
G0 F3000 X80.538 Y99.545
M204 S1800
M205 X8 Y8
G1 F1500 X82.625 Y101.632 E58.58639
G1 X82.695 Y101.702
M204 S3000
M205 X10 Y10
G0 F3000 X82.349 Y102.148
M204 S1800
M205 X8 Y8
G1 F1500 X80.605 Y100.404 E58.70124
G1 X80.535 Y100.334
M204 S3000
M205 X10 Y10
G0 F3000 X80.515 Y101.106
M204 S1800
M205 X8 Y8
G1 F1500 X82.019 Y102.61 E58.80028
G1 X82.089 Y102.68
M204 S3000
M205 X10 Y10
G0 F3000 X81.637 Y103.02
M204 S1800
M205 X8 Y8
G1 F1500 X80.323 Y101.705 E58.88684
G1 X80.253 Y101.635
M204 S3000
M205 X10 Y10
G0 F3000 X80.091 Y102.266
M204 S1800
M205 X8 Y8
G1 F1500 X81.238 Y103.412 E58.96234
G1 X81.308 Y103.482
M204 S3000
M205 X10 Y10
G0 F3000 X80.834 Y103.801
M204 S1800
M205 X8 Y8
G1 F1500 X79.753 Y102.72 E59.03352
G1 X79.683 Y102.65
M204 S3000
M205 X10 Y10
G0 F3000 X79.408 Y103.166
M204 S1800
M205 X8 Y8
G1 F1500 X80.429 Y104.188 E59.10079
G1 X80.499 Y104.258
M204 S3000
M205 X10 Y10
G0 F3000 X80.026 Y104.576
M204 S1800
M205 X8 Y8
G1 F1500 X78.959 Y103.51 E59.17102
G1 X78.889 Y103.44
M204 S3000
M205 X10 Y10
G0 F3000 X78.498 Y103.841
M204 S1800
M205 X8 Y8
G1 F1500 X79.622 Y104.965 E59.24504
G1 X79.692 Y105.035
M204 S3000
M205 X10 Y10
G0 F3000 X79.218 Y105.353
M204 S1800
M205 X8 Y8
G1 F1500 X77.938 Y104.073 E59.32933
G1 X77.868 Y104.003
M204 S3000
M205 X10 Y10
G0 F3000 X77.33 Y104.257
M204 S1800
M205 X8 Y8
G1 F1500 X78.814 Y105.74 E59.42702
G1 X78.884 Y105.81
M204 S3000
M205 X10 Y10
G0 F3000 X78.41 Y106.128
M204 S1800
M205 X8 Y8
G1 F1500 X76.629 Y104.347 E59.5443
