;FLAVOR:Marlin
;TIME:7274
;Filament used: 7.55005m
;Layer height: 0.2
;Generated with Cura_SteamEngine 3.4.1
M190 S60
M104 S200
M109 S200
M82 ;absolute extrusion mode
G21 ;metric values
G90 ;absolute positioning
M82 ;set extruder to absolute mode
M107 ;start with the fan off
G28 X0 Y0 ;move X/Y to min endstops
G28 Z0 ;move Z to min endstops
G1 Z15.0 F100 ;move the platform down 15mm
G92 E0 ;zero the extruded length
G1 F200 E3 ;extrude 3mm of feed stock
G92 E0 ;zero the extruded length again
G1 F100
M117 Printing...
G5
G92 E0
G1 F2400 E-6
;LAYER_COUNT:124
;LAYER:0
M106 S255
M204 S3000
M205 X10 Y10
G0 F3000 X75.326 Y62.034 Z0.2
M204 S1800
M205 X8 Y8
;TYPE:SKIRT
G1 F2400 E0
G1 X75.842 Y61.421 E0.03731
G1 X76.332 Y60.9 E0.07061
G1 X76.878 Y60.437 E0.10395
G1 X77.277 Y60.158 E0.12662
G1 X78.128 Y59.611 E0.17373
G1 X78.751 Y59.259 E0.20704
G1 X79.409 Y58.978 E0.24036
G1 X80.091 Y58.773 E0.27352
G1 X81.013 Y58.551 E0.31768
G1 X81.716 Y58.423 E0.35095
G1 X82.509 Y58.373 E0.38795
G1 X130.239 Y58.36 E2.61046
G1 X130.953 Y58.4 E2.64376
G1 X131.659 Y58.519 E2.6771
G1 X132.346 Y58.716 E2.71038
G1 X133.007 Y58.989 E2.74368
G1 X133.634 Y59.334 E2.777
G1 X134.218 Y59.746 E2.81028
G1 X134.753 Y60.221 E2.84359
G1 X135.231 Y60.753 E2.8769
G1 X135.647 Y61.335 E2.91021
G1 X135.996 Y61.96 E2.94354
G1 X136.272 Y62.619 E2.97681
G1 X136.474 Y63.306 E3.01015
G1 X136.597 Y64.01 E3.04343
G1 X136.641 Y64.76 E3.07841
G1 X136.64 Y115.243 E5.42911
G1 X136.6 Y115.957 E5.46241
G1 X136.481 Y116.662 E5.49571
G1 X136.283 Y117.35 E5.52904
G1 X136.01 Y118.011 E5.56234
G1 X135.665 Y118.638 E5.59567
G1 X135.253 Y119.222 E5.62895
G1 X134.777 Y119.756 E5.66226
G1 X134.245 Y120.235 E5.69559
G1 X133.663 Y120.65 E5.72887
G1 X133.039 Y120.999 E5.76217
G1 X132.612 Y121.187 E5.78389
G1 X129.382 Y122.476 E5.94583
G1 X124.518 Y124.679 E6.19446
G1 X119.826 Y127.134 E6.44104
G1 X115.24 Y129.874 E6.6898
G1 X113.124 Y131.262 E6.80763
G1 X108.767 Y134.395 E7.05752
G1 X104.649 Y137.725 E7.30412
G1 X100.718 Y141.287 E7.55113
G1 X92.281 Y149.757 E8.10781
G1 X91.749 Y150.234 E8.14108
G1 X91.167 Y150.65 E8.17439
G1 X90.542 Y150.998 E8.2077
G1 X89.882 Y151.274 E8.24101
G1 X89.195 Y151.474 E8.27433
G1 X88.49 Y151.597 E8.30765
G1 X87.747 Y151.64 E8.34231
G1 X84.764 Y151.64 E8.48121
G1 X84.05 Y151.6 E8.51451
G1 X83.345 Y151.481 E8.5478
G1 X82.657 Y151.283 E8.58114
G1 X81.996 Y151.01 E8.61444
G1 X81.369 Y150.666 E8.64774
G1 X80.785 Y150.253 E8.68105
G1 X80.243 Y149.77 E8.71485
G1 X75.24 Y144.778 E9.04395
G1 X74.763 Y144.246 E9.07722
G1 X74.348 Y143.663 E9.11054
G1 X74.001 Y143.038 E9.14383
G1 X73.726 Y142.378 E9.17712
G1 X73.526 Y141.691 E9.21044
G1 X73.404 Y140.986 E9.24375
G1 X73.361 Y140.244 E9.27836
G1 X73.403 Y67.25 E12.67727
G1 X73.443 Y66.536 E12.71057
G1 X73.563 Y65.831 E12.74387
G1 X73.653 Y65.481 E12.76069
G1 X73.845 Y64.815 E12.79297
G1 X74.082 Y64.14 E12.82628
G1 X74.327 Y63.616 E12.85322
G1 X74.554 Y63.183 E12.87598
G1 X74.921 Y62.569 E12.90929
G1 X75.326 Y62.034 E12.94053
M204 S3000
M205 X10 Y10
G0 F3000 X75.754 Y62.394
M204 S1800
M205 X8 Y8
G1 F2400 X76.27 Y61.781 E12.97785
G1 X76.74 Y61.285 E13.00966
G1 X77.264 Y60.847 E13.04146
G1 X77.58 Y60.629 E13.05934
G1 X78.431 Y60.082 E13.10645
G1 X79.027 Y59.747 E13.13828
G1 X79.657 Y59.484 E13.17007
G1 X80.222 Y59.317 E13.1975
G1 X81.144 Y59.095 E13.24166
G1 X81.816 Y58.974 E13.27346
G1 X82.509 Y58.933 E13.30578
G1 X130.239 Y58.92 E15.52829
G1 X130.921 Y58.96 E15.5601
G1 X131.594 Y59.079 E15.59193
G1 X132.248 Y59.276 E15.62373
G1 X132.875 Y59.548 E15.65556
G1 X133.466 Y59.891 E15.68738
G1 X134.012 Y60.301 E15.71917
G1 X134.507 Y60.772 E15.75099
G1 X134.944 Y61.298 E15.78283
G1 X135.316 Y61.871 E15.81464
G1 X135.619 Y62.483 E15.84644
G1 X135.848 Y63.127 E15.87826
G1 X136 Y63.793 E15.91007
G1 X136.081 Y64.76 E15.95526
G1 X136.08 Y115.243 E18.30596
G1 X136.04 Y115.925 E18.33777
G1 X135.921 Y116.598 E18.36959
G1 X135.724 Y117.252 E18.4014
G1 X135.451 Y117.879 E18.43324
G1 X135.108 Y118.469 E18.46502
G1 X134.698 Y119.016 E18.49685
G1 X134.227 Y119.511 E18.52867
G1 X133.701 Y119.947 E18.56048
G1 X133.128 Y120.319 E18.59229
G1 X132.404 Y120.667 E18.6297
G1 X129.166 Y121.959 E18.79203
G1 X124.27 Y124.177 E19.04231
G1 X119.551 Y126.646 E19.29031
G1 X114.94 Y129.401 E19.54042
G1 X112.806 Y130.801 E19.65926
G1 X108.426 Y133.95 E19.91045
G1 X104.289 Y137.295 E20.15818
G1 X100.331 Y140.882 E20.40691
G1 X91.884 Y149.362 E20.96424
G1 X91.375 Y149.817 E20.99603
G1 X90.815 Y150.209 E21.02786
G1 X90.214 Y150.533 E21.05966
G1 X89.579 Y150.785 E21.09147
G1 X88.919 Y150.961 E21.12327
G1 X88.243 Y151.059 E21.15508
G1 X87.747 Y151.08 E21.1782
G1 X84.764 Y151.08 E21.3171
G1 X84.082 Y151.04 E21.34891
G1 X83.409 Y150.921 E21.38073
G1 X82.755 Y150.724 E21.41254
G1 X82.128 Y150.451 E21.44438
G1 X81.538 Y150.108 E21.47616
G1 X80.991 Y149.698 E21.50799
G1 X80.639 Y149.374 E21.53027
G1 X75.636 Y144.382 E21.85936
G1 X75.181 Y143.872 E21.89119
G1 X74.79 Y143.312 E21.92299
G1 X74.466 Y142.711 E21.95478
G1 X74.214 Y142.075 E21.98664
G1 X74.039 Y141.415 E22.01843
G1 X73.942 Y140.739 E22.05023
G1 X73.921 Y140.245 E22.07325
G1 X73.963 Y67.251 E25.47216
G1 X74.003 Y66.569 E25.50397
G1 X74.192 Y65.636 E25.5483
G1 X74.384 Y64.97 E25.58057
G1 X74.611 Y64.326 E25.61237
G1 X74.823 Y63.876 E25.63553
G1 X75.05 Y63.443 E25.6583
G1 X75.402 Y62.858 E25.69009
G1 X75.754 Y62.394 E25.71721
M204 S3000
M205 X10 Y10
G0 F3000 X76.183 Y62.755
M204 S1800
M205 X8 Y8
G1 F2400 X76.699 Y62.142 E25.75452
G1 X77.147 Y61.671 E25.78479
G1 X77.883 Y61.1 E25.82816
G1 X78.734 Y60.553 E25.87527
G1 X79.301 Y60.236 E25.90552
G1 X79.903 Y59.991 E25.93578
G1 X80.353 Y59.862 E25.95758
G1 X81.275 Y59.64 E26.00174
G1 X81.915 Y59.527 E26.032
G1 X82.51 Y59.493 E26.05975
G1 X130.24 Y59.48 E28.28226
G1 X130.888 Y59.52 E28.31249
G1 X131.527 Y59.639 E28.34276
G1 X132.146 Y59.836 E28.373
G1 X132.736 Y60.107 E28.40324
G1 X133.289 Y60.448 E28.43349
G1 X133.795 Y60.855 E28.46373
G1 X134.248 Y61.321 E28.49399
G1 X134.64 Y61.839 E28.52424
G1 X134.965 Y62.401 E28.55447
G1 X135.219 Y62.999 E28.58472
G1 X135.397 Y63.624 E28.61498
G1 X135.498 Y64.266 E28.64524
G1 X135.521 Y64.76 E28.66827
G1 X135.52 Y115.243 E31.01897
G1 X135.48 Y115.891 E31.0492
G1 X135.361 Y116.53 E31.07947
G1 X135.164 Y117.149 E31.10971
G1 X134.893 Y117.739 E31.13995
G1 X134.551 Y118.292 E31.17022
G1 X134.144 Y118.798 E31.20046
G1 X133.678 Y119.251 E31.23072
G1 X133.16 Y119.642 E31.26094
G1 X132.597 Y119.968 E31.29123
G1 X132.197 Y120.147 E31.31164
G1 X128.924 Y121.453 E31.47573
G1 X124.03 Y123.67 E31.72591
G1 X119.274 Y126.158 E31.97584
G1 X114.661 Y128.914 E32.22606
G1 X112.477 Y130.347 E32.34769
G1 X108.097 Y133.496 E32.59888
G1 X103.919 Y136.874 E32.84906
G1 X99.944 Y140.477 E33.09887
G1 X91.488 Y148.966 E33.6568
G1 X91.002 Y149.397 E33.68705
G1 X90.467 Y149.766 E33.71731
G1 X89.89 Y150.065 E33.74757
G1 X89.282 Y150.292 E33.77779
G1 X88.649 Y150.442 E33.80808
G1 X87.747 Y150.52 E33.85024
G1 X84.764 Y150.52 E33.98914
G1 X84.116 Y150.48 E34.01937
G1 X83.477 Y150.361 E34.04964
G1 X82.858 Y150.164 E34.07988
G1 X82.268 Y149.893 E34.11012
G1 X81.715 Y149.551 E34.14039
G1 X81.035 Y148.978 E34.1818
G1 X76.032 Y143.986 E34.51089
G1 X75.601 Y143.499 E34.54118
G1 X75.233 Y142.964 E34.57141
G1 X74.934 Y142.387 E34.60167
G1 X74.708 Y141.778 E34.63192
G1 X74.558 Y141.146 E34.66217
G1 X74.481 Y140.245 E34.70427
G1 X74.523 Y67.251 E38.10318
G1 X74.563 Y66.603 E38.13341
G1 X74.73 Y65.791 E38.17201
G1 X74.922 Y65.125 E38.20429
G1 X75.14 Y64.513 E38.23454
G1 X75.319 Y64.136 E38.25397
G1 X75.546 Y63.703 E38.27674
G1 X75.882 Y63.148 E38.30695
G1 X76.183 Y62.755 E38.33
M204 S3000
M205 X10 Y10
G1 F2400 E32.33
G0 F3000 X79.241 Y66.707
G0 X80.685 Y67.193
G0 X85.406 Y75.094
M204 S1800
M205 X8 Y8
;TYPE:WALL-INNER
G1 F2400 E38.33
G1 F1500 X86.095 Y75.618 E38.3703
G1 X86.893 Y75.95 E38.41055
G1 X87.75 Y76.062 E38.45079
G1 X88.607 Y75.95 E38.49104
G1 X89.405 Y75.618 E38.53128
G1 X90.094 Y75.094 E38.57159
G1 X90.618 Y74.405 E38.6119
G1 X90.95 Y73.607 E38.65214
G1 X91.062 Y72.75 E38.69239
G1 X90.95 Y71.893 E38.73263
G1 X90.618 Y71.095 E38.77288
G1 X90.094 Y70.406 E38.81319
G1 X89.405 Y69.882 E38.85349
G1 X88.607 Y69.55 E38.89374
G1 X87.75 Y69.438 E38.93398
G1 X86.889 Y69.552 E38.97443
G1 X86.088 Y69.887 E39.01485
G1 X85.408 Y70.406 E39.05469
G1 X84.882 Y71.095 E39.09505
G1 X84.55 Y71.893 E39.1353
G1 X84.438 Y72.75 E39.17554
G1 X84.55 Y73.607 E39.21579
G1 X84.882 Y74.405 E39.25603
G1 X85.406 Y75.094 E39.29634
M204 S3000
M205 X10 Y10
G0 F3000 X85.406 Y104.906
M204 S1800
M205 X8 Y8
G1 F1500 X84.882 Y105.595 E39.33665
G1 X84.55 Y106.393 E39.37689
G1 X84.438 Y107.25 E39.41714
G1 X84.55 Y108.107 E39.45738
G1 X84.882 Y108.905 E39.49763
G1 X85.406 Y109.594 E39.53793
G1 X86.095 Y110.118 E39.57824
G1 X86.895 Y110.45 E39.61857
G1 X87.759 Y110.561 E39.65913
G1 X88.618 Y110.446 E39.69949
G1 X89.412 Y110.111 E39.73962
G1 X90.092 Y109.594 E39.77939
G1 X90.618 Y108.905 E39.81976
G1 X90.95 Y108.107 E39.86
G1 X91.062 Y107.25 E39.90025
G1 X90.95 Y106.393 E39.94049
G1 X90.618 Y105.595 E39.98074
G1 X90.094 Y104.906 E40.02105
G1 X89.405 Y104.382 E40.06135
G1 X88.607 Y104.05 E40.1016
G1 X87.75 Y103.938 E40.14184
G1 X86.893 Y104.05 E40.18209
G1 X86.095 Y104.382 E40.22233
G1 X85.406 Y104.906 E40.26264
M204 S3000
M205 X10 Y10
G0 F3000 X85.058 Y106.529
G0 X84.963 Y107.25
G0 X85.058 Y107.971
G0 X85.337 Y108.642
G0 X85.693 Y109.111
G0 X91.35 Y113.85
M204 S1800
M205 X8 Y8
G1 F1500 X91.35 Y139.67 E41.46493
G1 X89.627 Y141.393 E41.57839
G1 X89.15 Y141.87 E41.6098
G1 X89.15 Y141.196 E41.62669
G1 X89.15 Y141.195 E41.62674
G1 X89.15 Y113.85 E42.90004
G1 X83.35 Y113.85 E43.17011
G1 X83.35 Y141.195 E44.44341
G1 X83.35 Y141.196 E44.44345
G1 X83.35 Y141.87 E44.47484
G1 X82.873 Y141.393 E44.49174
G1 X81.15 Y139.67 E44.60521
G1 X81.15 Y67.796 E47.95196
G1 X81.168 Y67.535 E47.96414
G1 X81.208 Y67.334 E47.97369
G1 X81.274 Y67.137 E47.98336
G1 X81.361 Y66.961 E47.9925
G1 X81.486 Y66.774 E48.00298
G1 X81.621 Y66.621 E48.01248
G1 X81.774 Y66.486 E48.02198
G1 X81.961 Y66.361 E48.03245
G1 X82.137 Y66.274 E48.04159
G1 X82.333 Y66.208 E48.05122
G1 X82.535 Y66.168 E48.06081
G1 X82.8 Y66.15 E48.07318
G1 X128.85 Y66.15 E50.21746
G1 X128.85 Y113.85 E52.43857
G1 X91.35 Y113.85 E54.18473
M204 S3000
M205 X10 Y10
G0 F3000 X121.52 Y104.561
G0 X122.242 Y104.464
G0 X122.446 Y104.489
G0 X124.585 Y104.9
M204 S1800
M205 X8 Y8
G1 F1500 X123.894 Y104.378 E54.22505
G1 X123.098 Y104.049 E54.26516
G1 X122.24 Y103.939 E54.30544
G1 X121.382 Y104.054 E54.34575
G1 X120.588 Y104.389 E54.38588
G1 X119.908 Y104.906 E54.42565
G1 X119.382 Y105.595 E54.46602
G1 X119.05 Y106.393 E54.50626
G1 X118.938 Y107.25 E54.54651
G1 X119.05 Y108.107 E54.58675
G1 X119.382 Y108.905 E54.627
G1 X119.906 Y109.594 E54.6673
G1 X120.595 Y110.118 E54.70761
G1 X121.393 Y110.45 E54.74786
G1 X122.25 Y110.562 E54.7881
G1 X123.107 Y110.45 E54.82835
G1 X123.905 Y110.118 E54.86859
G1 X124.594 Y109.594 E54.9089
G1 X125.118 Y108.905 E54.94921
G1 X125.45 Y108.107 E54.98945
G1 X125.561 Y107.259 E55.02928
G1 X125.452 Y106.405 E55.06936
G1 X125.123 Y105.603 E55.10973
G1 X124.585 Y104.9 E55.15095
M204 S3000
M205 X10 Y10
G0 F3000 X119.463 Y72.75
G0 X119.489 Y72.546
G0 X119.906 Y70.406
M204 S1800
M205 X8 Y8
G1 F1500 X119.382 Y71.095 E55.19126
G1 X119.05 Y71.893 E55.2315
G1 X118.938 Y72.75 E55.27175
G1 X119.05 Y73.607 E55.31199
G1 X119.382 Y74.405 E55.35224
G1 X119.906 Y75.094 E55.39254
G1 X120.595 Y75.618 E55.43285
G1 X121.393 Y75.95 E55.4731
G1 X122.25 Y76.062 E55.51334
G1 X123.107 Y75.95 E55.55359
G1 X123.905 Y75.618 E55.59383
G1 X124.594 Y75.094 E55.63414
G1 X125.118 Y74.405 E55.67445
G1 X125.45 Y73.607 E55.71469
G1 X125.562 Y72.75 E55.75494
G1 X125.45 Y71.893 E55.79518
G1 X125.118 Y71.095 E55.83543
G1 X124.594 Y70.406 E55.87573
G1 X123.905 Y69.882 E55.91604
G1 X123.107 Y69.55 E55.95629
G1 X122.25 Y69.438 E55.99653
G1 X121.393 Y69.55 E56.03678
G1 X120.595 Y69.882 E56.07702
G1 X119.906 Y70.406 E56.11733
M204 S3000
M205 X10 Y10
G0 F3000 X120.306 Y70.806
M204 S1800
M205 X8 Y8
G1 F1500 X119.871 Y71.377 E56.15075
G1 X119.596 Y72.039 E56.18413
G1 X119.503 Y72.75 E56.21752
G1 X119.596 Y73.461 E56.25091
G1 X119.871 Y74.123 E56.28429
G1 X120.306 Y74.694 E56.31772
G1 X120.877 Y75.129 E56.35114
G1 X121.539 Y75.404 E56.38452
G1 X122.25 Y75.497 E56.41791
G1 X122.961 Y75.404 E56.4513
G1 X123.623 Y75.129 E56.48468
G1 X124.194 Y74.694 E56.5181
G1 X124.629 Y74.123 E56.55153
G1 X124.904 Y73.461 E56.58491
G1 X124.997 Y72.75 E56.6183
G1 X124.904 Y72.039 E56.65168
G1 X124.629 Y71.377 E56.68506
G1 X124.194 Y70.806 E56.71849
G1 X123.623 Y70.371 E56.75191
G1 X122.961 Y70.096 E56.78529
G1 X122.25 Y70.003 E56.81868
G1 X121.539 Y70.096 E56.85207
G1 X120.877 Y70.371 E56.88545
G1 X120.306 Y70.806 E56.91888
M204 S3000
M205 X10 Y10
G0 F3000 X120.236 Y70.736
G0 X119.837 Y71.358
G0 X119.558 Y72.029
G0 X119.473 Y72.677
G0 X124.257 Y105.231
G0 X124.187 Y105.301
M204 S1800
M205 X8 Y8
G1 F1500 X123.614 Y104.868 E56.95232
G1 X122.953 Y104.595 E56.98562
G1 X122.242 Y104.504 E57.019
G1 X121.53 Y104.599 E57.05244
G1 X120.871 Y104.877 E57.08575
G1 X120.307 Y105.306 E57.11874
G1 X119.871 Y105.877 E57.1522
G1 X119.596 Y106.539 E57.18558
G1 X119.503 Y107.25 E57.21897
G1 X119.596 Y107.961 E57.25235
G1 X119.871 Y108.623 E57.28573
G1 X120.306 Y109.194 E57.31916
G1 X120.877 Y109.629 E57.35258
G1 X121.539 Y109.904 E57.38596
G1 X122.25 Y109.997 E57.41935
G1 X122.961 Y109.904 E57.45274
G1 X123.623 Y109.629 E57.48612
G1 X124.194 Y109.194 E57.51955
G1 X124.629 Y108.623 E57.55297
G1 X124.904 Y107.961 E57.58635
G1 X124.996 Y107.258 E57.61936
G1 X124.906 Y106.549 E57.65264
G1 X124.633 Y105.884 E57.68611
G1 X124.187 Y105.301 E57.72029
M204 S3000
M205 X10 Y10
G0 F3000 X124.257 Y105.231
G0 X123.633 Y104.834
G0 X122.963 Y104.557
G0 X122.242 Y104.464
G0 X121.658 Y104.542
G0 X91.84 Y114.34
G0 X91.91 Y114.41
M204 S1800
M205 X8 Y8
G1 F1500 X91.91 Y139.902 E58.90731
G1 X89.067 Y142.745 E59.09453
G1 X88.59 Y143.222 E59.12594
G1 X88.59 Y142.548 E59.14283
G1 X88.59 Y142.547 E59.14287
G1 X88.59 Y114.41 E60.45305
G1 X83.91 Y114.41 E60.67097
G1 X83.91 Y142.547 E61.98115
G1 X83.91 Y142.548 E61.98119
G1 X83.91 Y143.222 E62.01258
G1 X83.433 Y142.745 E62.02948
G1 X80.59 Y139.902 E62.2167
G1 X80.59 Y67.773 E65.57533
G1 X80.611 Y67.467 E65.58961
G1 X80.666 Y67.188 E65.60285
G1 X80.755 Y66.925 E65.61578
G1 X80.877 Y66.677 E65.62865
G1 X81.041 Y66.433 E65.64234
G1 X81.224 Y66.224 E65.65528
G1 X81.433 Y66.041 E65.66821
G1 X81.677 Y65.877 E65.6819
G1 X81.925 Y65.755 E65.69477
G1 X82.188 Y65.666 E65.7077
G1 X82.466 Y65.611 E65.72089
G1 X82.777 Y65.59 E65.73541
G1 X129.41 Y65.59 E67.90684
G1 X129.41 Y114.41 E70.1801
G1 X91.91 Y114.41 E71.92626
M204 S3000
M205 X10 Y10
G0 F3000 X91.84 Y114.34
G0 X85.778 Y109.222
G0 X85.337 Y108.642
G0 X85.058 Y107.971
G0 X84.963 Y107.25
G0 X85.058 Y106.529
G0 X85.283 Y105.987
G0 X85.736 Y105.236
G0 X85.806 Y105.306
M204 S1800
M205 X8 Y8
G1 F1500 X85.371 Y105.877 E71.95968
G1 X85.096 Y106.539 E71.99306
G1 X85.003 Y107.25 E72.02645
G1 X85.096 Y107.961 E72.05984
G1 X85.371 Y108.623 E72.09322
G1 X85.806 Y109.194 E72.12664
G1 X86.377 Y109.629 E72.16007
G1 X87.04 Y109.904 E72.19349
G1 X87.758 Y109.996 E72.2272
G1 X88.47 Y109.901 E72.26065
G1 X89.129 Y109.623 E72.29395
G1 X89.693 Y109.194 E72.32695
G1 X90.129 Y108.623 E72.3604
G1 X90.404 Y107.961 E72.39378
G1 X90.497 Y107.25 E72.42717
G1 X90.404 Y106.539 E72.46056
G1 X90.129 Y105.877 E72.49394
G1 X89.694 Y105.306 E72.52736
G1 X89.123 Y104.871 E72.56079
G1 X88.461 Y104.596 E72.59416
G1 X87.75 Y104.503 E72.62755
G1 X87.039 Y104.596 E72.66094
G1 X86.377 Y104.871 E72.69432
G1 X85.806 Y105.306 E72.72775
M204 S3000
M205 X10 Y10
G0 F3000 X85.736 Y105.236
G0 X85.736 Y74.764
G0 X85.806 Y74.694
M204 S1800
M205 X8 Y8
G1 F1500 X86.377 Y75.129 E72.76117
G1 X87.039 Y75.404 E72.79455
G1 X87.75 Y75.497 E72.82794
G1 X88.461 Y75.404 E72.86133
G1 X89.123 Y75.129 E72.89471
G1 X89.694 Y74.694 E72.92813
G1 X90.129 Y74.123 E72.96156
G1 X90.404 Y73.461 E72.99494
G1 X90.497 Y72.75 E73.02833
G1 X90.404 Y72.039 E73.06172
G1 X90.129 Y71.377 E73.0951
G1 X89.694 Y70.806 E73.12852
