;FLAVOR:Marlin
;TIME:4355
;Filament used: 8.40153m
;Layer height: 0.3
;Generated with Cura_SteamEngine 3.4.1
M190 S60
M104 S200
M109 S200
M82 ;absolute extrusion mode
G21 ;metric values
G90 ;absolute positioning
M82 ;set extruder to absolute mode
M107 ;start with the fan off
G28 X0 Y0 ;move X/Y to min endstops
G28 Z0 ;move Z to min endstops
G1 Z15.0 F100 ;move the platform down 15mm
G92 E0 ;zero the extruded length
G1 F200 E3 ;extrude 3mm of feed stock
G92 E0 ;zero the extruded length again
G1 F100
M117 Printing...
G5
G92 E0
G1 F2400 E-6
;LAYER_COUNT:83
;LAYER:0
M106 S255
M204 S3000
M205 X10 Y10
G0 F3000 X61.388 Y60.868 Z0.3
M204 S1800
M205 X8 Y8
;TYPE:SKIRT
G1 F2400 E0
G1 X61.921 Y60.391 E0.04996
G1 X62.504 Y59.976 E0.09994
G1 X62.816 Y59.791 E0.12528
G1 X63.621 Y59.345 E0.18956
G1 X64.265 Y59.034 E0.23951
G1 X65.206 Y58.725 E0.30869
G1 X65.862 Y58.565 E0.35585
G1 X66.566 Y58.435 E0.40585
G1 X67.377 Y58.383 E0.46261
G1 X140.242 Y58.36 E5.55196
G1 X140.956 Y58.4 E5.60191
G1 X141.661 Y58.519 E5.65185
G1 X142.349 Y58.716 E5.70184
G1 X143.01 Y58.989 E5.75179
G1 X143.637 Y59.333 E5.80174
G1 X144.221 Y59.746 E5.8517
G1 X144.769 Y60.235 E5.903
G1 X149.765 Y65.231 E6.39649
G1 X150.242 Y65.764 E6.44645
G1 X150.656 Y66.347 E6.49639
G1 X151.003 Y66.973 E6.54638
G1 X151.278 Y67.633 E6.59632
G1 X151.477 Y68.32 E6.64628
G1 X151.598 Y69.025 E6.69624
G1 X151.64 Y69.756 E6.74738
G1 X151.64 Y72.736 E6.95553
G1 X151.6 Y73.45 E7.00547
G1 X151.481 Y74.155 E7.05541
G1 X151.283 Y74.843 E7.10542
G1 X151.01 Y75.504 E7.15537
G1 X150.666 Y76.131 E7.20532
G1 X150.253 Y76.715 E7.25528
G1 X149.77 Y77.257 E7.30599
G1 X144.772 Y82.264 E7.80012
G1 X144.624 Y82.408 E7.81455
G1 X142.061 Y84.816 E8.06018
G1 X138.332 Y88.653 E8.43389
G1 X134.877 Y92.637 E8.80222
G1 X131.631 Y96.836 E9.17292
G1 X128.646 Y101.185 E9.54135
G1 X125.89 Y105.735 E9.9129
G1 X123.421 Y110.383 E10.28051
G1 X120.79 Y116.151 E10.72331
G1 X120.452 Y116.793 E10.77399
G1 X120.105 Y117.37 E10.82102
G1 X119.702 Y117.962 E10.87104
G1 X119.041 Y118.7 E10.94024
G1 X118.392 Y119.32 E11.00293
G1 X117.848 Y119.784 E11.05287
G1 X117.256 Y120.185 E11.10281
G1 X116.695 Y120.483 E11.14718
G1 X109.572 Y123.833 E11.69697
G1 X104.909 Y126.37 E12.06775
G1 X100.428 Y129.147 E12.43596
G1 X96.068 Y132.203 E12.80784
G1 X91.894 Y135.496 E13.17919
G1 X89.962 Y137.157 E13.35715
G1 X86.053 Y140.818 E13.73122
G1 X82.224 Y144.821 E14.11813
G1 X82.12 Y144.927 E14.1285
G1 X77.269 Y149.769 E14.60723
G1 X76.736 Y150.245 E14.65714
G1 X76.152 Y150.659 E14.70714
G1 X75.526 Y151.005 E14.7571
G1 X74.865 Y151.279 E14.80708
G1 X74.178 Y151.477 E14.85701
G1 X73.473 Y151.598 E14.90697
G1 X72.75 Y151.639 E14.95755
G1 X69.766 Y151.64 E15.16598
G1 X69.052 Y151.6 E15.21592
G1 X68.347 Y151.481 E15.26586
G1 X67.659 Y151.284 E15.31585
G1 X66.998 Y151.011 E15.3658
G1 X66.371 Y150.667 E15.41575
G1 X65.787 Y150.254 E15.46571
G1 X65.243 Y149.77 E15.51657
G1 X60.24 Y144.778 E16.01021
G1 X59.763 Y144.246 E16.06012
G1 X59.348 Y143.663 E16.1101
G1 X59.001 Y143.038 E16.16003
G1 X58.726 Y142.378 E16.20997
G1 X58.526 Y141.691 E16.25995
G1 X58.404 Y140.986 E16.30992
G1 X58.361 Y140.244 E16.36183
G1 X58.403 Y67.25 E21.46019
G1 X58.443 Y66.536 E21.51014
G1 X58.563 Y65.831 E21.56009
G1 X58.653 Y65.481 E21.58533
G1 X58.845 Y64.815 E21.63375
G1 X59.082 Y64.14 E21.68371
G1 X59.467 Y63.363 E21.74428
G1 X59.852 Y62.703 E21.79765
G1 X60.246 Y62.107 E21.84755
G1 X60.85 Y61.407 E21.91213
G1 X61.388 Y60.868 E21.96532
M204 S3000
M205 X10 Y10
G0 F3000 X61.785 Y61.263
M204 S1800
M205 X8 Y8
G1 F2400 X62.295 Y60.809 E22.01301
G1 X63.088 Y60.281 E22.07955
G1 X63.893 Y59.835 E22.14383
G1 X64.509 Y59.539 E22.19157
G1 X65.339 Y59.269 E22.25253
G1 X65.995 Y59.109 E22.29969
G1 X66.667 Y58.987 E22.3474
G1 X67.377 Y58.943 E22.39708
G1 X140.242 Y58.92 E27.48643
G1 X140.924 Y58.96 E27.53415
G1 X141.597 Y59.079 E27.58189
G1 X142.251 Y59.276 E27.62959
G1 X142.878 Y59.548 E27.67733
G1 X143.469 Y59.891 E27.72506
G1 X144.015 Y60.301 E27.77275
G1 X144.374 Y60.63 E27.80676
G1 X149.37 Y65.626 E28.30025
G1 X149.824 Y66.137 E28.348
G1 X150.215 Y66.697 E28.3957
G1 X150.538 Y67.299 E28.44342
G1 X150.789 Y67.935 E28.49117
G1 X150.963 Y68.595 E28.53885
G1 X151.06 Y69.272 E28.58662
G1 X151.08 Y69.756 E28.62045
G1 X151.08 Y72.736 E28.82859
G1 X151.04 Y73.418 E28.87631
G1 X150.921 Y74.091 E28.92405
G1 X150.724 Y74.745 E28.97175
G1 X150.451 Y75.372 E29.01952
G1 X150.108 Y75.962 E29.06719
G1 X149.698 Y76.509 E29.11493
G1 X149.373 Y76.862 E29.14845
G1 X144.375 Y81.869 E29.64258
G1 X144.241 Y81.999 E29.65562
G1 X141.661 Y84.423 E29.90288
G1 X137.928 Y88.264 E30.27699
G1 X134.447 Y92.277 E30.64804
G1 X131.18 Y96.504 E31.02119
G1 X128.166 Y100.896 E31.39324
G1 X125.41 Y105.446 E31.76479
G1 X122.914 Y110.145 E32.13643
G1 X120.28 Y115.919 E32.5797
G1 X119.972 Y116.505 E32.62594
G1 X119.625 Y117.082 E32.67297
G1 X119.239 Y117.646 E32.7207
G1 X118.654 Y118.295 E32.78173
G1 X118.005 Y118.915 E32.84442
G1 X117.484 Y119.357 E32.89214
G1 X116.915 Y119.735 E32.93986
G1 X116.457 Y119.977 E32.97604
G1 X109.302 Y123.342 E33.5283
G1 X104.631 Y125.884 E33.89973
G1 X100.109 Y128.686 E34.2713
G1 X95.749 Y131.742 E34.64318
G1 X91.541 Y135.062 E35.01756
G1 X89.573 Y136.754 E35.19883
G1 X85.661 Y140.418 E35.5732
G1 X81.819 Y144.434 E35.9614
G1 X81.725 Y144.53 E35.97078
G1 X76.874 Y149.372 E36.44951
G1 X76.363 Y149.826 E36.49725
G1 X75.802 Y150.217 E36.54501
G1 X75.2 Y150.539 E36.5927
G1 X74.564 Y150.789 E36.64043
G1 X73.904 Y150.964 E36.68812
G1 X73.227 Y151.059 E36.73587
G1 X72.75 Y151.079 E36.76921
G1 X69.766 Y151.08 E36.97764
G1 X69.084 Y151.04 E37.02535
G1 X68.411 Y150.921 E37.07309
G1 X67.757 Y150.724 E37.1208
G1 X67.13 Y150.452 E37.16853
G1 X66.539 Y150.109 E37.21626
G1 X65.993 Y149.699 E37.26395
G1 X65.639 Y149.374 E37.29752
G1 X60.636 Y144.382 E37.79116
G1 X60.181 Y143.872 E37.83889
G1 X59.79 Y143.312 E37.8866
G1 X59.466 Y142.711 E37.93429
G1 X59.214 Y142.075 E37.98207
G1 X59.039 Y141.415 E38.02976
G1 X58.942 Y140.739 E38.07746
G1 X58.921 Y140.245 E38.112
G1 X58.963 Y67.251 E43.21036
G1 X59.003 Y66.569 E43.25807
G1 X59.192 Y65.636 E43.32456
G1 X59.384 Y64.97 E43.37298
G1 X59.611 Y64.326 E43.42067
G1 X59.951 Y63.645 E43.47383
G1 X60.336 Y62.985 E43.5272
G1 X60.714 Y62.416 E43.57492
G1 X61.247 Y61.802 E43.63171
G1 X61.785 Y61.263 E43.6849
M204 S3000
M205 X10 Y10
G0 F3000 X62.181 Y61.659
M204 S1800
M205 X8 Y8
G1 F2400 X62.667 Y61.228 E43.73027
G1 X63.359 Y60.77 E43.78823
G1 X64.164 Y60.324 E43.85251
G1 X64.751 Y60.045 E43.8979
G1 X65.472 Y59.813 E43.95081
G1 X66.128 Y59.653 E43.99797
G1 X66.767 Y59.539 E44.0433
G1 X67.377 Y59.503 E44.08599
G1 X140.242 Y59.48 E49.17533
G1 X140.891 Y59.52 E49.22075
G1 X141.529 Y59.639 E49.26608
G1 X142.148 Y59.835 E49.31143
G1 X142.739 Y60.107 E49.35687
G1 X143.291 Y60.448 E49.40219
G1 X143.978 Y61.026 E49.4649
G1 X148.974 Y66.022 E49.95839
G1 X149.404 Y66.509 E50.00377
G1 X149.771 Y67.045 E50.04914
G1 X150.07 Y67.622 E50.09453
G1 X150.295 Y68.231 E50.13988
G1 X150.444 Y68.864 E50.1853
G1 X150.52 Y69.756 E50.24783
G1 X150.52 Y72.736 E50.45597
G1 X150.48 Y73.384 E50.50132
G1 X150.361 Y74.023 E50.54672
G1 X150.164 Y74.642 E50.59209
G1 X149.893 Y75.232 E50.63744
G1 X149.551 Y75.785 E50.68285
G1 X148.977 Y76.466 E50.74506
G1 X143.979 Y81.473 E51.23919
G1 X143.857 Y81.591 E51.25105
G1 X141.271 Y84.021 E51.4989
G1 X137.516 Y87.884 E51.87519
G1 X134.011 Y91.925 E52.24881
G1 X130.727 Y96.174 E52.6239
G1 X127.699 Y100.587 E52.99771
G1 X124.917 Y105.178 E53.37266
G1 X122.42 Y109.88 E53.74451
G1 X119.771 Y115.687 E54.19031
G1 X119.492 Y116.216 E54.23209
G1 X119.145 Y116.793 E54.27912
G1 X118.776 Y117.328 E54.32451
G1 X118.267 Y117.89 E54.37747
G1 X117.618 Y118.51 E54.44016
G1 X117.122 Y118.929 E54.48551
G1 X116.578 Y119.284 E54.53088
G1 X116.218 Y119.47 E54.55918
G1 X109.053 Y122.84 E55.11222
G1 X104.354 Y125.397 E55.48588
G1 X99.811 Y128.211 E55.85913
G1 X95.4 Y131.304 E56.23542
G1 X91.187 Y134.628 E56.61024
G1 X89.221 Y136.317 E56.79127
G1 X85.251 Y140.036 E57.17123
G1 X81.414 Y144.047 E57.55893
G1 X81.329 Y144.134 E57.56742
G1 X76.478 Y148.976 E58.04615
G1 X75.991 Y149.406 E58.09152
G1 X75.455 Y149.772 E58.13686
G1 X74.878 Y150.071 E58.18225
G1 X74.268 Y150.295 E58.22764
G1 X73.636 Y150.444 E58.27299
G1 X72.75 Y150.519 E58.33509
G1 X69.766 Y150.52 E58.54352
G1 X69.117 Y150.48 E58.58893
G1 X68.479 Y150.361 E58.63426
G1 X67.86 Y150.165 E58.67961
G1 X67.269 Y149.893 E58.72505
G1 X66.717 Y149.552 E58.77037
G1 X66.035 Y148.978 E58.83263
G1 X61.032 Y143.986 E59.32627
G1 X60.601 Y143.499 E59.3717
G1 X60.233 Y142.964 E59.41705
G1 X59.934 Y142.387 E59.46244
G1 X59.708 Y141.778 E59.50781
G1 X59.558 Y141.146 E59.55318
G1 X59.481 Y140.245 E59.61634
G1 X59.523 Y67.251 E64.7147
G1 X59.563 Y66.603 E64.76005
G1 X59.73 Y65.791 E64.81795
G1 X59.922 Y65.125 E64.86637
G1 X60.14 Y64.513 E64.91174
G1 X60.434 Y63.928 E64.95747
G1 X60.819 Y63.268 E65.01084
G1 X61.18 Y62.728 E65.05621
G1 X61.643 Y62.198 E65.10536
G1 X62.181 Y61.659 E65.15856
M204 S3000
M205 X10 Y10
G1 F2400 E59.15856
G0 F3000 X65.231 Y65.094
G0 X66.238 Y66.238
G0 X70.406 Y70.406
M204 S1800
M205 X8 Y8
;TYPE:WALL-INNER
G1 F2400 E65.15856
G1 F1800 X69.882 Y71.095 E65.21902
G1 X69.55 Y71.893 E65.27939
G1 X69.438 Y72.75 E65.33975
G1 X69.55 Y73.607 E65.40012
G1 X69.882 Y74.405 E65.46049
G1 X70.406 Y75.094 E65.52095
G1 X71.095 Y75.618 E65.58141
G1 X71.893 Y75.95 E65.64178
G1 X72.75 Y76.062 E65.70214
G1 X73.607 Y75.95 E65.76251
G1 X74.405 Y75.618 E65.82288
G1 X75.094 Y75.094 E65.88334
G1 X75.618 Y74.405 E65.9438
G1 X75.95 Y73.607 E66.00417
G1 X76.062 Y72.75 E66.06454
G1 X75.95 Y71.893 E66.1249
G1 X75.618 Y71.095 E66.18527
G1 X75.094 Y70.406 E66.24573
G1 X74.405 Y69.882 E66.30619
G1 X73.607 Y69.55 E66.36656
G1 X72.75 Y69.438 E66.42693
G1 X71.893 Y69.55 E66.4873
G1 X71.095 Y69.882 E66.54767
G1 X70.406 Y70.406 E66.60813
M204 S3000
M205 X10 Y10
G0 F3000 X70.058 Y72.029
G0 X69.982 Y72.612
G0 X70.406 Y104.906
M204 S1800
M205 X8 Y8
G1 F1800 X69.882 Y105.595 E66.66859
G1 X69.55 Y106.393 E66.72896
G1 X69.438 Y107.25 E66.78932
G1 X69.55 Y108.107 E66.84969
G1 X69.882 Y108.905 E66.91006
G1 X70.406 Y109.594 E66.97052
G1 X71.095 Y110.118 E67.03098
G1 X71.893 Y110.45 E67.09135
G1 X72.75 Y110.562 E67.15171
G1 X73.612 Y110.448 E67.21245
G1 X74.414 Y110.109 E67.27326
G1 X75.092 Y109.594 E67.33273
G1 X75.618 Y108.905 E67.39328
G1 X75.95 Y108.107 E67.45364
G1 X76.062 Y107.25 E67.51401
G1 X75.95 Y106.393 E67.57438
G1 X75.618 Y105.595 E67.63475
G1 X75.094 Y104.906 E67.69521
G1 X74.405 Y104.382 E67.75567
G1 X73.607 Y104.05 E67.81604
G1 X72.75 Y103.938 E67.8764
G1 X71.893 Y104.05 E67.93677
G1 X71.095 Y104.382 E67.99714
G1 X70.406 Y104.906 E68.0576
M204 S3000
M205 X10 Y10
G0 F3000 X72.029 Y104.558
G0 X72.612 Y104.482
G0 X104.906 Y104.906
M204 S1800
M205 X8 Y8
G1 F1800 X104.382 Y105.595 E68.11806
G1 X104.05 Y106.393 E68.17843
G1 X103.938 Y107.25 E68.2388
G1 X104.05 Y108.107 E68.29916
G1 X104.382 Y108.905 E68.35953
G1 X104.906 Y109.594 E68.41999
G1 X105.595 Y110.118 E68.48045
G1 X106.393 Y110.45 E68.54082
G1 X107.25 Y110.562 E68.60119
G1 X108.107 Y110.45 E68.66156
G1 X108.905 Y110.118 E68.72192
G1 X109.594 Y109.594 E68.78239
G1 X110.118 Y108.905 E68.84285
G1 X110.45 Y108.107 E68.90321
G1 X110.562 Y107.25 E68.96358
G1 X110.45 Y106.393 E69.02395
G1 X110.118 Y105.595 E69.08432
G1 X109.594 Y104.906 E69.14478
G1 X108.905 Y104.382 E69.20524
G1 X108.107 Y104.05 E69.26561
G1 X107.25 Y103.938 E69.32597
G1 X106.393 Y104.05 E69.38634
G1 X105.595 Y104.382 E69.44671
G1 X104.906 Y104.906 E69.50717
M204 S3000
M205 X10 Y10
G0 F3000 X110.035 Y72.766
G0 X110.01 Y72.562
G0 X109.584 Y70.398
M204 S1800
M205 X8 Y8
G1 F1800 X108.889 Y69.874 E69.56796
G1 X108.093 Y69.549 E69.62802
G1 X107.234 Y69.439 E69.68851
G1 X106.375 Y69.557 E69.74907
G1 X105.586 Y69.889 E69.80886
G1 X104.908 Y70.406 E69.86841
G1 X104.382 Y71.095 E69.92895
G1 X104.05 Y71.893 E69.98932
G1 X103.938 Y72.75 E70.04969
G1 X104.05 Y73.607 E70.11006
G1 X104.382 Y74.405 E70.17043
G1 X104.906 Y75.094 E70.23089
G1 X105.595 Y75.618 E70.29135
G1 X106.393 Y75.95 E70.35171
G1 X107.25 Y76.062 E70.41208
G1 X108.107 Y75.95 E70.47245
G1 X108.905 Y75.618 E70.53282
G1 X109.594 Y75.092 E70.59336
G1 X110.111 Y74.412 E70.65303
G1 X110.442 Y73.625 E70.71266
G1 X110.56 Y72.77 E70.77294
G1 X110.454 Y71.911 E70.8334
G1 X110.125 Y71.108 E70.89401
G1 X109.584 Y70.398 E70.95636
M204 S3000
M205 X10 Y10
G0 F3000 X113.85 Y68.35
M204 S1800
M205 X8 Y8
G1 F1800 X113.85 Y74.15 E71.36146
G1 X141.195 Y74.15 E73.27141
G1 X141.196 Y74.15 E73.27148
G1 X141.87 Y74.15 E73.31856
G1 X141.393 Y74.627 E73.34392
G1 X139.67 Y76.35 E73.51411
G1 X113.85 Y76.35 E75.31754
G1 X113.85 Y112.204 E77.82181
G1 X113.832 Y112.465 E77.84008
G1 X113.792 Y112.666 E77.8544
G1 X113.726 Y112.863 E77.86891
G1 X113.639 Y113.039 E77.88262
G1 X113.517 Y113.221 E77.89792
G1 X113.38 Y113.377 E77.91243
G1 X113.221 Y113.516 E77.92718
G1 X113.032 Y113.643 E77.94308
G1 X112.863 Y113.725 E77.9562
G1 X112.674 Y113.789 E77.97014
G1 X112.449 Y113.832 E77.98614
G1 X112.198 Y113.85 E78.00372
G1 X76.35 Y113.85 E80.50756
G1 X76.35 Y139.67 E82.311
G1 X74.627 Y141.393 E82.48119
G1 X74.15 Y141.87 E82.52831
G1 X74.15 Y141.196 E82.55364
G1 X74.15 Y141.195 E82.55371
G1 X74.15 Y113.85 E84.46366
G1 X68.35 Y113.85 E84.86877
G1 X68.35 Y141.195 E86.77871
G1 X68.35 Y141.196 E86.77878
G1 X68.35 Y141.87 E86.82586
G1 X67.873 Y141.393 E86.85122
G1 X66.15 Y139.67 E87.02141
G1 X66.15 Y67.796 E92.04154
G1 X66.168 Y67.535 E92.05982
G1 X66.208 Y67.334 E92.07413
G1 X66.274 Y67.137 E92.08864
G1 X66.361 Y66.961 E92.10236
G1 X66.486 Y66.774 E92.11807
G1 X66.621 Y66.621 E92.13232
G1 X66.774 Y66.486 E92.14657
G1 X66.961 Y66.361 E92.16228
G1 X67.137 Y66.274 E92.17599
G1 X67.333 Y66.208 E92.19044
G1 X67.535 Y66.168 E92.20482
G1 X67.8 Y66.15 E92.22337
G1 X139.67 Y66.15 E97.24323
G1 X141.393 Y67.873 E97.41342
G1 X141.87 Y68.35 E97.46054
G1 X141.196 Y68.35 E97.48587
G1 X141.195 Y68.35 E97.48594
G1 X113.85 Y68.35 E99.39589
M204 S3000
M205 X10 Y10
G0 F3000 X114.41 Y68.91
M204 S1800
M205 X8 Y8
G1 F1800 X114.41 Y73.59 E99.72277
G1 X142.547 Y73.59 E101.68804
G1 X142.548 Y73.59 E101.68811
G1 X143.222 Y73.59 E101.73518
G1 X142.745 Y74.067 E101.76054
G1 X139.902 Y76.91 E102.04137
G1 X114.41 Y76.91 E103.82189
G1 X114.41 Y112.227 E106.28865
G1 X114.389 Y112.533 E106.31007
G1 X114.334 Y112.812 E106.32993
G1 X114.245 Y113.075 E106.34933
G1 X114.123 Y113.323 E106.36863
G1 X113.963 Y113.562 E106.38872
G1 X113.777 Y113.774 E106.40842
G1 X113.56 Y113.964 E106.42856
G1 X113.314 Y114.128 E106.44921
G1 X113.075 Y114.245 E106.4678
G1 X112.815 Y114.332 E106.48695
G1 X112.522 Y114.389 E106.5078
G1 X112.223 Y114.41 E106.52873
G1 X76.91 Y114.41 E108.99522
G1 X76.91 Y139.902 E110.77574
G1 X74.067 Y142.745 E111.05656
G1 X73.59 Y143.222 E111.10368
G1 X73.59 Y142.548 E111.12902
G1 X73.59 Y142.547 E111.12909
G1 X73.59 Y114.41 E113.09435
G1 X68.91 Y114.41 E113.42123
G1 X68.91 Y142.547 E115.3865
G1 X68.91 Y142.548 E115.38657
G1 X68.91 Y143.222 E115.43364
G1 X68.433 Y142.745 E115.459
G1 X65.59 Y139.902 E115.73982
G1 X65.59 Y67.773 E120.77777
G1 X65.611 Y67.467 E120.79919
G1 X65.666 Y67.188 E120.81905
G1 X65.755 Y66.925 E120.83845
G1 X65.877 Y66.677 E120.85775
G1 X66.041 Y66.433 E120.87828
G1 X66.224 Y66.224 E120.89769
G1 X66.433 Y66.041 E120.91709
G1 X66.677 Y65.877 E120.93762
G1 X66.925 Y65.755 E120.95693
G1 X67.188 Y65.666 E120.97632
G1 X67.466 Y65.611 E120.99612
G1 X67.777 Y65.59 E121.01789
G1 X139.902 Y65.59 E126.05555
G1 X142.745 Y68.433 E126.33638
G1 X143.222 Y68.91 E126.38349
G1 X142.548 Y68.91 E126.40883
G1 X142.547 Y68.91 E126.4089
G1 X114.41 Y68.91 E128.37416
M204 S3000
M205 X10 Y10
G0 F3000 X114.34 Y68.84
G0 X109.255 Y70.729
G0 X109.185 Y70.799
M204 S1800
M205 X8 Y8
G1 F1800 X108.61 Y70.365 E128.42448
G1 X107.949 Y70.095 E128.47435
G1 X107.237 Y70.004 E128.52449
G1 X106.524 Y70.102 E128.57476
G1 X105.869 Y70.378 E128.6244
G1 X105.307 Y70.806 E128.67374
G1 X104.871 Y71.377 E128.72392
G1 X104.596 Y72.039 E128.77399
G1 X104.503 Y72.75 E128.82407
G1 X104.596 Y73.461 E128.87416
G1 X104.871 Y74.123 E128.92423
G1 X105.306 Y74.694 E128.97436
