;FLAVOR:Marlin
;TIME:3158
;Filament used: 3.36233m
;Layer height: 0.2
;Generated with Cura_SteamEngine 3.4.1
M190 S60
M104 S200
M109 S200
M82 ;absolute extrusion mode
G21 ;metric values
G90 ;absolute positioning
M82 ;set extruder to absolute mode
M107 ;start with the fan off
G28 X0 Y0 ;move X/Y to min endstops
G28 Z0 ;move Z to min endstops
G1 Z15.0 F100 ;move the platform down 15mm
G92 E0 ;zero the extruded length
G1 F200 E3 ;extrude 3mm of feed stock
G92 E0 ;zero the extruded length again
G1 F100
M117 Printing...
G5
G92 E0
G1 F2400 E-6
;LAYER_COUNT:312
;LAYER:0
M106 S255
M204 S3000
M205 X10 Y10
G0 F3000 X95.551 Y96.173 Z0.2
M204 S1800
M205 X8 Y8
;TYPE:SKIRT
G1 F2400 E0
G1 X96.441 Y95.313 E0.05763
G1 X97.004 Y94.824 E0.09235
G1 X97.343 Y94.576 E0.11191
G1 X98.045 Y94.095 E0.15154
G1 X98.682 Y93.707 E0.18627
G1 X99.215 Y93.449 E0.21384
G1 X100.507 Y92.89 E0.27939
G1 X101.207 Y92.631 E0.31414
G1 X101.667 Y92.505 E0.33635
G1 X102.351 Y92.343 E0.36908
G1 X103.085 Y92.211 E0.40381
G1 X103.539 Y92.168 E0.42505
G1 X104.91 Y92.086 E0.489
G1 X105.656 Y92.082 E0.52374
G1 X106.506 Y92.175 E0.56355
G1 X107.878 Y92.411 E0.62838
G1 X108.605 Y92.576 E0.66309
G1 X109.411 Y92.861 E0.7029
G1 X110.682 Y93.399 E0.76716
G1 X111.352 Y93.726 E0.80188
G1 X112.094 Y94.202 E0.84293
G1 X113.233 Y95.04 E0.90877
G1 X113.809 Y95.513 E0.94348
G1 X114.359 Y96.077 E0.98016
G1 X115.136 Y96.97 E1.03528
G1 X115.594 Y97.559 E1.07002
G1 X115.955 Y98.134 E1.10164
G1 X116.608 Y99.298 E1.16378
G1 X116.938 Y99.967 E1.19852
G1 X117.146 Y100.518 E1.22594
G1 X117.466 Y101.486 E1.27342
G1 X117.662 Y102.206 E1.30816
G1 X117.771 Y102.861 E1.33908
G1 X117.929 Y104.209 E1.40228
G1 X117.976 Y104.953 E1.43699
G1 X117.941 Y105.712 E1.47237
G1 X117.823 Y106.891 E1.52754
G1 X117.709 Y107.628 E1.56227
G1 X117.527 Y108.32 E1.59559
G1 X117.107 Y109.632 E1.65973
G1 X116.841 Y110.329 E1.69447
G1 X116.602 Y110.817 E1.71978
G1 X116.164 Y111.628 E1.76269
G1 X115.775 Y112.265 E1.79745
G1 X115.41 Y112.748 E1.82564
G1 X114.551 Y113.79 E1.88852
G1 X114.047 Y114.34 E1.92326
G1 X113.524 Y114.802 E1.95575
G1 X112.651 Y115.499 E2.00777
G1 X112.044 Y115.933 E2.04252
G1 X111.355 Y116.317 E2.07924
G1 X109.969 Y116.992 E2.15103
G1 X109.282 Y117.283 E2.18577
G1 X108.713 Y117.461 E2.21353
G1 X107.898 Y117.678 E2.2528
G1 X106.941 Y117.862 E2.29818
G1 X106.154 Y117.957 E2.33509
G1 X105.41 Y118.006 E2.36981
G1 X104.909 Y117.995 E2.39315
G1 X103.573 Y117.916 E2.45546
G1 X102.832 Y117.832 E2.49019
G1 X102.209 Y117.698 E2.51986
G1 X101.223 Y117.438 E2.56734
G1 X100.513 Y117.209 E2.60208
G1 X99.871 Y116.926 E2.63475
G1 X98.515 Y116.244 E2.70543
G1 X97.867 Y115.873 E2.7402
G1 X97.345 Y115.501 E2.77005
G1 X96.615 Y114.928 E2.81326
G1 X96.053 Y114.437 E2.84801
G1 X95.703 Y114.069 E2.87166
G1 X94.941 Y113.209 E2.92516
G1 X94.477 Y112.625 E2.95989
G1 X94.103 Y112.039 E2.99226
G1 X93.426 Y110.851 E3.05593
G1 X93.092 Y110.184 E3.09067
G1 X92.797 Y109.373 E3.13085
G1 X92.396 Y108.013 E3.19687
G1 X92.224 Y107.288 E3.23157
G1 X92.138 Y106.642 E3.26191
G1 X92.05 Y105.62 E3.30968
G1 X92.026 Y104.875 E3.34439
G1 X92.071 Y104.215 E3.37519
G1 X92.229 Y102.863 E3.43857
G1 X92.355 Y102.128 E3.4733
G1 X92.596 Y101.307 E3.51314
G1 X93.073 Y99.986 E3.57854
G1 X93.363 Y99.299 E3.61326
G1 X93.798 Y98.535 E3.6542
G1 X94.566 Y97.363 E3.71945
G1 X95.007 Y96.762 E3.75416
G1 X95.551 Y96.173 E3.79149
M204 S3000
M205 X10 Y10
G0 F3000 X95.94 Y96.576
M204 S1800
M205 X8 Y8
G1 F2400 X96.83 Y95.716 E3.84912
G1 X97.66 Y95.038 E3.89902
G1 X98.362 Y94.557 E3.93865
G1 X98.973 Y94.187 E3.97191
G1 X99.438 Y93.963 E3.99594
G1 X100.73 Y93.404 E4.06149
G1 X101.401 Y93.157 E4.09479
G1 X101.796 Y93.05 E4.11384
G1 X102.48 Y92.888 E4.14657
G1 X103.184 Y92.763 E4.17987
G1 X103.573 Y92.727 E4.19806
G1 X104.944 Y92.645 E4.26201
G1 X105.659 Y92.643 E4.29531
G1 X106.411 Y92.727 E4.33054
G1 X107.783 Y92.963 E4.39537
G1 X108.48 Y93.123 E4.42866
G1 X109.193 Y93.376 E4.46389
G1 X110.464 Y93.914 E4.52816
G1 X111.106 Y94.229 E4.56146
G1 X111.762 Y94.653 E4.59783
G1 X112.901 Y95.491 E4.66367
G1 X113.452 Y95.946 E4.69695
G1 X113.936 Y96.445 E4.72932
G1 X114.713 Y97.338 E4.78444
G1 X115.152 Y97.903 E4.81775
G1 X115.467 Y98.408 E4.84547
G1 X116.12 Y99.572 E4.90762
G1 X116.434 Y100.214 E4.94089
G1 X116.615 Y100.694 E4.96478
G1 X116.935 Y101.662 E5.01225
G1 X117.121 Y102.353 E5.04557
G1 X117.214 Y102.926 E5.07261
G1 X117.372 Y104.274 E5.1358
G1 X117.416 Y104.988 E5.16911
G1 X117.384 Y105.656 E5.20025
G1 X117.266 Y106.835 E5.25543
G1 X117.155 Y107.542 E5.28875
G1 X116.993 Y108.149 E5.31801
G1 X116.573 Y109.461 E5.38215
G1 X116.318 Y110.129 E5.41545
G1 X116.109 Y110.551 E5.43737
G1 X115.671 Y111.362 E5.48029
G1 X115.297 Y111.972 E5.51361
G1 X114.978 Y112.392 E5.53817
G1 X114.119 Y113.434 E5.60105
G1 X113.634 Y113.96 E5.63437
G1 X113.174 Y114.364 E5.66287
G1 X112.301 Y115.061 E5.71489
G1 X111.718 Y115.476 E5.74821
G1 X111.11 Y115.814 E5.7806
G1 X109.724 Y116.489 E5.85239
G1 X109.065 Y116.766 E5.88568
G1 X108.569 Y116.92 E5.90986
G1 X107.754 Y117.137 E5.94913
G1 X106.874 Y117.306 E5.99086
G1 X106.087 Y117.401 E6.02777
G1 X105.373 Y117.447 E6.06108
G1 X104.942 Y117.436 E6.08116
G1 X103.606 Y117.357 E6.14348
G1 X102.896 Y117.275 E6.17676
G1 X102.352 Y117.156 E6.20269
G1 X101.366 Y116.896 E6.25017
G1 X100.686 Y116.676 E6.28345
G1 X100.122 Y116.426 E6.31218
G1 X98.766 Y115.744 E6.38285
G1 X98.146 Y115.387 E6.41617
G1 X97.69 Y115.06 E6.4423
G1 X96.96 Y114.487 E6.48551
G1 X96.423 Y114.015 E6.5188
G1 X96.122 Y113.697 E6.53919
G1 X95.36 Y112.837 E6.59269
G1 X94.916 Y112.276 E6.62601
G1 X94.59 Y111.762 E6.65435
G1 X93.913 Y110.574 E6.71802
G1 X93.594 Y109.933 E6.75136
G1 X93.334 Y109.215 E6.78691
G1 X92.933 Y107.855 E6.85294
G1 X92.77 Y107.159 E6.88622
G1 X92.696 Y106.594 E6.91276
G1 X92.608 Y105.572 E6.96052
G1 X92.586 Y104.857 E6.99383
G1 X92.627 Y104.28 E7.02077
G1 X92.785 Y102.928 E7.08415
G1 X92.908 Y102.223 E7.11747
G1 X93.122 Y101.497 E7.15272
G1 X93.599 Y100.176 E7.21811
G1 X93.88 Y99.518 E7.25143
G1 X94.266 Y98.842 E7.28768
G1 X95.034 Y97.67 E7.35292
G1 X95.459 Y97.095 E7.38622
G1 X95.94 Y96.576 E7.41917
M204 S3000
M205 X10 Y10
G0 F3000 X96.329 Y96.978
M204 S1800
M205 X8 Y8
G1 F2400 X97.219 Y96.118 E7.4768
G1 X97.976 Y95.5 E7.5223
G1 X98.678 Y95.019 E7.56193
G1 X99.263 Y94.667 E7.59372
G1 X99.66 Y94.477 E7.61421
G1 X100.952 Y93.918 E7.67976
G1 X101.594 Y93.684 E7.71158
G1 X101.925 Y93.595 E7.72754
G1 X102.609 Y93.433 E7.76027
G1 X103.606 Y93.286 E7.8072
G1 X104.977 Y93.204 E7.87115
G1 X105.661 Y93.204 E7.903
G1 X106.316 Y93.279 E7.9337
G1 X107.688 Y93.515 E7.99852
G1 X108.353 Y93.67 E8.03032
G1 X108.974 Y93.892 E8.06103
G1 X110.245 Y94.43 E8.12529
G1 X110.858 Y94.733 E8.15714
G1 X111.43 Y95.104 E8.18888
G1 X112.569 Y95.942 E8.25473
G1 X113.095 Y96.378 E8.28654
G1 X113.514 Y96.813 E8.31466
G1 X114.291 Y97.706 E8.36978
G1 X114.708 Y98.246 E8.40155
G1 X114.978 Y98.682 E8.42543
G1 X115.631 Y99.846 E8.48758
G1 X115.93 Y100.46 E8.51938
G1 X116.083 Y100.87 E8.53975
G1 X116.403 Y101.838 E8.58723
G1 X116.579 Y102.498 E8.61903
G1 X116.658 Y102.991 E8.64228
G1 X116.816 Y104.339 E8.70548
G1 X116.856 Y105.021 E8.73729
G1 X116.827 Y105.601 E8.76433
G1 X116.709 Y106.78 E8.81951
G1 X116.601 Y107.454 E8.85129
G1 X116.46 Y107.979 E8.8766
G1 X116.04 Y109.291 E8.94075
G1 X115.794 Y109.928 E8.97255
G1 X115.616 Y110.285 E8.99112
G1 X115.178 Y111.096 E9.03404
G1 X114.819 Y111.677 E9.06584
G1 X114.546 Y112.036 E9.08684
G1 X113.687 Y113.078 E9.14973
G1 X113.223 Y113.579 E9.18152
G1 X112.825 Y113.927 E9.20614
G1 X111.952 Y114.624 E9.25816
G1 X111.394 Y115.018 E9.28996
G1 X110.865 Y115.31 E9.3181
G1 X109.479 Y115.985 E9.38989
G1 X108.848 Y116.248 E9.42172
G1 X108.425 Y116.378 E9.44232
G1 X107.61 Y116.595 E9.48159
G1 X106.807 Y116.75 E9.51968
G1 X106.02 Y116.845 E9.55659
G1 X105.338 Y116.887 E9.58841
G1 X104.975 Y116.877 E9.60531
G1 X103.639 Y116.798 E9.66763
G1 X102.961 Y116.718 E9.69942
G1 X102.495 Y116.615 E9.72165
G1 X101.509 Y116.355 E9.76913
G1 X100.86 Y116.142 E9.80093
G1 X100.374 Y115.925 E9.82572
G1 X99.018 Y115.243 E9.89639
G1 X98.427 Y114.901 E9.92819
G1 X98.036 Y114.62 E9.95061
G1 X97.306 Y114.047 E9.99382
G1 X96.794 Y113.594 E10.02565
G1 X96.541 Y113.326 E10.04282
G1 X95.779 Y112.466 E10.09632
G1 X95.357 Y111.929 E10.12812
G1 X95.076 Y111.484 E10.15263
G1 X94.399 Y110.296 E10.2163
G1 X94.096 Y109.684 E10.2481
G1 X93.871 Y109.057 E10.27912
G1 X93.47 Y107.697 E10.34514
G1 X93.316 Y107.031 E10.37697
G1 X93.254 Y106.546 E10.39974
G1 X93.166 Y105.524 E10.4475
G1 X93.147 Y104.841 E10.47932
G1 X93.183 Y104.345 E10.50247
G1 X93.341 Y102.993 E10.56586
G1 X93.46 Y102.32 E10.59768
G1 X93.649 Y101.688 E10.6284
G1 X94.126 Y100.367 E10.69379
G1 X94.395 Y99.739 E10.72561
G1 X94.734 Y99.149 E10.75729
G1 X95.502 Y97.977 E10.82254
G1 X95.91 Y97.429 E10.85435
G1 X96.329 Y96.978 E10.88302
M204 S3000
M205 X10 Y10
G0 F3000 X96.718 Y97.381
M204 S1800
M205 X8 Y8
G1 F2400 X97.608 Y96.521 E10.94064
G1 X98.293 Y95.962 E10.98181
G1 X98.995 Y95.481 E11.02144
G1 X99.552 Y95.148 E11.05166
G1 X99.882 Y94.991 E11.06867
G1 X101.174 Y94.432 E11.13422
G1 X102.054 Y94.14 E11.1774
G1 X102.738 Y93.978 E11.21013
G1 X103.64 Y93.845 E11.25258
G1 X105.011 Y93.763 E11.31654
G1 X105.66 Y93.765 E11.34676
G1 X106.221 Y93.83 E11.37305
G1 X107.593 Y94.066 E11.43788
G1 X108.225 Y94.216 E11.46812
G1 X108.756 Y94.408 E11.49442
G1 X110.027 Y94.946 E11.55868
G1 X110.609 Y95.235 E11.58894
G1 X111.098 Y95.555 E11.61615
G1 X112.237 Y96.393 E11.682
G1 X112.736 Y96.809 E11.71225
G1 X113.091 Y97.18 E11.73616
G1 X113.868 Y98.073 E11.79128
G1 X114.264 Y98.589 E11.82156
G1 X114.49 Y98.956 E11.84163
G1 X115.143 Y100.12 E11.90378
G1 X115.425 Y100.705 E11.93402
G1 X115.551 Y101.046 E11.95095
G1 X115.871 Y102.014 E11.99842
G1 X116.037 Y102.642 E12.02867
G1 X116.102 Y103.056 E12.04818
G1 X116.26 Y104.404 E12.11138
G1 X116.296 Y105.053 E12.14165
G1 X116.27 Y105.545 E12.16459
G1 X116.152 Y106.724 E12.21976
G1 X116.047 Y107.365 E12.25001
G1 X115.927 Y107.808 E12.27138
G1 X115.507 Y109.12 E12.33553
G1 X115.271 Y109.725 E12.36576
G1 X115.124 Y110.019 E12.38107
G1 X114.686 Y110.83 E12.42399
G1 X114.342 Y111.382 E12.45427
G1 X114.114 Y111.68 E12.47175
G1 X113.255 Y112.722 E12.53463
G1 X112.812 Y113.196 E12.56484
G1 X112.475 Y113.489 E12.58563
G1 X111.602 Y114.186 E12.63765
G1 X111.071 Y114.56 E12.66789
G1 X110.62 Y114.807 E12.69184
G1 X109.234 Y115.482 E12.76362
G1 X108.633 Y115.73 E12.79389
G1 X108.281 Y115.837 E12.81103
G1 X107.466 Y116.054 E12.8503
G1 X106.74 Y116.194 E12.88473
G1 X105.953 Y116.289 E12.92164
G1 X105.008 Y116.318 E12.96566
G1 X103.672 Y116.239 E13.02798
G1 X103.027 Y116.161 E13.05823
G1 X102.638 Y116.073 E13.0768
G1 X101.652 Y115.813 E13.12429
G1 X101.035 Y115.61 E13.15453
G1 X100.626 Y115.425 E13.17543
G1 X99.27 Y114.743 E13.24611
G1 X98.708 Y114.416 E13.27639
G1 X98.382 Y114.179 E13.29515
G1 X97.652 Y113.606 E13.33837
G1 X96.96 Y112.955 E13.38261
G1 X96.198 Y112.095 E13.43611
G1 X95.798 Y111.583 E13.46636
G1 X95.563 Y111.207 E13.48701
G1 X94.886 Y110.019 E13.55068
G1 X94.599 Y109.436 E13.58094
G1 X94.409 Y108.898 E13.60751
G1 X94.008 Y107.538 E13.67353
G1 X93.863 Y106.905 E13.70377
G1 X93.811 Y106.498 E13.72287
G1 X93.723 Y105.476 E13.77064
G1 X93.708 Y104.827 E13.80087
G1 X93.74 Y104.41 E13.82034
G1 X93.898 Y103.058 E13.88372
G1 X94.013 Y102.419 E13.91396
G1 X94.176 Y101.878 E13.94027
G1 X94.653 Y100.557 E14.00567
G1 X94.911 Y99.96 E14.03595
G1 X95.203 Y99.456 E14.06307
G1 X95.971 Y98.284 E14.12832
G1 X96.36 Y97.764 E14.15856
G1 X96.718 Y97.381 E14.18297
M204 S3000
M205 X10 Y10
G1 F2400 E8.18297
G0 F3000 X102.274 Y98.932
G0 X102.957 Y100.294
G0 X105.798 Y100.485
M204 S1800
M205 X8 Y8
;TYPE:WALL-INNER
G1 F2400 E14.18297
G1 F1500 X106.328 Y100.611 E14.20834
G1 X106.828 Y100.793 E14.23311
G1 X107.314 Y101.037 E14.25843
G1 X107.77 Y101.337 E14.28385
G1 X108.171 Y101.675 E14.30827
G1 X108.538 Y102.065 E14.33321
G1 X108.866 Y102.507 E14.35884
G1 X109.135 Y102.975 E14.38397
G1 X109.347 Y103.465 E14.40883
G1 X109.502 Y103.982 E14.43397
G1 X109.593 Y104.495 E14.45823
G1 X109.623 Y105.04 E14.48364
G1 X109.593 Y105.583 E14.50896
G1 X109.499 Y106.111 E14.53394
G1 X109.349 Y106.61 E14.5582
G1 X109.129 Y107.118 E14.58398
G1 X108.856 Y107.589 E14.60933
G1 X108.539 Y108.015 E14.63405
G1 X108.171 Y108.407 E14.65909
G1 X107.766 Y108.745 E14.68365
G1 X107.3 Y109.052 E14.70964
G1 X106.828 Y109.289 E14.73423
G1 X106.322 Y109.47 E14.75925
G1 X105.795 Y109.597 E14.78449
G1 X105.278 Y109.655 E14.80872
G1 X104.724 Y109.656 E14.83452
G1 X104.202 Y109.594 E14.85899
G1 X103.676 Y109.468 E14.88418
G1 X103.171 Y109.289 E14.90913
G1 X102.696 Y109.05 E14.93389
G1 X102.238 Y108.748 E14.95943
G1 X101.832 Y108.41 E14.98403
G1 X101.452 Y108.007 E15.00982
G1 X101.142 Y107.589 E15.03406
G1 X100.869 Y107.119 E15.05937
G1 X100.649 Y106.612 E15.0851
G1 X100.499 Y106.111 E15.10945
G1 X100.406 Y105.586 E15.13428
G1 X100.377 Y105.04 E15.15974
G1 X100.407 Y104.494 E15.1852
G1 X100.5 Y103.968 E15.21007
G1 X100.651 Y103.466 E15.23448
G1 X100.869 Y102.963 E15.26001
G1 X101.143 Y102.49 E15.28546
G1 X101.46 Y102.064 E15.31019
G1 X101.828 Y101.672 E15.33523
G1 X102.233 Y101.334 E15.35979
G1 X102.699 Y101.028 E15.38575
G1 X103.169 Y100.793 E15.41022
G1 X103.681 Y100.607 E15.43558
G1 X104.206 Y100.486 E15.46067
G1 X104.732 Y100.424 E15.48533
G1 X105.277 Y100.424 E15.51071
G1 X105.798 Y100.485 E15.53513
M204 S3000
M205 X10 Y10
G0 F3000 X105.898 Y99.933
M204 S1800
M205 X8 Y8
G1 F1500 X106.488 Y100.073 E15.56337
G1 X107.053 Y100.279 E15.59137
G1 X107.594 Y100.55 E15.61955
G1 X108.104 Y100.886 E15.64799
G1 X108.559 Y101.27 E15.67571
G1 X108.969 Y101.705 E15.70354
G1 X109.331 Y102.193 E15.73184
G1 X109.638 Y102.727 E15.76052
G1 X109.873 Y103.271 E15.78811
G1 X110.047 Y103.852 E15.81635
G1 X110.15 Y104.432 E15.84378
G1 X110.184 Y105.04 E15.87214
G1 X110.15 Y105.646 E15.9004
G1 X110.044 Y106.241 E15.92854
G1 X109.874 Y106.808 E15.95611
G1 X109.629 Y107.373 E15.98478
G1 X109.329 Y107.891 E16.01265
G1 X108.969 Y108.375 E16.04074
G1 X108.556 Y108.815 E16.06884
G1 X108.095 Y109.199 E16.09678
G1 X107.583 Y109.536 E16.12532
G1 X107.05 Y109.804 E16.1531
G1 X106.479 Y110.009 E16.18135
G1 X105.898 Y110.148 E16.20917
G1 X105.306 Y110.215 E16.23691
G1 X104.692 Y110.216 E16.2655
G1 X104.1 Y110.146 E16.29326
G1 X103.523 Y110.008 E16.32088
G1 X102.948 Y109.803 E16.34931
G1 X102.413 Y109.534 E16.37719
G1 X101.904 Y109.199 E16.40557
G1 X101.447 Y108.818 E16.43327
G1 X101.021 Y108.367 E16.46216
G1 X100.672 Y107.897 E16.48942
G1 X100.369 Y107.374 E16.51756
G1 X100.124 Y106.809 E16.54624
G1 X99.954 Y106.241 E16.57385
G1 X99.849 Y105.649 E16.60184
G1 X99.816 Y105.04 E16.63024
G1 X99.85 Y104.431 E16.65864
G1 X99.955 Y103.838 E16.68669
G1 X100.125 Y103.272 E16.7142
G1 X100.37 Y102.706 E16.74292
G1 X100.67 Y102.188 E16.7708
G1 X101.03 Y101.704 E16.79888
G1 X101.443 Y101.264 E16.82698
G1 X101.904 Y100.88 E16.85492
G1 X102.416 Y100.543 E16.88346
G1 X102.95 Y100.276 E16.91126
G1 X103.517 Y100.071 E16.93934
G1 X104.111 Y99.933 E16.96773
G1 X104.701 Y99.864 E16.99539
G1 X105.308 Y99.864 E17.02366
G1 X105.898 Y99.933 E17.05132
M204 S3000
M205 X10 Y10
G0 F3000 X106 Y99.381
M204 S1800
M205 X8 Y8
;TYPE:WALL-OUTER
G1 F1500 X106.646 Y99.535 E17.08224
G1 X107.278 Y99.765 E17.11356
G1 X107.874 Y100.064 E17.14461
G1 X108.437 Y100.435 E17.176
G1 X108.942 Y100.86 E17.20674
G1 X109.404 Y101.35 E17.2381
G1 X109.801 Y101.885 E17.26912
G1 X110.138 Y102.472 E17.30063
G1 X110.402 Y103.083 E17.33163
G1 X110.591 Y103.717 E17.36243
G1 X110.707 Y104.369 E17.39327
G1 X110.745 Y105.04 E17.42456
G1 X110.707 Y105.709 E17.45577
G1 X110.589 Y106.371 E17.48708
G1 X110.399 Y107.005 E17.5179
G1 X110.131 Y107.623 E17.54926
G1 X109.797 Y108.201 E17.58035
G1 X109.402 Y108.731 E17.61113
G1 X108.937 Y109.226 E17.64275
G1 X108.429 Y109.65 E17.67356
G1 X107.863 Y110.023 E17.70513
G1 X107.272 Y110.319 E17.7359
G1 X106.639 Y110.547 E17.76723
G1 X106.001 Y110.699 E17.79777
G1 X105.334 Y110.775 E17.82903
G1 X104.66 Y110.776 E17.86041
G1 X103.998 Y110.698 E17.89145
G1 X103.367 Y110.547 E17.92167
G1 X102.724 Y110.317 E17.95346
