;FLAVOR:Marlin
;TIME:2121
;Filament used: 2.25195m
;Layer height: 0.2
;Generated with Cura_SteamEngine 3.4.1
M190 S60
M104 S200
M109 S200
M82 ;absolute extrusion mode
G21 ;metric values
G90 ;absolute positioning
M82 ;set extruder to absolute mode
M107 ;start with the fan off
G28 X0 Y0 ;move X/Y to min endstops
G28 Z0 ;move Z to min endstops
G1 Z15.0 F100 ;move the platform down 15mm
G92 E0 ;zero the extruded length
G1 F200 E3 ;extrude 3mm of feed stock
G92 E0 ;zero the extruded length again
G1 F100
M117 Printing...
G5
G92 E0
G1 F2400 E-6
;LAYER_COUNT:176
;LAYER:0
M106 S255
M204 S3000
M205 X10 Y10
G0 F3000 X89.735 Y82.996 Z0.2
M204 S1800
M205 X8 Y8
;TYPE:SKIRT
G1 F2400 E0
G1 X90.267 Y82.518 E0.0333
G1 X90.848 Y82.102 E0.06658
G1 X91.473 Y81.754 E0.09989
G1 X92.133 Y81.477 E0.13322
G1 X92.819 Y81.276 E0.1665
G1 X93.524 Y81.153 E0.19982
G1 X94.273 Y81.109 E0.23476
G1 X115.728 Y81.11 E1.2338
G1 X116.442 Y81.15 E1.2671
G1 X117.148 Y81.269 E1.30043
G1 X117.835 Y81.467 E1.33373
G1 X118.496 Y81.74 E1.36703
G1 X119.123 Y82.085 E1.40035
G1 X119.707 Y82.497 E1.43363
G1 X120.242 Y82.973 E1.46697
G1 X120.72 Y83.505 E1.50028
G1 X121.135 Y84.087 E1.53356
G1 X121.484 Y84.711 E1.56685
G1 X121.76 Y85.371 E1.60016
G1 X121.961 Y86.058 E1.63349
G1 X122.084 Y86.762 E1.66677
G1 X122.128 Y87.505 E1.70143
G1 X122.137 Y99.079 E2.24036
G1 X122.129 Y99.411 E2.25583
G1 X122.042 Y101.114 E2.33523
G1 X121.903 Y102.149 E2.38386
G1 X121.714 Y103.017 E2.42522
G1 X121.468 Y103.864 E2.46629
G1 X121.14 Y104.756 E2.51055
G1 X120.856 Y105.412 E2.54383
G1 X120.541 Y105.97 E2.57367
G1 X119.549 Y107.537 E2.66003
G1 X119.133 Y108.119 E2.69334
G1 X118.425 Y108.869 E2.74136
G1 X105.709 Y120.325 E3.53833
G1 X101.736 Y124.078 E3.79282
G1 X98.793 Y127.006 E3.98612
G1 X98.259 Y127.481 E4.0194
G1 X97.675 Y127.894 E4.05271
G1 X97.048 Y128.239 E4.08603
G1 X96.387 Y128.512 E4.11933
G1 X95.699 Y128.709 E4.15266
G1 X94.994 Y128.829 E4.18596
G1 X94.28 Y128.869 E4.21926
G1 X93.566 Y128.829 E4.25256
G1 X92.861 Y128.71 E4.28585
G1 X92.173 Y128.513 E4.31917
G1 X91.512 Y128.24 E4.35247
G1 X90.885 Y127.895 E4.3858
G1 X90.301 Y127.482 E4.4191
G1 X89.766 Y127.007 E4.45242
G1 X89.288 Y126.475 E4.48572
G1 X88.872 Y125.893 E4.51903
G1 X88.524 Y125.269 E4.5523
G1 X88.247 Y124.609 E4.58563
G1 X88.046 Y123.923 E4.61891
G1 X87.923 Y123.218 E4.65224
G1 X87.879 Y122.47 E4.68713
G1 X87.873 Y87.51 E6.31501
G1 X87.913 Y86.796 E6.34831
G1 X88.032 Y86.091 E6.3816
G1 X88.229 Y85.403 E6.41493
G1 X88.502 Y84.742 E6.44823
G1 X88.847 Y84.115 E6.48155
G1 X89.259 Y83.531 E6.51483
G1 X89.735 Y82.996 E6.54818
M204 S3000
M205 X10 Y10
G0 F3000 X90.286 Y83.242
M204 S1800
M205 X8 Y8
G1 F2400 X90.811 Y82.806 E6.57995
G1 X91.384 Y82.434 E6.61176
G1 X91.997 Y82.131 E6.6436
G1 X92.64 Y81.902 E6.67539
G1 X93.306 Y81.75 E6.7072
G1 X94.273 Y81.669 E6.75238
G1 X115.728 Y81.67 E7.75142
G1 X116.41 Y81.71 E7.78323
G1 X117.083 Y81.829 E7.81505
G1 X117.737 Y82.027 E7.84687
G1 X118.364 Y82.299 E7.87869
G1 X118.954 Y82.642 E7.91047
G1 X119.501 Y83.052 E7.9423
G1 X119.996 Y83.523 E7.97412
G1 X120.432 Y84.049 E8.00593
G1 X120.804 Y84.622 E8.03774
G1 X121.107 Y85.235 E8.06958
G1 X121.336 Y85.879 E8.10141
G1 X121.488 Y86.545 E8.13322
G1 X121.568 Y87.505 E8.17808
G1 X121.577 Y99.079 E8.71701
G1 X121.569 Y99.382 E8.73112
G1 X121.482 Y101.085 E8.81053
G1 X121.356 Y102.029 E8.85487
G1 X121.167 Y102.897 E8.89624
G1 X120.942 Y103.671 E8.93377
G1 X120.614 Y104.563 E8.97802
G1 X120.341 Y105.189 E9.00983
G1 X120.067 Y105.671 E9.03564
G1 X119.075 Y107.238 E9.122
G1 X118.677 Y107.793 E9.1538
G1 X118.05 Y108.453 E9.19619
G1 X105.345 Y119.898 E9.99243
G1 X101.333 Y123.689 E10.24946
G1 X98.398 Y126.609 E10.44224
G1 X97.886 Y127.062 E10.47407
G1 X97.325 Y127.451 E10.50586
G1 X96.723 Y127.773 E10.53765
G1 X96.086 Y128.022 E10.56949
G1 X95.425 Y128.195 E10.60131
G1 X94.749 Y128.29 E10.6331
G1 X94.066 Y128.305 E10.66491
G1 X93.386 Y128.24 E10.69672
G1 X92.718 Y128.096 E10.72854
G1 X92.071 Y127.876 E10.76036
G1 X91.455 Y127.581 E10.79216
G1 X90.877 Y127.216 E10.82399
G1 X90.346 Y126.786 E10.85581
G1 X89.869 Y126.297 E10.88762
G1 X89.452 Y125.756 E10.91942
G1 X89.101 Y125.17 E10.95123
G1 X88.821 Y124.546 E10.98308
G1 X88.616 Y123.895 E11.01486
G1 X88.488 Y123.224 E11.04666
G1 X88.439 Y122.47 E11.08185
G1 X88.433 Y87.51 E12.70973
G1 X88.473 Y86.828 E12.74154
G1 X88.592 Y86.155 E12.77337
G1 X88.789 Y85.501 E12.80517
G1 X89.061 Y84.874 E12.837
G1 X89.405 Y84.284 E12.8688
G1 X89.815 Y83.737 E12.90063
G1 X90.286 Y83.242 E12.93245
M204 S3000
M205 X10 Y10
G0 F3000 X90.369 Y83.955
M204 S1800
M205 X8 Y8
G1 F2400 X90.835 Y83.502 E12.96271
G1 X91.353 Y83.11 E12.99296
G1 X91.915 Y82.785 E13.02319
G1 X92.513 Y82.531 E13.05344
G1 X93.138 Y82.353 E13.0837
G1 X93.779 Y82.252 E13.11391
G1 X94.273 Y82.229 E13.13694
G1 X115.728 Y82.23 E14.13598
G1 X116.377 Y82.27 E14.16625
G1 X117.015 Y82.389 E14.19647
G1 X117.634 Y82.586 E14.22672
G1 X118.224 Y82.857 E14.25695
G1 X118.777 Y83.199 E14.28723
G1 X119.283 Y83.606 E14.31747
G1 X119.736 Y84.072 E14.34773
G1 X120.127 Y84.591 E14.37799
G1 X120.453 Y85.153 E14.40824
G1 X120.706 Y85.751 E14.43848
G1 X120.885 Y86.376 E14.46875
G1 X120.985 Y87.017 E14.49896
G1 X121.008 Y87.506 E14.52175
G1 X121.017 Y99.08 E15.06069
G1 X121.01 Y99.353 E15.0734
G1 X120.923 Y101.056 E15.1528
G1 X120.809 Y101.91 E15.19292
G1 X120.62 Y102.778 E15.23429
G1 X120.417 Y103.477 E15.26818
G1 X120.089 Y104.369 E15.31244
G1 X119.827 Y104.964 E15.34271
G1 X119.594 Y105.371 E15.36455
G1 X118.602 Y106.938 E15.4509
G1 X118.222 Y107.465 E15.48116
G1 X117.675 Y108.037 E15.51801
G1 X104.96 Y119.492 E16.31491
G1 X100.949 Y123.281 E16.57183
G1 X98.003 Y126.212 E16.76534
G1 X97.515 Y126.641 E16.7956
G1 X96.979 Y127.007 E16.82582
G1 X96.401 Y127.304 E16.85608
G1 X95.791 Y127.528 E16.88634
G1 X95.158 Y127.675 E16.9166
G1 X94.512 Y127.744 E16.94685
G1 X93.863 Y127.733 E16.97707
G1 X93.22 Y127.642 E17.00731
G1 X92.592 Y127.472 E17.03761
G1 X91.991 Y127.227 E17.06783
G1 X91.424 Y126.91 E17.09807
G1 X90.9 Y126.526 E17.12832
G1 X90.427 Y126.081 E17.15856
G1 X90.013 Y125.58 E17.18883
G1 X89.663 Y125.033 E17.21907
G1 X89.383 Y124.447 E17.24931
G1 X89.178 Y123.83 E17.27958
G1 X89.049 Y123.194 E17.3098
G1 X88.999 Y122.47 E17.34359
G1 X88.993 Y87.51 E18.97148
G1 X89.033 Y86.862 E19.00171
G1 X89.152 Y86.223 E19.03197
G1 X89.349 Y85.604 E19.06222
G1 X89.62 Y85.014 E19.09245
G1 X89.962 Y84.461 E19.12273
G1 X90.369 Y83.955 E19.15297
M204 S3000
M205 X10 Y10
G1 F2400 E13.15297
G0 F3000 X93.598 Y88.354
G0 X95.117 Y88.354
G0 X106.141 Y97.037
M204 S1800
M205 X8 Y8
;TYPE:WALL-INNER
G1 F2400 E19.15297
G1 F1500 X105.343 Y97.37 E19.19323
G1 X104.659 Y97.894 E19.23335
G1 X104.132 Y98.582 E19.27371
G1 X103.8 Y99.381 E19.314
G1 X103.688 Y100.237 E19.3542
G1 X103.8 Y101.094 E19.39444
G1 X104.132 Y101.892 E19.43469
G1 X104.658 Y102.58 E19.47501
G1 X105.343 Y103.105 E19.5152
G1 X106.143 Y103.438 E19.55555
G1 X107 Y103.549 E19.59579
G1 X107.857 Y103.438 E19.63603
G1 X108.656 Y103.106 E19.67632
G1 X109.342 Y102.579 E19.7166
G1 X109.869 Y101.893 E19.75688
G1 X110.201 Y101.094 E19.79717
G1 X110.312 Y100.237 E19.8374
G1 X110.201 Y99.382 E19.87755
G1 X109.869 Y98.582 E19.91788
G1 X109.342 Y97.894 E19.95824
G1 X108.655 Y97.369 E19.9985
G1 X107.857 Y97.037 E20.03874
G1 X107 Y96.925 E20.07899
G1 X106.141 Y97.037 E20.11933
M204 S3000
M205 X10 Y10
G0 F3000 X105.03 Y98.266
G0 X104.587 Y98.844
G0 X98.301 Y116.482
M204 S1800
M205 X8 Y8
G1 F1500 X96.14 Y118.643 E20.26163
G1 X95.663 Y119.12 E20.29304
G1 X95.663 Y118.446 E20.30993
G1 X95.663 Y118.445 E20.30998
G1 X95.663 Y88.9 E21.68572
G1 X114.337 Y88.9 E22.55526
G1 X114.337 Y99.741 E23.06006
G1 X114.282 Y100.528 E23.0968
G1 X114.125 Y101.263 E23.13179
G1 X113.873 Y101.951 E23.16591
G1 X113.519 Y102.614 E23.20091
G1 X113.082 Y103.211 E23.23536
G1 X112.538 Y103.77 E23.27168
G1 X98.301 Y116.482 E24.16042
M204 S3000
M205 X10 Y10
G0 F3000 X98.686 Y116.889
M204 S1800
M205 X8 Y8
G1 F1500 X95.58 Y119.995 E24.36495
G1 X95.103 Y120.472 E24.39636
G1 X95.103 Y119.798 E24.41326
G1 X95.103 Y119.797 E24.4133
G1 X95.103 Y88.34 E25.87807
G1 X114.897 Y88.34 E26.79976
G1 X114.897 Y99.766 E27.33181
G1 X114.838 Y100.607 E27.37106
G1 X114.665 Y101.416 E27.40958
G1 X114.385 Y102.181 E27.44752
G1 X113.994 Y102.913 E27.48616
G1 X113.515 Y103.568 E27.52395
G1 X112.917 Y104.183 E27.56389
G1 X98.686 Y116.889 E28.45223
M204 S3000
M205 X10 Y10
G0 F3000 X98.618 Y116.817
G0 X106.264 Y102.988
G0 X106.289 Y102.892
M204 S1800
M205 X8 Y8
G1 F1500 X107 Y102.984 E28.48562
G1 X107.711 Y102.892 E28.519
G1 X108.373 Y102.617 E28.55238
G1 X108.943 Y102.18 E28.58582
G1 X109.38 Y101.61 E28.61927
G1 X109.655 Y100.948 E28.65265
G1 X109.747 Y100.237 E28.68603
G1 X109.655 Y99.528 E28.71932
G1 X109.38 Y98.864 E28.75279
G1 X108.943 Y98.294 E28.78623
G1 X108.373 Y97.858 E28.81965
G1 X107.711 Y97.583 E28.85302
G1 X107 Y97.49 E28.88641
G1 X106.288 Y97.583 E28.91985
G1 X105.626 Y97.859 E28.95325
G1 X105.058 Y98.294 E28.98656
G1 X104.621 Y98.864 E29.02
G1 X104.346 Y99.527 E29.05343
G1 X104.253 Y100.237 E29.08677
G1 X104.346 Y100.948 E29.12016
G1 X104.621 Y101.61 E29.15354
G1 X105.058 Y102.181 E29.18702
G1 X105.626 Y102.616 E29.22033
G1 X106.289 Y102.892 E29.25377
M204 S3000
M205 X10 Y10
G0 F3000 X106.435 Y102.346
M204 S1800
M205 X8 Y8
;TYPE:WALL-OUTER
G1 F1500 X107 Y102.419 E29.2803
G1 X107.565 Y102.346 E29.30683
G1 X108.091 Y102.128 E29.33334
G1 X108.544 Y101.781 E29.35991
G1 X108.891 Y101.328 E29.38648
G1 X109.109 Y100.802 E29.413
G1 X109.182 Y100.237 E29.43952
G1 X109.109 Y99.673 E29.46601
G1 X108.891 Y99.146 E29.49256
G1 X108.544 Y98.694 E29.5191
G1 X108.091 Y98.347 E29.54567
G1 X107.565 Y98.129 E29.57218
G1 X107 Y98.055 E29.59871
G1 X106.435 Y98.129 E29.62525
G1 X105.909 Y98.348 E29.65178
G1 X105.457 Y98.694 E29.67828
G1 X105.11 Y99.146 E29.70482
G1 X104.892 Y99.673 E29.73137
G1 X104.818 Y100.237 E29.75786
G1 X104.892 Y100.802 E29.78439
G1 X105.11 Y101.328 E29.81091
G1 X105.457 Y101.781 E29.83748
G1 X105.909 Y102.127 E29.86398
G1 X106.435 Y102.346 E29.89051
M204 S3000
M205 X10 Y10
G0 F3000 X106.633 Y102.371
G0 X106.549 Y103.026
G0 X98.632 Y116.805
G0 X99.071 Y117.296
M204 S1800
M205 X8 Y8
G1 F1500 X95.02 Y121.347 E30.15728
G1 X94.543 Y121.824 E30.18869
G1 X94.543 Y121.15 E30.20558
G1 X94.543 Y121.149 E30.20563
G1 X94.543 Y87.78 E31.75943
G1 X115.457 Y87.78 E32.73327
G1 X115.457 Y99.791 E33.29255
G1 X115.394 Y100.686 E33.33433
G1 X115.205 Y101.569 E33.37638
G1 X114.896 Y102.414 E33.41827
G1 X114.471 Y103.209 E33.46025
G1 X113.942 Y103.933 E33.502
G1 X113.303 Y104.589 E33.54465
G1 X99.071 Y117.296 E34.43306
M204 S3000
M205 X10 Y10
G0 F3000 X98.93 Y117.437
G0 X98.465 Y116.97
G0 X97.923 Y116.082
M204 S1800
M205 X8 Y8
;TYPE:SKIN
G1 F1500 X96.213 Y117.792 E34.54566
G1 X96.213 Y89.45 E35.86538
G1 X113.787 Y89.45 E36.6837
G1 X113.787 Y99.741 E37.1629
G1 X113.738 Y100.445 E37.19576
G1 X113.595 Y101.108 E37.22734
G1 X113.368 Y101.73 E37.25817
G1 X113.052 Y102.322 E37.28942
G1 X112.661 Y102.857 E37.32027
G1 X112.162 Y103.369 E37.35356
G1 X97.923 Y116.082 E38.2424
M204 S3000
M205 X10 Y10
G0 F3000 X105.066 Y103.585
M204 S1800
M205 X8 Y8
G1 F1500 X106 Y103.974 E38.28951
G1 X107 Y104.103 E38.33646
G1 X108 Y103.974 E38.38341
G1 X108.933 Y103.586 E38.43047
G1 X109.735 Y102.972 E38.4775
G1 X110.349 Y102.17 E38.52453
G1 X110.737 Y101.237 E38.57158
G1 X110.866 Y100.237 E38.61853
G1 X110.737 Y99.239 E38.66539
G1 X110.35 Y98.305 E38.71247
G1 X109.735 Y97.501 E38.7596
G1 X108.932 Y96.888 E38.80664
G1 X108 Y96.501 E38.85363
G1 X107 Y96.371 E38.90059
G1 X105.997 Y96.501 E38.94768
G1 X105.066 Y96.89 E38.99467
G1 X104.266 Y97.501 E39.04154
G1 X103.651 Y98.305 E39.08867
G1 X103.264 Y99.238 E39.13571
G1 X103.134 Y100.237 E39.18262
G1 X103.264 Y101.237 E39.22957
G1 X103.651 Y102.169 E39.27656
G1 X104.265 Y102.973 E39.32367
G1 X105.066 Y103.585 E39.37061
M204 S3000
M205 X10 Y10
G0 F3000 X96.918 Y116.717
M204 S1800
M205 X8 Y8
G1 F1500 X96.472 Y116.271 E39.39998
M204 S3000
M205 X10 Y10
G0 F3000 X96.472 Y115.479
M204 S1800
M205 X8 Y8
G1 F1500 X97.314 Y116.321 E39.45542
G1 X97.384 Y116.391
M204 S3000
M205 X10 Y10
G0 F3000 X97.71 Y115.925
M204 S1800
M205 X8 Y8
G1 F1500 X96.472 Y114.687 E39.53695
G1 X96.402 Y114.617
M204 S3000
M205 X10 Y10
G0 F3000 X96.472 Y113.895
M204 S1800
M205 X8 Y8
G1 F1500 X98.127 Y115.55 E39.64593
G1 X98.197 Y115.62
M204 S3000
M205 X10 Y10
G0 F3000 X98.545 Y115.176
M204 S1800
M205 X8 Y8
G1 F1500 X96.472 Y113.103 E39.78244
G1 X96.402 Y113.033
M204 S3000
M205 X10 Y10
G0 F3000 X96.472 Y112.311
M204 S1800
M205 X8 Y8
G1 F1500 X98.963 Y114.803 E39.94651
G1 X99.033 Y114.873
M204 S3000
M205 X10 Y10
G0 F3000 X99.382 Y114.429
M204 S1800
M205 X8 Y8
G1 F1500 X96.472 Y111.519 E40.13814
G1 X96.402 Y111.449
M204 S3000
M205 X10 Y10
G0 F3000 X96.472 Y110.727
M204 S1800
M205 X8 Y8
G1 F1500 X99.8 Y114.055 E40.3573
G1 X99.87 Y114.125
M204 S3000
M205 X10 Y10
G0 F3000 X100.218 Y113.682
M204 S1800
M205 X8 Y8
G1 F1500 X96.472 Y109.936 E40.60398
G1 X96.402 Y109.866
M204 S3000
M205 X10 Y10
G0 F3000 X96.472 Y109.144
M204 S1800
M205 X8 Y8
G1 F1500 X100.637 Y113.308 E40.87822
G1 X100.707 Y113.378
M204 S3000
M205 X10 Y10
G0 F3000 X101.056 Y112.935
M204 S1800
M205 X8 Y8
G1 F1500 X96.472 Y108.352 E41.18005
G1 X96.402 Y108.282
M204 S3000
M205 X10 Y10
G0 F3000 X96.472 Y107.56
M204 S1800
M205 X8 Y8
G1 F1500 X101.474 Y112.561 E41.5094
G1 X101.544 Y112.631
M204 S3000
M205 X10 Y10
G0 F3000 X101.892 Y112.188
M204 S1800
M205 X8 Y8
G1 F1500 X96.472 Y106.768 E41.86632
G1 X96.402 Y106.698
M204 S3000
M205 X10 Y10
G0 F3000 X96.472 Y105.976
M204 S1800
M205 X8 Y8
G1 F1500 X102.311 Y111.814 E42.2508
G1 X102.381 Y111.884
M204 S3000
M205 X10 Y10
G0 F3000 X102.729 Y111.44
M204 S1800
M205 X8 Y8
G1 F1500 X96.472 Y105.184 E42.6628
G1 X96.402 Y105.114
M204 S3000
M205 X10 Y10
G0 F3000 X96.472 Y104.392
M204 S1800
M205 X8 Y8
G1 F1500 X103.147 Y111.067 E43.10236
G1 X103.217 Y111.137
M204 S3000
M205 X10 Y10
G0 F3000 X103.566 Y110.694
M204 S1800
M205 X8 Y8
G1 F1500 X96.472 Y103.6 E43.56951
G1 X96.402 Y103.53
M204 S3000
M205 X10 Y10
G0 F3000 X96.472 Y102.808
M204 S1800
M205 X8 Y8
G1 F1500 X103.985 Y110.32 E44.06422
G1 X104.055 Y110.39
M204 S3000
M205 X10 Y10
G0 F3000 X104.402 Y109.946
M204 S1800
M205 X8 Y8
G1 F1500 X96.472 Y102.016 E44.58642
G1 X96.402 Y101.946
M204 S3000
M205 X10 Y10
G0 F3000 X96.472 Y101.224
M204 S1800
M205 X8 Y8
G1 F1500 X104.821 Y109.573 E45.13622
G1 X104.891 Y109.643
M204 S3000
M205 X10 Y10
G0 F3000 X105.24 Y109.199
M204 S1800
M205 X8 Y8
G1 F1500 X96.472 Y100.432 E45.71358
G1 X96.402 Y100.362
M204 S3000
M205 X10 Y10
G0 F3000 X96.472 Y99.64
M204 S1800
M205 X8 Y8
G1 F1500 X105.658 Y108.825 E46.31846
G1 X105.728 Y108.895
M204 S3000
M205 X10 Y10
G0 F3000 X106.076 Y108.452
M204 S1800
M205 X8 Y8
G1 F1500 X96.472 Y98.848 E46.9509
G1 X96.402 Y98.778
M204 S3000
M205 X10 Y10
G0 F3000 X96.472 Y98.056
M204 S1800
M205 X8 Y8
G1 F1500 X106.495 Y108.079 E47.61093
G1 X106.565 Y108.149
M204 S3000
M205 X10 Y10
G0 F3000 X106.913 Y107.705
M204 S1800
M205 X8 Y8
G1 F1500 X96.472 Y97.264 E48.29849
G1 X96.402 Y97.194
M204 S3000
M205 X10 Y10
G0 F3000 X96.472 Y96.472
M204 S1800
M205 X8 Y8
G1 F1500 X107.331 Y107.331 E49.01357
G1 X107.401 Y107.401
M204 S3000
M205 X10 Y10
G0 F3000 X107.75 Y106.958
M204 S1800
M205 X8 Y8
G1 F1500 X96.472 Y95.68 E49.75624
G1 X96.402 Y95.61
M204 S3000
M205 X10 Y10
G0 F3000 X96.472 Y94.888
M204 S1800
M205 X8 Y8
G1 F1500 X103.094 Y101.51 E50.19231
G1 X103.164 Y101.58
M204 S3000
M205 X10 Y10
G0 F3000 X102.91 Y100.534
M204 S1800
M205 X8 Y8
G1 F1500 X96.472 Y94.096 E50.61627
G1 X96.402 Y94.026
M204 S3000
M205 X10 Y10
G0 F3000 X96.472 Y93.304
M204 S1800
M205 X8 Y8
G1 F1500 X102.932 Y99.764 E51.04167
G1 X103.002 Y99.834
M204 S3000
M205 X10 Y10
G0 F3000 X103.045 Y99.085
M204 S1800
M205 X8 Y8
G1 F1500 X96.472 Y92.512 E51.47451
G1 X96.402 Y92.442
M204 S3000
M205 X10 Y10
G0 F3000 X96.472 Y91.72
M204 S1800
M205 X8 Y8
G1 F1500 X103.277 Y98.525 E51.92263
G1 X103.347 Y98.595
M204 S3000
M205 X10 Y10
G0 F3000 X103.55 Y98.007
M204 S1800
M205 X8 Y8
G1 F1500 X96.472 Y90.928 E52.38877
G1 X96.402 Y90.858
M204 S3000
M205 X10 Y10
G0 F3000 X96.472 Y90.137
