;FLAVOR:Marlin
;TIME:3439
;Filament used: 3.67197m
;Layer height: 0.2
;Generated with Cura_SteamEngine 3.4.1
M190 S60
M104 S200
M109 S200
M82 ;absolute extrusion mode
G21 ;metric values
G90 ;absolute positioning
M82 ;set extruder to absolute mode
M107 ;start with the fan off
G28 X0 Y0 ;move X/Y to min endstops
G28 Z0 ;move Z to min endstops
G1 Z15.0 F100 ;move the platform down 15mm
G92 E0 ;zero the extruded length
G1 F200 E3 ;extrude 3mm of feed stock
G92 E0 ;zero the extruded length again
G1 F100
M117 Printing...
G5
G92 E0
G1 F2400 E-6
;LAYER_COUNT:176
;LAYER:0
M106 S255
M204 S3000
M205 X10 Y10
G0 F3000 X86.246 Y87.984 Z0.2
M204 S1800
M205 X8 Y8
;TYPE:SKIRT
G1 F2400 E0
G1 X91.237 Y82.989 E0.3288
G1 X91.77 Y82.512 E0.3621
G1 X92.353 Y82.098 E0.3954
G1 X92.978 Y81.751 E0.42869
G1 X93.639 Y81.476 E0.46202
G1 X94.325 Y81.277 E0.49528
G1 X95.03 Y81.155 E0.5286
G1 X95.758 Y81.113 E0.56255
G1 X98.751 Y81.11 E0.70192
G1 X99.465 Y81.149 E0.73522
G1 X100.17 Y81.268 E0.76851
G1 X100.858 Y81.465 E0.80183
G1 X101.519 Y81.737 E0.83512
G1 X102.146 Y82.081 E0.86842
G1 X102.731 Y82.493 E0.90173
G1 X103.265 Y82.967 E0.93498
G1 X108.991 Y88.648 E1.31057
G1 X122.083 Y101.277 E2.15759
G1 X122.57 Y101.801 E2.1909
G1 X122.797 Y102.092 E2.20809
G1 X123.352 Y102.847 E2.25172
G1 X123.742 Y103.446 E2.285
G1 X123.959 Y103.857 E2.30665
G1 X124.576 Y105.136 E2.37277
G1 X124.957 Y106.129 E2.42229
G1 X125.207 Y106.988 E2.46395
G1 X125.406 Y107.93 E2.50878
G1 X125.552 Y109.025 E2.56022
G1 X125.608 Y109.861 E2.59924
G1 X125.627 Y122.481 E3.18688
G1 X125.588 Y123.196 E3.22022
G1 X125.47 Y123.901 E3.25351
G1 X125.273 Y124.589 E3.28683
G1 X125.002 Y125.25 E3.32009
G1 X124.658 Y125.877 E3.3534
G1 X124.246 Y126.462 E3.38671
G1 X123.771 Y126.998 E3.42006
G1 X123.24 Y127.476 E3.45333
G1 X122.659 Y127.893 E3.48663
G1 X122.035 Y128.242 E3.51992
G1 X121.375 Y128.52 E3.55327
G1 X120.689 Y128.722 E3.58657
G1 X119.985 Y128.846 E3.61985
G1 X119.227 Y128.891 E3.65521
G1 X90.772 Y128.891 E4.9802
G1 X90.058 Y128.851 E5.0135
G1 X89.353 Y128.732 E5.04679
G1 X88.665 Y128.534 E5.08012
G1 X88.004 Y128.261 E5.11342
G1 X87.377 Y127.917 E5.14673
G1 X86.793 Y127.504 E5.18003
G1 X86.259 Y127.029 E5.21331
G1 X85.78 Y126.497 E5.24665
G1 X85.365 Y125.915 E5.27993
G1 X85.016 Y125.29 E5.31326
G1 X84.74 Y124.63 E5.34657
G1 X84.539 Y123.944 E5.37986
G1 X84.416 Y123.239 E5.41318
G1 X84.372 Y122.491 E5.44807
G1 X84.373 Y92.508 E6.84421
G1 X84.413 Y91.794 E6.87751
G1 X84.532 Y91.088 E6.91084
G1 X84.73 Y90.401 E6.94414
G1 X85.003 Y89.74 E6.97744
G1 X85.348 Y89.113 E7.01076
G1 X85.76 Y88.529 E7.04404
G1 X86.246 Y87.984 E7.07804
M204 S3000
M205 X10 Y10
G0 F3000 X86.642 Y88.38
M204 S1800
M205 X8 Y8
G1 F2400 X91.633 Y83.385 E7.40684
G1 X92.143 Y82.931 E7.43863
G1 X92.703 Y82.539 E7.47046
G1 X93.305 Y82.216 E7.50228
G1 X93.94 Y81.965 E7.53407
G1 X94.601 Y81.79 E7.56591
G1 X95.277 Y81.693 E7.59771
G1 X95.758 Y81.673 E7.62013
G1 X98.751 Y81.67 E7.75949
G1 X99.433 Y81.709 E7.7913
G1 X100.106 Y81.828 E7.82312
G1 X100.76 Y82.024 E7.85492
G1 X101.387 Y82.296 E7.88674
G1 X101.978 Y82.639 E7.91856
G1 X102.525 Y83.048 E7.95036
G1 X102.87 Y83.364 E7.97215
G1 X108.604 Y89.053 E8.34826
G1 X121.694 Y101.68 E9.19515
G1 X122.345 Y102.424 E9.24119
G1 X122.9 Y103.179 E9.28482
G1 X123.272 Y103.752 E9.31663
G1 X123.455 Y104.101 E9.33498
G1 X124.072 Y105.38 E9.4011
G1 X124.419 Y106.285 E9.44624
G1 X124.669 Y107.144 E9.48789
G1 X124.851 Y108.004 E9.52883
G1 X124.997 Y109.099 E9.58026
G1 X125.048 Y109.862 E9.61587
G1 X125.067 Y122.482 E10.20351
G1 X125.028 Y123.164 E10.23532
G1 X124.91 Y123.837 E10.26714
G1 X124.714 Y124.492 E10.29897
G1 X124.442 Y125.119 E10.3308
G1 X124.1 Y125.71 E10.36259
G1 X123.691 Y126.257 E10.3944
G1 X123.22 Y126.753 E10.42625
G1 X122.695 Y127.19 E10.45805
G1 X122.123 Y127.563 E10.48985
G1 X121.51 Y127.866 E10.52169
G1 X120.867 Y128.096 E10.55349
G1 X120.201 Y128.249 E10.58531
G1 X119.227 Y128.331 E10.63082
G1 X90.772 Y128.331 E11.95581
G1 X90.09 Y128.291 E11.98762
G1 X89.417 Y128.172 E12.01944
G1 X88.763 Y127.975 E12.05125
G1 X88.136 Y127.702 E12.08309
G1 X87.546 Y127.359 E12.11487
G1 X86.999 Y126.949 E12.1467
G1 X86.504 Y126.478 E12.17852
G1 X86.068 Y125.952 E12.21033
G1 X85.696 Y125.379 E12.24214
G1 X85.393 Y124.766 E12.27398
G1 X85.165 Y124.123 E12.30575
G1 X85.012 Y123.457 E12.33757
G1 X84.932 Y122.491 E12.3827
G1 X84.933 Y92.508 E13.77884
G1 X84.973 Y91.826 E13.81065
G1 X85.092 Y91.153 E13.84247
G1 X85.289 Y90.499 E13.87428
G1 X85.562 Y89.872 E13.90612
G1 X85.905 Y89.282 E13.9379
G1 X86.315 Y88.735 E13.96973
G1 X86.642 Y88.38 E13.9922
M204 S3000
M205 X10 Y10
G0 F3000 X87.038 Y88.776
M204 S1800
M205 X8 Y8
G1 F2400 X92.029 Y83.781 E14.321
G1 X92.516 Y83.351 E14.35125
G1 X93.051 Y82.983 E14.38149
G1 X93.628 Y82.684 E14.41175
G1 X94.237 Y82.459 E14.44198
G1 X94.869 Y82.309 E14.47223
G1 X95.759 Y82.233 E14.51382
G1 X98.752 Y82.23 E14.65319
G1 X99.4 Y82.269 E14.68341
G1 X100.039 Y82.388 E14.71368
G1 X100.658 Y82.584 E14.74391
G1 X101.249 Y82.855 E14.77419
G1 X101.801 Y83.196 E14.8044
G1 X102.476 Y83.762 E14.84542
G1 X108.181 Y89.422 E15.21962
G1 X121.306 Y102.083 E16.06879
G1 X121.894 Y102.756 E16.1104
G1 X122.449 Y103.511 E16.15403
G1 X122.951 Y104.344 E16.19932
G1 X123.568 Y105.623 E16.26544
G1 X123.882 Y106.442 E16.30629
G1 X124.132 Y107.301 E16.34794
G1 X124.296 Y108.078 E16.38492
G1 X124.442 Y109.173 E16.43636
G1 X124.488 Y109.863 E16.46856
G1 X124.507 Y122.483 E17.0562
G1 X124.468 Y123.131 E17.08643
G1 X124.35 Y123.77 E17.11669
G1 X124.154 Y124.39 E17.14697
G1 X123.883 Y124.98 E17.1772
G1 X123.542 Y125.533 E17.20745
G1 X123.136 Y126.04 E17.2377
G1 X122.671 Y126.493 E17.26792
G1 X122.153 Y126.886 E17.2982
G1 X121.591 Y127.212 E17.32845
G1 X120.994 Y127.467 E17.35868
G1 X120.369 Y127.646 E17.38895
G1 X119.728 Y127.747 E17.41917
G1 X119.227 Y127.771 E17.44253
G1 X90.772 Y127.771 E18.76751
G1 X90.124 Y127.731 E18.79774
G1 X89.485 Y127.612 E18.82801
G1 X88.866 Y127.415 E18.85825
G1 X88.276 Y127.144 E18.88849
G1 X87.723 Y126.802 E18.91876
G1 X87.217 Y126.395 E18.949
G1 X86.764 Y125.929 E18.97926
G1 X86.373 Y125.411 E19.00948
G1 X86.047 Y124.848 E19.03978
G1 X85.794 Y124.25 E19.07001
G1 X85.615 Y123.626 E19.10024
G1 X85.515 Y122.984 E19.13049
G1 X85.492 Y122.491 E19.15348
G1 X85.493 Y92.508 E20.54961
G1 X85.533 Y91.859 E20.57989
G1 X85.652 Y91.221 E20.61011
G1 X85.849 Y90.602 E20.64036
G1 X86.12 Y90.012 E20.67059
G1 X86.462 Y89.459 E20.70086
G1 X87.038 Y88.776 E20.74247
M204 S3000
M205 X10 Y10
G1 F2400 E14.74247
G0 F3000 X90.544 Y91.782
G0 X91.621 Y92.858
G0 X102.783 Y93.5
M204 S1800
M205 X8 Y8
;TYPE:WALL-INNER
G1 F2400 E20.74247
G1 F1500 X116.022 Y106.214 E21.59717
G1 X116.582 Y106.789 E21.63454
G1 X117.019 Y107.387 E21.66903
G1 X117.372 Y108.047 E21.70388
G1 X117.625 Y108.737 E21.7381
G1 X117.782 Y109.472 E21.7731
G1 X117.837 Y110.259 E21.80983
G1 X117.837 Y121.1 E22.31464
G1 X92.163 Y121.1 E23.51013
G1 X92.163 Y93.083 E24.81471
G1 X96.343 Y88.9 E25.09007
G1 X98.183 Y88.9 E25.17575
G1 X102.783 Y93.5 E25.47867
M204 S3000
M205 X10 Y10
G0 F3000 X107.808 Y110.483
G0 X108.087 Y111.156
G0 X108.212 Y111.319
G0 X109.641 Y112.963
M204 S1800
M205 X8 Y8
G1 F1500 X110.5 Y113.075 E25.51901
G1 X111.357 Y112.963 E25.55925
G1 X112.155 Y112.631 E25.5995
G1 X112.842 Y112.106 E25.63976
G1 X113.369 Y111.418 E25.68011
G1 X113.701 Y110.618 E25.72044
G1 X113.812 Y109.763 E25.76059
G1 X113.701 Y108.906 E25.80083
G1 X113.369 Y108.107 E25.84112
G1 X112.842 Y107.421 E25.8814
G1 X112.156 Y106.894 E25.92168
G1 X111.357 Y106.562 E25.96197
G1 X110.5 Y106.451 E26.00221
G1 X109.643 Y106.562 E26.04245
G1 X108.843 Y106.895 E26.0828
G1 X108.158 Y107.42 E26.12298
G1 X107.632 Y108.108 E26.16331
G1 X107.3 Y108.906 E26.20356
G1 X107.188 Y109.763 E26.2438
G1 X107.3 Y110.619 E26.284
G1 X107.632 Y111.418 E26.32429
G1 X108.159 Y112.106 E26.36464
G1 X108.843 Y112.63 E26.40476
G1 X109.641 Y112.963 E26.44503
M204 S3000
M205 X10 Y10
G0 F3000 X108.53 Y111.734
G0 X108.087 Y111.156
G0 X107.808 Y110.483
G0 X107.713 Y109.763
G0 X107.808 Y109.042
G0 X108.087 Y108.371
G0 X108.53 Y107.791
G0 X108.996 Y107.435
G0 X109.764 Y107.012
G0 X109.789 Y107.108
M204 S1800
M205 X8 Y8
G1 F1500 X109.126 Y107.384 E26.47847
G1 X108.558 Y107.819 E26.51178
G1 X108.121 Y108.39 E26.54526
G1 X107.846 Y109.052 E26.57864
G1 X107.753 Y109.763 E26.61203
G1 X107.846 Y110.473 E26.64537
G1 X108.121 Y111.136 E26.6788
G1 X108.558 Y111.706 E26.71224
G1 X109.126 Y112.141 E26.74555
G1 X109.788 Y112.417 E26.77895
G1 X110.5 Y112.51 E26.81239
G1 X111.211 Y112.417 E26.84578
G1 X111.873 Y112.142 E26.87916
G1 X112.443 Y111.706 E26.91257
G1 X112.88 Y111.136 E26.94602
G1 X113.155 Y110.472 E26.97948
G1 X113.247 Y109.763 E27.01277
G1 X113.155 Y109.052 E27.04616
G1 X112.88 Y108.39 E27.07953
G1 X112.443 Y107.82 E27.11298
G1 X111.873 Y107.383 E27.14642
G1 X111.211 Y107.108 E27.1798
G1 X110.5 Y107.016 E27.21319
G1 X109.789 Y107.108 E27.24657
M204 S3000
M205 X10 Y10
G0 F3000 X109.764 Y107.012
G0 X103.106 Y93.171
G0 X103.175 Y93.1
M204 S1800
M205 X8 Y8
G1 F1500 X116.41 Y105.81 E28.10101
G1 X117.015 Y106.432 E28.14141
G1 X117.494 Y107.087 E28.17919
G1 X117.884 Y107.816 E28.21769
G1 X118.165 Y108.584 E28.25577
G1 X118.338 Y109.393 E28.29429
G1 X118.397 Y110.234 E28.33355
G1 X118.397 Y121.66 E28.86559
G1 X91.603 Y121.66 E30.11323
G1 X91.603 Y92.851 E31.4547
G1 X96.111 Y88.34 E31.75166
G1 X98.415 Y88.34 E31.85894
G1 X103.175 Y93.1 E32.1724
M204 S3000
M205 X10 Y10
G0 F3000 X103.567 Y92.7
M204 S1800
M205 X8 Y8
;TYPE:WALL-OUTER
G1 F1500 X116.798 Y105.406 E33.02657
G1 X117.442 Y106.067 E33.06954
G1 X117.971 Y106.791 E33.1113
G1 X118.396 Y107.586 E33.15327
G1 X118.705 Y108.431 E33.19517
G1 X118.894 Y109.314 E33.23721
G1 X118.957 Y110.209 E33.27899
G1 X118.957 Y122.22 E33.83827
G1 X91.043 Y122.22 E35.13807
G1 X91.043 Y92.619 E36.51641
G1 X95.879 Y87.78 E36.83497
G1 X98.647 Y87.78 E36.96386
G1 X103.567 Y92.7 E37.28785
M204 S3000
M205 X10 Y10
G0 F3000 X103.711 Y92.838
G0 X103.253 Y93.313
G0 X109.85 Y106.999
G0 X109.935 Y107.654
M204 S1800
M205 X8 Y8
G1 F1500 X109.409 Y107.873 E37.31438
G1 X108.957 Y108.219 E37.34089
G1 X108.61 Y108.672 E37.36746
G1 X108.392 Y109.198 E37.39397
G1 X108.318 Y109.763 E37.42051
G1 X108.392 Y110.327 E37.44699
G1 X108.61 Y110.854 E37.47355
G1 X108.957 Y111.306 E37.50008
G1 X109.409 Y111.652 E37.52659
G1 X109.935 Y111.871 E37.55312
G1 X110.5 Y111.945 E37.57965
G1 X111.065 Y111.871 E37.60619
G1 X111.591 Y111.653 E37.6327
G1 X112.044 Y111.306 E37.65927
G1 X112.391 Y110.854 E37.6858
G1 X112.609 Y110.327 E37.71236
G1 X112.682 Y109.763 E37.73884
G1 X112.609 Y109.198 E37.76537
G1 X112.391 Y108.672 E37.79188
G1 X112.044 Y108.219 E37.81845
G1 X111.591 Y107.872 E37.84502
G1 X111.065 Y107.654 E37.87154
G1 X110.5 Y107.581 E37.89806
G1 X109.935 Y107.654 E37.92459
M204 S3000
M205 X10 Y10
G0 F3000 X109.751 Y107.73
G0 X109.498 Y107.121
G0 X109.5 Y106.026
M204 S1800
M205 X8 Y8
;TYPE:SKIN
G1 F1500 X108.566 Y106.415 E37.9717
G1 X107.765 Y107.027 E38.01864
G1 X107.151 Y107.831 E38.06575
G1 X106.764 Y108.763 E38.11274
G1 X106.634 Y109.763 E38.15969
G1 X106.764 Y110.762 E38.2066
G1 X107.151 Y111.695 E38.25364
G1 X107.766 Y112.499 E38.30077
G1 X108.566 Y113.11 E38.34765
G1 X109.497 Y113.499 E38.39463
G1 X110.5 Y113.629 E38.44172
G1 X111.5 Y113.499 E38.48868
G1 X112.432 Y113.112 E38.53567
G1 X113.235 Y112.499 E38.58271
G1 X113.85 Y111.695 E38.62985
G1 X114.237 Y110.761 E38.67692
G1 X114.366 Y109.763 E38.72378
G1 X114.237 Y108.763 E38.77073
G1 X113.849 Y107.83 E38.81778
G1 X113.235 Y107.028 E38.86481
G1 X112.433 Y106.414 E38.91184
G1 X111.5 Y106.026 E38.9589
G1 X110.5 Y105.897 E39.00585
G1 X109.5 Y106.026 E39.0528
M204 S3000
M205 X10 Y10
G0 F3000 X115.634 Y106.604
M204 S1800
M205 X8 Y8
G1 F1500 X116.161 Y107.143 E39.0879
G1 X116.552 Y107.679 E39.11879
G1 X116.867 Y108.268 E39.14989
G1 X117.095 Y108.892 E39.18083
G1 X117.238 Y109.555 E39.21241
G1 X117.287 Y110.259 E39.24527
G1 X117.287 Y120.55 E39.72446
G1 X92.713 Y120.55 E40.86873
G1 X92.713 Y93.311 E42.13709
G1 X96.571 Y89.45 E42.39125
G1 X97.955 Y89.45 E42.45569
G1 X102.398 Y93.893 E42.74827
G1 X115.634 Y106.604 E43.60277
M204 S3000
M205 X10 Y10
G0 F3000 X114.106 Y107.77
M204 S1800
M205 X8 Y8
G1 F1500 X117.026 Y110.691 E43.79509
G1 X117.096 Y110.761
M204 S3000
M205 X10 Y10
G0 F3000 X117.026 Y111.483
M204 S1800
M205 X8 Y8
G1 F1500 X114.526 Y108.982 E43.95976
G1 X114.456 Y108.912
M204 S3000
M205 X10 Y10
G0 F3000 X114.614 Y109.862
M204 S1800
M205 X8 Y8
G1 F1500 X117.026 Y112.275 E44.11862
G1 X117.096 Y112.345
M204 S3000
M205 X10 Y10
G0 F3000 X117.026 Y113.067
M204 S1800
M205 X8 Y8
G1 F1500 X114.523 Y110.563 E44.28348
G1 X114.453 Y110.493
M204 S3000
M205 X10 Y10
G0 F3000 X114.345 Y111.177
M204 S1800
M205 X8 Y8
G1 F1500 X117.026 Y113.859 E44.46006
G1 X117.096 Y113.929
M204 S3000
M205 X10 Y10
G0 F3000 X117.026 Y114.651
M204 S1800
M205 X8 Y8
G1 F1500 X114.113 Y111.737 E44.65192
G1 X114.043 Y111.667
M204 S3000
M205 X10 Y10
G0 F3000 X113.787 Y112.203
M204 S1800
M205 X8 Y8
G1 F1500 X117.026 Y115.442 E44.86522
G1 X117.096 Y115.512
M204 S3000
M205 X10 Y10
G0 F3000 X117.026 Y116.234
M204 S1800
M205 X8 Y8
G1 F1500 X113.444 Y112.652 E45.1011
G1 X113.374 Y112.582
M204 S3000
M205 X10 Y10
G0 F3000 X113.003 Y113.003
M204 S1800
M205 X8 Y8
G1 F1500 X117.026 Y117.026 E45.36602
G1 X117.096 Y117.096
M204 S3000
M205 X10 Y10
G0 F3000 X117.026 Y117.818
M204 S1800
M205 X8 Y8
G1 F1500 X112.551 Y113.343 E45.66071
G1 X112.481 Y113.273
M204 S3000
M205 X10 Y10
G0 F3000 X111.992 Y113.576
M204 S1800
M205 X8 Y8
G1 F1500 X117.026 Y118.61 E45.9922
G1 X117.096 Y118.68
M204 S3000
M205 X10 Y10
G0 F3000 X117.026 Y119.402
M204 S1800
M205 X8 Y8
G1 F1500 X111.397 Y113.773 E46.36288
G1 X111.327 Y113.703
M204 S3000
M205 X10 Y10
G0 F3000 X110.696 Y113.864
M204 S1800
M205 X8 Y8
G1 F1500 X117.026 Y120.194 E46.77972
G1 X117.096 Y120.264
M204 S3000
M205 X10 Y10
G0 F3000 X116.329 Y120.289
M204 S1800
M205 X8 Y8
G1 F1500 X109.846 Y113.806 E47.20664
G1 X109.776 Y113.736
M204 S3000
M205 X10 Y10
G0 F3000 X108.692 Y113.443
M204 S1800
M205 X8 Y8
G1 F1500 X115.537 Y120.289 E47.65743
G1 X115.607 Y120.359
M204 S3000
M205 X10 Y10
G0 F3000 X114.745 Y120.289
M204 S1800
M205 X8 Y8
G1 F1500 X92.972 Y98.516 E49.09122
G1 X92.902 Y98.446
M204 S3000
M205 X10 Y10
G0 F3000 X92.972 Y97.724
M204 S1800
M205 X8 Y8
G1 F1500 X106.816 Y111.568 E50.00287
G1 X106.886 Y111.638
M204 S3000
M205 X10 Y10
G0 F3000 X106.457 Y110.417
M204 S1800
M205 X8 Y8
G1 F1500 X92.972 Y96.932 E50.89088
G1 X92.902 Y96.862
M204 S3000
M205 X10 Y10
G0 F3000 X92.972 Y96.14
M204 S1800
M205 X8 Y8
G1 F1500 X106.398 Y109.566 E51.775
G1 X106.468 Y109.636
M204 S3000
M205 X10 Y10
G0 F3000 X106.489 Y108.865
M204 S1800
M205 X8 Y8
G1 F1500 X92.972 Y95.348 E52.66512
G1 X92.902 Y95.278
M204 S3000
M205 X10 Y10
G0 F3000 X92.972 Y94.556
M204 S1800
M205 X8 Y8
G1 F1500 X106.686 Y108.27 E53.56821
G1 X106.756 Y108.34
M204 S3000
M205 X10 Y10
G0 F3000 X106.918 Y107.71
M204 S1800
M205 X8 Y8
G1 F1500 X92.972 Y93.764 E54.48658
G1 X92.902 Y93.694
M204 S3000
M205 X10 Y10
G0 F3000 X93.195 Y93.195
M204 S1800
M205 X8 Y8
G1 F1500 X107.259 Y107.259 E55.41272
G1 X107.329 Y107.329
M204 S3000
M205 X10 Y10
G0 F3000 X107.608 Y106.816
M204 S1800
M205 X8 Y8
G1 F1500 X93.591 Y92.799 E56.33576
G1 X93.521 Y92.729
M204 S3000
M205 X10 Y10
G0 F3000 X93.987 Y92.403
M204 S1800
M205 X8 Y8
G1 F1500 X108.057 Y106.474 E57.26233
G1 X108.127 Y106.544
M204 S3000
M205 X10 Y10
G0 F3000 X108.525 Y106.149
M204 S1800
M205 X8 Y8
G1 F1500 X94.382 Y92.006 E58.19367
G1 X94.312 Y91.936
M204 S3000
M205 X10 Y10
G0 F3000 X94.778 Y91.61
M204 S1800
M205 X8 Y8
G1 F1500 X109.083 Y105.916 E59.13571
G1 X109.153 Y105.986
M204 S3000
M205 X10 Y10
G0 F3000 X109.697 Y105.737
M204 S1800
M205 X8 Y8
G1 F1500 X95.174 Y91.214 E60.09207
G1 X95.104 Y91.144
M204 S3000
M205 X10 Y10
G0 F3000 X95.569 Y90.817
M204 S1800
M205 X8 Y8
G1 F1500 X110.399 Y105.647 E61.06865
G1 X110.469 Y105.717
M204 S3000
M205 X10 Y10
G0 F3000 X111.278 Y105.735
M204 S1800
M205 X8 Y8
G1 F1500 X95.965 Y90.421 E62.07707
G1 X95.895 Y90.351
M204 S3000
M205 X10 Y10
G0 F3000 X96.361 Y90.026
M204 S1800
M205 X8 Y8
