;FLAVOR:Marlin
;TIME:3826
;Filament used: 4.04296m
;Layer height: 0.2
;Generated with Cura_SteamEngine 3.4.1
M190 S60
M104 S200
M109 S200
M82 ;absolute extrusion mode
G21 ;metric values
G90 ;absolute positioning
M82 ;set extruder to absolute mode
M107 ;start with the fan off
G28 X0 Y0 ;move X/Y to min endstops
G28 Z0 ;move Z to min endstops
G1 Z15.0 F100 ;move the platform down 15mm
G92 E0 ;zero the extruded length
G1 F200 E3 ;extrude 3mm of feed stock
G92 E0 ;zero the extruded length again
G1 F100
M117 Printing...
G5
G92 E0
G1 F2400 E-6
;LAYER_COUNT:251
;LAYER:0
M106 S255
M204 S3000
M205 X10 Y10
G0 F3000 X72.85 Y94.573 Z0.2
M204 S1800
M205 X8 Y8
;TYPE:SKIRT
G1 F2400 E0
G1 X73.432 Y94.157 E0.03331
G1 X74.056 Y93.808 E0.0666
G1 X74.716 Y93.531 E0.09993
G1 X75.402 Y93.329 E0.13323
G1 X76.394 Y93.178 E0.17996
G1 X78.788 Y93.003 E0.29173
G1 X84.085 Y92.396 E0.53999
G1 X89.298 Y91.498 E0.78631
G1 X94.499 Y90.296 E1.03487
G1 X96.965 Y89.616 E1.15398
G1 X102.058 Y87.972 E1.40318
G1 X106.993 Y86.066 E1.64952
G1 X111.818 Y83.882 E1.89614
G1 X116.504 Y81.432 E2.14236
G1 X121.089 Y78.694 E2.39103
G1 X123.649 Y77.012 E2.53366
G1 X124.267 Y76.654 E2.56692
G1 X124.922 Y76.366 E2.60023
G1 X125.605 Y76.153 E2.63355
G1 X126.308 Y76.018 E2.66688
G1 X127.166 Y75.961 E2.70692
G1 X129.487 Y75.962 E2.815
G1 X130.201 Y76.002 E2.8483
G1 X130.906 Y76.122 E2.8816
G1 X131.593 Y76.32 E2.91489
G1 X132.255 Y76.593 E2.94823
G1 X132.881 Y76.938 E2.98151
G1 X133.465 Y77.351 E3.01482
G1 X134.18 Y78.014 E3.06022
G1 X137.823 Y81.948 E3.30989
G1 X138.279 Y82.499 E3.34319
G1 X138.67 Y83.097 E3.37646
G1 X138.993 Y83.736 E3.4098
G1 X139.242 Y84.406 E3.44308
G1 X139.414 Y85.1 E3.47638
G1 X139.508 Y85.809 E3.50968
G1 X139.527 Y86.29 E3.53209
G1 X139.54 Y100.951 E4.21477
G1 X139.501 Y101.666 E4.24811
G1 X139.382 Y102.371 E4.28141
G1 X139.185 Y103.059 E4.31473
G1 X138.913 Y103.72 E4.34801
G1 X138.383 Y104.628 E4.39697
G1 X134.538 Y110.12 E4.70914
G1 X134.095 Y110.682 E4.74247
G1 X133.593 Y111.191 E4.77575
G1 X133.149 Y111.558 E4.80258
G1 X113.485 Y126.393 E5.94956
G1 X108.879 Y130.033 E6.22292
G1 X108.201 Y130.501 E6.26129
G1 X106.194 Y131.704 E6.37024
G1 X105.241 Y132.173 E6.4197
G1 X103.127 Y133.002 E6.52544
G1 X102.123 Y133.304 E6.57425
G1 X99.859 Y133.786 E6.68204
G1 X99.001 Y133.908 E6.72239
G1 X97.51 Y134.019 E6.79201
G1 X96.594 Y134.022 E6.83466
G1 X94.436 Y133.873 E6.93539
G1 X93.735 Y133.785 E6.96829
G1 X92.075 Y133.484 E7.04684
G1 X91.098 Y133.226 E7.0939
G1 X88.932 Y132.466 E7.20078
G1 X88.031 Y132.07 E7.24661
G1 X86.682 Y131.348 E7.31786
G1 X86.087 Y130.986 E7.35029
G1 X84.239 Y129.721 E7.45457
G1 X83.672 Y129.285 E7.48787
G1 X83.339 Y128.976 E7.50903
G1 X72.357 Y118.046 E8.2305
G1 X71.879 Y117.514 E8.2638
G1 X71.464 Y116.932 E8.29709
G1 X71.116 Y116.307 E8.3304
G1 X70.839 Y115.647 E8.36373
G1 X70.639 Y114.961 E8.397
G1 X70.516 Y114.256 E8.43032
G1 X70.472 Y113.516 E8.46484
G1 X70.46 Y99.567 E9.11436
G1 X70.499 Y98.852 E9.14771
G1 X70.618 Y98.147 E9.181
G1 X70.815 Y97.459 E9.21432
G1 X71.087 Y96.798 E9.24761
G1 X71.432 Y96.171 E9.28093
G1 X71.844 Y95.586 E9.31425
G1 X72.319 Y95.052 E9.34753
G1 X72.85 Y94.573 E9.38083
M204 S3000
M205 X10 Y10
G0 F3000 X73.395 Y94.86
M204 S1800
M205 X8 Y8
G1 F2400 X73.968 Y94.488 E9.41264
G1 X74.58 Y94.184 E9.44446
G1 X75.224 Y93.955 E9.47628
G1 X75.889 Y93.802 E9.50806
G1 X76.434 Y93.737 E9.53361
G1 X78.822 Y93.562 E9.64511
G1 X84.172 Y92.949 E9.89586
G1 X89.412 Y92.047 E10.14344
G1 X94.61 Y90.846 E10.39186
G1 X97.144 Y90.146 E10.51427
G1 X102.239 Y88.502 E10.76356
G1 X107.212 Y86.582 E11.01178
G1 X112.058 Y84.387 E11.2595
G1 X116.786 Y81.916 E11.50791
G1 X121.379 Y79.173 E11.75702
G1 X123.956 Y77.48 E11.90059
G1 X124.548 Y77.139 E11.9324
G1 X125.176 Y76.87 E11.96422
G1 X125.831 Y76.675 E11.99604
G1 X126.504 Y76.558 E12.02785
G1 X127.166 Y76.521 E12.05872
G1 X129.487 Y76.522 E12.1668
G1 X130.169 Y76.562 E12.19861
G1 X130.841 Y76.682 E12.23039
G1 X131.495 Y76.879 E12.2622
G1 X132.122 Y77.152 E12.29404
G1 X132.712 Y77.495 E12.32582
G1 X133.259 Y77.906 E12.35768
G1 X133.769 Y78.394 E12.39055
G1 X137.412 Y82.328 E12.64021
G1 X137.846 Y82.856 E12.67204
G1 X138.216 Y83.43 E12.70383
G1 X138.515 Y84.044 E12.73563
G1 X138.742 Y84.689 E12.76747
G1 X138.891 Y85.356 E12.7993
G1 X138.967 Y86.291 E12.84298
G1 X138.98 Y100.952 E13.52566
G1 X138.941 Y101.634 E13.55747
G1 X138.822 Y102.307 E13.58929
G1 X138.625 Y102.961 E13.62109
G1 X138.354 Y103.588 E13.6529
G1 X137.924 Y104.306 E13.69187
G1 X134.079 Y109.798 E14.00405
G1 X133.655 Y110.334 E14.03587
G1 X133.172 Y110.817 E14.06768
G1 X132.812 Y111.111 E14.08932
G1 X113.151 Y125.944 E15.23613
G1 X108.532 Y129.594 E15.51026
G1 X107.913 Y130.021 E15.54528
G1 X105.906 Y131.224 E15.65423
G1 X105.036 Y131.652 E15.69938
G1 X102.922 Y132.481 E15.80512
G1 X102.006 Y132.756 E15.84965
G1 X99.742 Y133.238 E15.95743
G1 X98.96 Y133.35 E15.99422
G1 X97.469 Y133.461 E16.06384
G1 X96.633 Y133.463 E16.10276
G1 X94.475 Y133.314 E16.20349
G1 X93.835 Y133.234 E16.23352
G1 X92.175 Y132.933 E16.31208
G1 X91.283 Y132.698 E16.35503
G1 X89.117 Y131.938 E16.46192
G1 X88.295 Y131.576 E16.50374
G1 X86.946 Y130.854 E16.57499
G1 X86.403 Y130.524 E16.60458
G1 X84.555 Y129.259 E16.70886
G1 X84.015 Y128.841 E16.74065
G1 X83.734 Y128.579 E16.75854
G1 X72.752 Y117.649 E17.48002
G1 X72.297 Y117.14 E17.51181
G1 X71.904 Y116.581 E17.54362
G1 X71.58 Y115.979 E17.57546
G1 X71.328 Y115.345 E17.60723
G1 X71.151 Y114.684 E17.63909
G1 X71.053 Y114.008 E17.6709
G1 X71.032 Y113.515 E17.69387
G1 X71.02 Y99.566 E18.3434
G1 X71.059 Y98.884 E18.37521
G1 X71.178 Y98.211 E18.40703
G1 X71.375 Y97.557 E18.43883
G1 X71.646 Y96.93 E18.47064
G1 X71.989 Y96.339 E18.50246
G1 X72.399 Y95.792 E18.53429
G1 X72.87 Y95.297 E18.56611
G1 X73.395 Y94.86 E18.59791
M204 S3000
M205 X10 Y10
G0 F3000 X73.419 Y95.556
M204 S1800
M205 X8 Y8
G1 F2400 X73.937 Y95.164 E18.62816
G1 X74.499 Y94.838 E18.65841
G1 X75.096 Y94.584 E18.68863
G1 X75.721 Y94.405 E18.7189
G1 X76.475 Y94.295 E18.75438
G1 X78.878 Y94.119 E18.86657
G1 X84.26 Y93.503 E19.11882
G1 X89.527 Y92.595 E19.36769
G1 X94.744 Y91.39 E19.61701
G1 X97.302 Y90.684 E19.74057
G1 X102.436 Y89.027 E19.99178
G1 X107.416 Y87.104 E20.24035
G1 X112.312 Y84.887 E20.49062
G1 X117.055 Y82.408 E20.73982
G1 X121.679 Y79.646 E20.99062
G1 X124.264 Y77.948 E21.13463
G1 X124.827 Y77.626 E21.16483
G1 X125.427 Y77.375 E21.19512
G1 X126.052 Y77.199 E21.22535
G1 X126.694 Y77.102 E21.25558
G1 X127.165 Y77.081 E21.27754
G1 X129.486 Y77.082 E21.38561
G1 X130.135 Y77.122 E21.41589
G1 X130.773 Y77.242 E21.44612
G1 X131.392 Y77.439 E21.47637
G1 X131.982 Y77.71 E21.5066
G1 X132.535 Y78.052 E21.53688
G1 X133.041 Y78.46 E21.56714
G1 X133.358 Y78.775 E21.58795
G1 X137.001 Y82.709 E21.83762
G1 X137.412 Y83.211 E21.86783
G1 X137.759 Y83.761 E21.89811
G1 X138.035 Y84.349 E21.92835
G1 X138.237 Y84.966 E21.95858
G1 X138.361 Y85.604 E21.98885
G1 X138.407 Y86.291 E22.02091
G1 X138.42 Y100.952 E22.70359
G1 X138.381 Y101.601 E22.73386
G1 X138.262 Y102.239 E22.76408
G1 X138.066 Y102.859 E22.79436
G1 X137.795 Y103.449 E22.82459
G1 X137.465 Y103.985 E22.8539
G1 X133.62 Y109.477 E23.16608
G1 X133.216 Y109.985 E23.1963
G1 X132.752 Y110.44 E23.22656
G1 X132.475 Y110.664 E23.24315
G1 X112.817 Y125.495 E24.38979
G1 X108.185 Y129.155 E24.66469
G1 X107.626 Y129.541 E24.69632
G1 X105.619 Y130.744 E24.80527
G1 X104.832 Y131.131 E24.84611
G1 X102.718 Y131.96 E24.95185
G1 X101.889 Y132.208 E24.99214
G1 X99.625 Y132.69 E25.09992
G1 X98.918 Y132.791 E25.13318
G1 X97.427 Y132.902 E25.2028
G1 X96.671 Y132.904 E25.238
G1 X94.513 Y132.755 E25.33872
G1 X93.935 Y132.683 E25.36585
G1 X92.275 Y132.382 E25.4444
G1 X91.469 Y132.169 E25.48322
G1 X89.303 Y131.409 E25.59011
G1 X88.559 Y131.082 E25.62795
G1 X87.21 Y130.36 E25.6992
G1 X86.72 Y130.062 E25.7259
G1 X84.872 Y128.797 E25.83018
G1 X84.129 Y128.182 E25.87509
G1 X73.147 Y117.252 E26.59657
G1 X72.716 Y116.767 E26.62678
G1 X72.348 Y116.232 E26.65702
G1 X72.048 Y115.655 E26.6873
G1 X71.821 Y115.047 E26.71752
G1 X71.67 Y114.415 E26.74777
G1 X71.592 Y113.515 E26.78984
G1 X71.58 Y99.566 E27.43936
G1 X71.619 Y98.917 E27.46964
G1 X71.738 Y98.278 E27.4999
G1 X71.934 Y97.659 E27.53014
G1 X72.205 Y97.069 E27.56037
G1 X72.547 Y96.516 E27.59065
G1 X72.953 Y96.009 E27.62089
G1 X73.419 Y95.556 E27.65115
M204 S3000
M205 X10 Y10
G1 F2400 E21.65115
G0 F3000 X77.704 Y98.887
G0 X77.704 Y100.406
G0 X128.552 Y100.952
M204 S1800
M205 X8 Y8
;TYPE:WALL-INNER
G1 F2400 E27.65115
G1 F1500 X128.552 Y84.048 E28.43827
G1 X128.552 Y83.752 E28.45206
G1 X128.88 Y83.752 E28.46733
G1 X129.081 Y83.969 E28.47844
G1 X131.747 Y86.852 E28.66129
G1 X131.75 Y100.521 E29.29777
G1 X128.28 Y105.477 E29.57949
G1 X105.911 Y122.335 E30.88376
G1 X105.705 Y122.515 E30.89649
G1 X105.154 Y123.036 E30.9318
G1 X104.073 Y123.902 E30.9963
G1 X103.522 Y124.274 E31.02726
G1 X102.912 Y124.639 E31.06036
G1 X102.324 Y124.948 E31.09129
G1 X100.348 Y125.724 E31.19014
G1 X99.738 Y125.89 E31.21958
G1 X98.348 Y126.146 E31.28539
G1 X96.987 Y126.246 E31.34893
G1 X95.617 Y126.195 E31.41277
G1 X93.561 Y125.836 E31.50996
G1 X91.601 Y125.148 E31.60668
G1 X90.716 Y124.703 E31.65281
G1 X88.694 Y123.33 E31.76661
G1 X87.8 Y122.454 E31.8249
G1 X78.881 Y113.569 E32.41111
G1 X78.25 Y112.928 E32.45299
G1 X78.25 Y100.952 E33.01064
G1 X128.552 Y100.952 E35.35292
M204 S3000
M205 X10 Y10
G0 F3000 X127.992 Y100.392
M204 S1800
M205 X8 Y8
G1 F1500 X127.992 Y83.192 E36.15382
G1 X129.124 Y83.192 E36.20653
G1 X132.307 Y86.633 E36.4248
G1 X132.31 Y100.698 E37.07972
G1 X128.688 Y105.87 E37.37374
G1 X106.264 Y122.77 E38.68122
G1 X106.082 Y122.929 E38.69248
G1 X105.525 Y123.456 E38.72818
G1 X104.407 Y124.352 E38.7949
G1 X103.816 Y124.751 E38.8281
G1 X103.18 Y125.131 E38.8626
G1 X102.562 Y125.456 E38.89511
G1 X100.526 Y126.256 E38.99697
G1 X99.856 Y126.438 E39.0293
G1 X98.417 Y126.703 E39.09743
G1 X96.998 Y126.807 E39.16369
G1 X95.559 Y126.754 E39.23074
G1 X93.424 Y126.381 E39.33166
G1 X91.378 Y125.663 E39.43262
G1 X90.431 Y125.186 E39.482
G1 X88.338 Y123.765 E39.5998
G1 X87.408 Y122.854 E39.66042
G1 X78.486 Y113.966 E40.24683
G1 X77.69 Y113.157 E40.29968
G1 X77.69 Y100.392 E40.89407
G1 X127.992 Y100.392 E43.23634
M204 S3000
M205 X10 Y10
G0 F3000 X127.432 Y99.832
M204 S1800
M205 X8 Y8
;TYPE:WALL-OUTER
G1 F1500 X127.432 Y82.632 E44.03724
G1 X129.369 Y82.632 E44.12744
G1 X132.867 Y86.414 E44.36732
G1 X132.87 Y100.875 E45.04068
G1 X129.096 Y106.263 E45.347
G1 X106.618 Y123.204 E46.65764
G1 X106.46 Y123.343 E46.66744
G1 X105.897 Y123.876 E46.70354
G1 X104.741 Y124.802 E46.77251
G1 X104.11 Y125.228 E46.80796
G1 X103.448 Y125.623 E46.84386
G1 X102.8 Y125.964 E46.87795
G1 X100.704 Y126.787 E46.98281
G1 X99.974 Y126.986 E47.01804
G1 X98.495 Y127.258 E47.08806
G1 X97 Y127.368 E47.15786
G1 X95.5 Y127.313 E47.22776
G1 X93.288 Y126.926 E47.33232
G1 X91.155 Y126.178 E47.43757
G1 X90.15 Y125.671 E47.48999
G1 X87.979 Y124.198 E47.61215
G1 X87.016 Y123.254 E47.67494
G1 X78.091 Y114.363 E48.26155
G1 X77.13 Y113.386 E48.32536
G1 X77.13 Y99.832 E48.95649
G1 X127.432 Y99.832 E51.29877
M204 S3000
M205 X10 Y10
G0 F3000 X127.432 Y99.632
G0 X128.092 Y99.632
G0 X129.102 Y101.502
M204 S1800
M205 X8 Y8
;TYPE:SKIN
G1 F1500 X129.102 Y84.802 E52.07639
G1 X131.197 Y87.067 E52.22005
G1 X131.2 Y100.348 E52.83847
G1 X127.882 Y105.086 E53.10781
G1 X105.563 Y121.908 E54.40921
G1 X105.335 Y122.109 E54.42336
G1 X104.803 Y122.612 E54.45746
G1 X103.743 Y123.462 E54.52072
G1 X103.229 Y123.808 E54.54958
G1 X102.638 Y124.162 E54.58165
G1 X102.098 Y124.446 E54.61006
G1 X100.178 Y125.2 E54.70611
G1 X99.613 Y125.354 E54.73338
G1 X98.272 Y125.601 E54.79688
G1 X96.984 Y125.696 E54.85701
G1 X95.673 Y125.647 E54.9181
G1 X93.7 Y125.302 E55.01137
G1 X91.814 Y124.64 E55.10444
G1 X90.997 Y124.23 E55.147
G1 X89.045 Y122.903 E55.25691
G1 X88.185 Y122.061 E55.31295
G1 X79.27 Y113.18 E55.8989
G1 X78.8 Y112.703 E55.93009
G1 X78.8 Y101.502 E56.45165
G1 X129.102 Y101.502 E58.79392
M204 S3000
M205 X10 Y10
G0 F3000 X129.36 Y85.803
M204 S1800
M205 X8 Y8
G1 F1500 X130.937 Y87.379 E58.89774
G1 X131.007 Y87.449
M204 S3000
M205 X10 Y10
G0 F3000 X130.937 Y88.171
M204 S1800
M205 X8 Y8
G1 F1500 X129.36 Y86.595 E59.00155
G1 X129.29 Y86.525
M204 S3000
M205 X10 Y10
G0 F3000 X129.36 Y87.387
M204 S1800
M205 X8 Y8
G1 F1500 X130.937 Y88.963 E59.10537
G1 X131.007 Y89.033
M204 S3000
M205 X10 Y10
G0 F3000 X130.937 Y89.755
M204 S1800
M205 X8 Y8
G1 F1500 X129.36 Y88.179 E59.20918
G1 X129.29 Y88.109
M204 S3000
M205 X10 Y10
G0 F3000 X129.36 Y88.971
M204 S1800
M205 X8 Y8
G1 F1500 X130.937 Y90.547 E59.313
G1 X131.007 Y90.617
M204 S3000
M205 X10 Y10
G0 F3000 X130.937 Y91.339
M204 S1800
M205 X8 Y8
G1 F1500 X129.36 Y89.762 E59.41685
G1 X129.29 Y89.692
M204 S3000
M205 X10 Y10
G0 F3000 X129.36 Y90.554
M204 S1800
M205 X8 Y8
G1 F1500 X130.937 Y92.131 E59.5207
G1 X131.007 Y92.201
M204 S3000
M205 X10 Y10
G0 F3000 X130.937 Y92.923
M204 S1800
M205 X8 Y8
G1 F1500 X129.36 Y91.346 E59.62454
G1 X129.29 Y91.276
M204 S3000
M205 X10 Y10
G0 F3000 X129.36 Y92.138
M204 S1800
M205 X8 Y8
G1 F1500 X130.937 Y93.715 E59.72839
G1 X131.007 Y93.785
M204 S3000
M205 X10 Y10
G0 F3000 X130.938 Y94.508
M204 S1800
M205 X8 Y8
G1 F1500 X129.36 Y92.93 E59.83231
G1 X129.29 Y92.86
M204 S3000
M205 X10 Y10
G0 F3000 X129.36 Y93.722
M204 S1800
M205 X8 Y8
G1 F1500 X130.938 Y95.3 E59.93622
G1 X131.008 Y95.37
M204 S3000
M205 X10 Y10
G0 F3000 X130.938 Y96.092
M204 S1800
M205 X8 Y8
G1 F1500 X129.36 Y94.514 E60.04013
G1 X129.29 Y94.444
M204 S3000
M205 X10 Y10
G0 F3000 X129.36 Y95.306
M204 S1800
M205 X8 Y8
G1 F1500 X130.938 Y96.884 E60.14405
G1 X131.008 Y96.954
M204 S3000
M205 X10 Y10
G0 F3000 X130.939 Y97.676
M204 S1800
M205 X8 Y8
G1 F1500 X129.36 Y96.098 E60.24799
G1 X129.29 Y96.028
M204 S3000
M205 X10 Y10
G0 F3000 X129.36 Y96.89
M204 S1800
M205 X8 Y8
G1 F1500 X130.939 Y98.468 E60.35194
G1 X131.009 Y98.538
M204 S3000
M205 X10 Y10
G0 F3000 X130.939 Y99.26
M204 S1800
M205 X8 Y8
G1 F1500 X129.36 Y97.682 E60.45589
G1 X129.29 Y97.612
M204 S3000
M205 X10 Y10
G0 F3000 X129.36 Y98.474
M204 S1800
M205 X8 Y8
G1 F1500 X130.939 Y100.052 E60.55984
G1 X131.009 Y100.122
M204 S3000
M205 X10 Y10
G0 F3000 X130.701 Y100.607
M204 S1800
M205 X8 Y8
G1 F1500 X129.36 Y99.266 E60.64814
G1 X129.29 Y99.196
M204 S3000
M205 X10 Y10
G0 F3000 X129.36 Y100.058
M204 S1800
M205 X8 Y8
G1 F1500 X130.374 Y101.072 E60.71492
G1 X130.444 Y101.142
M204 S3000
M205 X10 Y10
G0 F3000 X130.048 Y101.538
M204 S1800
M205 X8 Y8
G1 F1500 X129.36 Y100.85 E60.76022
M204 S3000
M205 X10 Y10
G0 F3000 X129.36 Y101.642
M204 S1800
M205 X8 Y8
G1 F1500 X129.722 Y102.004 E60.78406
M204 S3000
M205 X10 Y10
G0 F3000 X129.396 Y102.469
M204 S1800
M205 X8 Y8
G1 F1500 X128.688 Y101.761 E60.83068
M204 S3000
M205 X10 Y10
G0 F3000 X127.896 Y101.761
M204 S1800
M205 X8 Y8
G1 F1500 X129.07 Y102.935 E60.90799
G1 X129.14 Y103.005
M204 S3000
M205 X10 Y10
G0 F3000 X128.744 Y103.401
M204 S1800
M205 X8 Y8
G1 F1500 X127.104 Y101.761 E61.01599
G1 X127.034 Y101.691
M204 S3000
M205 X10 Y10
G0 F3000 X126.312 Y101.761
M204 S1800
M205 X8 Y8
G1 F1500 X128.417 Y103.866 E61.15461
G1 X128.487 Y103.936
M204 S3000
M205 X10 Y10
G0 F3000 X128.091 Y104.332
M204 S1800
M205 X8 Y8
G1 F1500 X125.52 Y101.761 E61.32391
G1 X125.45 Y101.691
M204 S3000
M205 X10 Y10
G0 F3000 X124.728 Y101.761
M204 S1800
M205 X8 Y8
G1 F1500 X127.765 Y104.798 E61.5239
G1 X127.835 Y104.868
M204 S3000
M205 X10 Y10
G0 F3000 X127.34 Y105.165
M204 S1800
M205 X8 Y8
G1 F1500 X123.936 Y101.761 E61.74806
G1 X123.866 Y101.691
M204 S3000
M205 X10 Y10
G0 F3000 X123.144 Y101.761
M204 S1800
M205 X8 Y8
G1 F1500 X126.889 Y105.506 E61.99468
G1 X126.959 Y105.576
M204 S3000
M205 X10 Y10
G0 F3000 X126.437 Y105.846
M204 S1800
M205 X8 Y8
G1 F1500 X122.352 Y101.761 E62.26368
G1 X122.282 Y101.691
M204 S3000
M205 X10 Y10
G0 F3000 X121.56 Y101.761
M204 S1800
M205 X8 Y8
G1 F1500 X125.985 Y106.186 E62.55508
G1 X126.055 Y106.256
M204 S3000
M205 X10 Y10
G0 F3000 X125.534 Y106.527
M204 S1800
M205 X8 Y8
G1 F1500 X120.768 Y101.761 E62.86893
G1 X120.698 Y101.691
M204 S3000
M205 X10 Y10
G0 F3000 X119.976 Y101.761
M204 S1800
M205 X8 Y8
G1 F1500 X125.082 Y106.867 E63.20516
