;FLAVOR:Marlin
;TIME:1747
;Filament used: 0.655887m
;Layer height: 0.1
;Generated with Cura_SteamEngine 3.4.1
M190 S60
M104 S200
M109 S200
M82 ;absolute extrusion mode
G21 ;metric values
G90 ;absolute positioning
M82 ;set extruder to absolute mode
M107 ;start with the fan off
G28 X0 Y0 ;move X/Y to min endstops
G28 Z0 ;move Z to min endstops
G1 Z15.0 F50 ;move the platform down 15mm
G92 E0 ;zero the extruded length
G1 F200 E3 ;extrude 3mm of feed stock
G92 E0 ;zero the extruded length again
G1 F50
M117 Printing...
G5
G92 E0
G1 F2400 E-6
;LAYER_COUNT:54
;LAYER:0
M106 S255
M204 S3000
M205 X10 Y10
G0 F1500 X82.396 Y92.35 Z0.1
M204 S1800
M205 X8 Y8
;TYPE:SKIRT
G1 F2400 E0
G1 X82.963 Y91.914 E0.01665
G1 X83.551 Y91.558 E0.03266
G1 X84.292 Y91.161 E0.05223
G1 X84.94 Y90.859 E0.06887
G1 X85.618 Y90.631 E0.08553
G1 X86.363 Y90.473 E0.10326
G1 X87.055 Y90.369 E0.11955
G1 X88.015 Y90.298 E0.14196
G1 X122.463 Y90.345 E0.94398
G1 X123.177 Y90.386 E0.96063
G1 X123.882 Y90.506 E0.97728
G1 X124.441 Y90.661 E0.99079
G1 X124.94 Y90.824 E1.00301
G1 X125.607 Y91.084 E1.01968
G1 X126.24 Y91.417 E1.03633
G1 X126.698 Y91.718 E1.04909
G1 X127.438 Y92.252 E1.07034
G1 X127.994 Y92.702 E1.08699
G1 X128.496 Y93.212 E1.10365
G1 X128.956 Y93.801 E1.12105
G1 X129.286 Y94.278 E1.13456
G1 X129.66 Y94.888 E1.15122
G1 X130.065 Y95.809 E1.17464
G1 X130.315 Y96.525 E1.1923
G1 X130.513 Y97.213 E1.20897
G1 X130.633 Y97.918 E1.22561
G1 X130.673 Y98.634 E1.24231
G1 X130.674 Y111.353 E1.53844
G1 X130.634 Y112.068 E1.55511
G1 X130.5 Y112.837 E1.57328
G1 X130.414 Y113.198 E1.58192
G1 X130.209 Y113.884 E1.59859
G1 X129.891 Y114.62 E1.61726
G1 X129.591 Y115.209 E1.63265
G1 X129.231 Y115.827 E1.6493
G1 X128.58 Y116.656 E1.67384
G1 X128.119 Y117.153 E1.68962
G1 X127.604 Y117.65 E1.70629
G1 X127.037 Y118.086 E1.72294
G1 X126.449 Y118.442 E1.73894
G1 X125.708 Y118.839 E1.75851
G1 X125.06 Y119.141 E1.77516
G1 X124.382 Y119.369 E1.79181
G1 X123.961 Y119.47 E1.80189
G1 X123.528 Y119.558 E1.81218
G1 X122.82 Y119.661 E1.82884
G1 X122.247 Y119.686 E1.84219
G1 X87.54 Y119.655 E2.65024
G1 X86.826 Y119.614 E2.66689
G1 X86.121 Y119.494 E2.68354
G1 X85.434 Y119.296 E2.70019
G1 X85.009 Y119.131 E2.7108
G1 X84.159 Y118.764 E2.73236
G1 X83.519 Y118.444 E2.74902
G1 X82.919 Y118.055 E2.76567
G1 X82.344 Y117.58 E2.78303
G1 X81.847 Y117.119 E2.79881
G1 X81.35 Y116.604 E2.81548
G1 X80.914 Y116.037 E2.83213
G1 X80.556 Y115.446 E2.84822
G1 X80.159 Y114.704 E2.86781
G1 X79.857 Y114.056 E2.88445
G1 X79.63 Y113.378 E2.9011
G1 X79.473 Y112.636 E2.91876
G1 X79.369 Y111.944 E2.93505
G1 X79.298 Y110.977 E2.95762
G1 X79.329 Y98.606 E3.24565
G1 X79.371 Y97.892 E3.2623
G1 X79.492 Y97.187 E3.27895
G1 X79.621 Y96.709 E3.29048
G1 X79.802 Y96.131 E3.30458
G1 X80.054 Y95.462 E3.32123
G1 X80.375 Y94.831 E3.33771
G1 X80.577 Y94.483 E3.34708
G1 X80.97 Y93.886 E3.36372
G1 X81.42 Y93.344 E3.38012
G1 X81.881 Y92.847 E3.3959
G1 X82.396 Y92.35 E3.41257
M204 S3000
M205 X10 Y10
G0 F1500 X82.784 Y92.755
M204 S1800
M205 X8 Y8
G1 F2400 X83.329 Y92.343 E3.42847
G1 X83.815 Y92.051 E3.44167
G1 X84.556 Y91.654 E3.46124
G1 X85.176 Y91.367 E3.47715
G1 X85.825 Y91.155 E3.49305
G1 X86.446 Y91.027 E3.50781
G1 X87.138 Y90.923 E3.5241
G1 X88.014 Y90.858 E3.54455
G1 X122.462 Y90.905 E4.34657
G1 X123.144 Y90.946 E4.36248
G1 X123.817 Y91.066 E4.3784
G1 X124.267 Y91.194 E4.38929
G1 X124.766 Y91.357 E4.40151
G1 X125.402 Y91.606 E4.41741
G1 X126.005 Y91.929 E4.43334
G1 X126.37 Y92.172 E4.44355
G1 X127.11 Y92.706 E4.4648
G1 X127.64 Y93.138 E4.48071
G1 X128.116 Y93.628 E4.49662
G1 X128.496 Y94.119 E4.51107
G1 X128.826 Y94.596 E4.52458
G1 X129.181 Y95.18 E4.54049
G1 X129.537 Y95.994 E4.56118
G1 X129.787 Y96.71 E4.57883
G1 X129.974 Y97.367 E4.59474
G1 X130.083 Y98.041 E4.61063
G1 X130.113 Y98.635 E4.62448
G1 X130.114 Y111.354 E4.9206
G1 X130.074 Y112.036 E4.93651
G1 X129.955 Y112.707 E4.95238
G1 X129.869 Y113.068 E4.96102
G1 X129.672 Y113.723 E4.97694
G1 X129.392 Y114.366 E4.99327
G1 X129.092 Y114.955 E5.00866
G1 X128.747 Y115.544 E5.02455
G1 X128.17 Y116.276 E5.04625
G1 X127.709 Y116.773 E5.06203
G1 X127.216 Y117.245 E5.07792
G1 X126.671 Y117.657 E5.09383
G1 X126.185 Y117.949 E5.10703
G1 X125.444 Y118.346 E5.1266
G1 X124.824 Y118.633 E5.14251
G1 X123.849 Y118.921 E5.16618
G1 X123.416 Y119.009 E5.17647
G1 X122.74 Y119.106 E5.19237
G1 X122.248 Y119.126 E5.20383
G1 X87.541 Y119.095 E6.01188
G1 X86.859 Y119.054 E6.02779
G1 X86.186 Y118.934 E6.04371
G1 X85.231 Y118.617 E6.06713
G1 X84.381 Y118.25 E6.08869
G1 X83.771 Y117.943 E6.10459
G1 X83.2 Y117.566 E6.12052
G1 X82.724 Y117.17 E6.13493
G1 X82.227 Y116.709 E6.15072
G1 X81.755 Y116.216 E6.16661
G1 X81.343 Y115.671 E6.18251
G1 X81.05 Y115.182 E6.19579
G1 X80.653 Y114.44 E6.21538
G1 X80.366 Y113.82 E6.23128
G1 X80.154 Y113.17 E6.2472
G1 X80.027 Y112.553 E6.26187
G1 X79.923 Y111.861 E6.27816
G1 X79.858 Y110.978 E6.29877
G1 X79.889 Y98.607 E6.5868
G1 X79.931 Y97.925 E6.60271
G1 X80.052 Y97.253 E6.6186
G1 X80.156 Y96.877 E6.62769
G1 X80.337 Y96.299 E6.64179
G1 X80.579 Y95.66 E6.6577
G1 X80.859 Y95.112 E6.67202
G1 X81.061 Y94.764 E6.68139
G1 X81.438 Y94.194 E6.6973
G1 X81.83 Y93.724 E6.71155
G1 X82.291 Y93.227 E6.72734
G1 X82.784 Y92.755 E6.74323
M204 S3000
M205 X10 Y10
G0 F1500 X83.172 Y93.16
M204 S1800
M205 X8 Y8
G1 F2400 X83.694 Y92.773 E6.75835
G1 X84.079 Y92.545 E6.76877
G1 X84.82 Y92.148 E6.78834
G1 X85.411 Y91.877 E6.80348
G1 X86.03 Y91.68 E6.81861
G1 X86.529 Y91.581 E6.83045
G1 X87.221 Y91.477 E6.84674
G1 X88.013 Y91.418 E6.86523
G1 X122.461 Y91.465 E7.66725
G1 X123.11 Y91.506 E7.68239
G1 X123.748 Y91.626 E7.69751
G1 X124.093 Y91.726 E7.70587
G1 X124.592 Y91.889 E7.71809
G1 X125.196 Y92.128 E7.73322
G1 X125.766 Y92.44 E7.74835
G1 X126.043 Y92.626 E7.75611
G1 X126.783 Y93.16 E7.77736
G1 X127.285 Y93.572 E7.79248
G1 X127.733 Y94.043 E7.80761
G1 X128.035 Y94.438 E7.81919
G1 X128.365 Y94.915 E7.8327
G1 X128.701 Y95.471 E7.84782
G1 X129.008 Y96.178 E7.86577
G1 X129.258 Y96.894 E7.88342
G1 X129.434 Y97.52 E7.89856
G1 X129.532 Y98.162 E7.91368
G1 X129.553 Y98.635 E7.92471
G1 X129.554 Y111.354 E8.22083
G1 X129.514 Y112.002 E8.23595
G1 X129.41 Y112.578 E8.24957
G1 X129.324 Y112.939 E8.25821
G1 X129.135 Y113.56 E8.27333
G1 X128.893 Y114.111 E8.28734
G1 X128.593 Y114.7 E8.30273
G1 X128.263 Y115.26 E8.31786
G1 X127.759 Y115.895 E8.33674
G1 X127.298 Y116.392 E8.35252
G1 X126.828 Y116.84 E8.36764
G1 X126.306 Y117.227 E8.38276
G1 X125.921 Y117.455 E8.39318
G1 X125.18 Y117.852 E8.41275
G1 X124.589 Y118.123 E8.42789
G1 X123.738 Y118.372 E8.44853
G1 X123.305 Y118.46 E8.45882
G1 X122.661 Y118.55 E8.47396
G1 X122.248 Y118.566 E8.48358
G1 X87.541 Y118.535 E9.29164
G1 X86.893 Y118.494 E9.30675
G1 X86.254 Y118.375 E9.32189
G1 X85.453 Y118.102 E9.34159
G1 X84.603 Y117.735 E9.36314
G1 X84.024 Y117.442 E9.37825
G1 X83.485 Y117.079 E9.39338
G1 X83.105 Y116.759 E9.40495
G1 X82.608 Y116.298 E9.42073
G1 X82.16 Y115.828 E9.43585
G1 X81.773 Y115.306 E9.45098
G1 X81.543 Y114.918 E9.46148
G1 X81.146 Y114.176 E9.48107
G1 X80.876 Y113.585 E9.4962
G1 X80.68 Y112.966 E9.51132
G1 X80.581 Y112.47 E9.52309
G1 X80.477 Y111.778 E9.53938
G1 X80.418 Y110.98 E9.55801
G1 X80.449 Y98.609 E9.84604
G1 X80.491 Y97.96 E9.86118
G1 X80.69 Y97.044 E9.883
G1 X80.871 Y96.466 E9.8971
G1 X81.103 Y95.859 E9.91223
G1 X81.344 Y95.393 E9.92445
G1 X81.546 Y95.045 E9.93382
G1 X81.906 Y94.505 E9.94893
G1 X82.241 Y94.105 E9.96107
G1 X82.702 Y93.608 E9.97686
G1 X83.172 Y93.16 E9.99197
M204 S3000
M205 X10 Y10
G1 F2400 E3.99197
G0 F1500 X85.06 Y98.518
G0 X86.547 Y99.025
G0 X88.042 Y111.912
M204 S1800
M205 X8 Y8
;TYPE:WALL-INNER
G1 F2400 E9.99197
G1 F1500 X87.856 Y111.898 E9.99632
G1 X87.815 Y111.888 E9.9973
G1 X87.729 Y111.867 E9.99936
G1 X87.589 Y111.809 E10.00289
G1 X87.463 Y111.732 E10.00633
G1 X87.358 Y111.642 E10.00955
G1 X87.268 Y111.537 E10.01276
G1 X87.191 Y111.411 E10.0162
G1 X87.133 Y111.271 E10.01973
G1 X87.102 Y111.144 E10.02277
G1 X87.088 Y110.958 E10.02712
G1 X87.088 Y99.042 E10.30455
G1 X87.102 Y98.856 E10.30889
G1 X87.133 Y98.729 E10.31193
G1 X87.191 Y98.589 E10.31546
G1 X87.268 Y98.463 E10.3189
G1 X87.358 Y98.358 E10.32212
G1 X87.463 Y98.268 E10.32534
G1 X87.589 Y98.191 E10.32878
G1 X87.729 Y98.133 E10.3323
G1 X87.815 Y98.112 E10.33437
G1 X87.856 Y98.102 E10.33535
G1 X88.042 Y98.088 E10.33969
G1 X88.35 Y98.088 E10.34686
G1 X88.35 Y98.102
G1 X88.35 Y98.144 E10.34779
G1 X88.35 Y111.856 E10.66704
G1 X88.35 Y111.898 E10.66797
G1 X88.35 Y111.912
G1 X88.042 Y111.912 E10.67259
M204 S3000
M205 X10 Y10
G0 X88.882 Y107.632
G0 X98.511 Y107.644
G0 X99.872 Y107.089
G0 X99.882 Y102.632
G0 X115.618 Y102.368
G0 X116.382 Y97.632
G0 X121.118 Y97.632
G0 X121.958 Y98.088
M204 S1800
M205 X8 Y8
G1 X122.144 Y98.102 E10.67693
G1 X122.185 Y98.112 E10.67791
G1 X122.271 Y98.133 E10.67997
G1 X122.411 Y98.191 E10.6835
G1 X122.537 Y98.268 E10.68694
G1 X122.642 Y98.358 E10.69016
G1 X122.732 Y98.463 E10.69338
G1 X122.809 Y98.589 E10.69682
G1 X122.867 Y98.729 E10.70035
G1 X122.898 Y98.856 E10.70339
G1 X122.912 Y99.042 E10.70773
G1 X122.912 Y110.958 E10.98516
G1 X122.898 Y111.144 E10.9895
G1 X122.867 Y111.271 E10.99255
G1 X122.809 Y111.411 E10.99608
G1 X122.732 Y111.537 E10.99951
G1 X122.642 Y111.642 E11.00273
G1 X122.537 Y111.732 E11.00595
G1 X122.411 Y111.809 E11.00939
G1 X122.271 Y111.867 E11.01292
G1 X122.185 Y111.888 E11.01498
G1 X122.144 Y111.898 E11.01596
G1 X121.958 Y111.912 E11.02031
G1 X121.65 Y111.912 E11.02748
G1 X121.65 Y111.898
G1 X121.65 Y111.856 E11.02841
G1 X121.65 Y98.144 E11.34765
G1 X121.65 Y98.102 E11.34859
G1 X121.65 Y98.088
G1 X121.958 Y98.088 E11.3532
M204 S3000
M205 X10 Y10
G0 X122.233 Y97.548
M204 S1800
M205 X8 Y8
G1 X122.444 Y97.598 E11.35825
G1 X122.67 Y97.693 E11.36396
G1 X122.866 Y97.812 E11.3693
G1 X123.04 Y97.96 E11.37462
G1 X123.188 Y98.134 E11.37993
G1 X123.307 Y98.33 E11.38527
G1 X123.402 Y98.556 E11.39098
G1 X123.452 Y98.767 E11.39603
G1 X123.472 Y99.025 E11.40205
G1 X123.472 Y110.975 E11.68027
G1 X123.452 Y111.233 E11.6863
G1 X123.402 Y111.444 E11.69135
G1 X123.307 Y111.67 E11.69706
G1 X123.188 Y111.866 E11.70239
G1 X123.04 Y112.04 E11.70771
G1 X122.866 Y112.188 E11.71303
G1 X122.67 Y112.307 E11.71837
G1 X122.444 Y112.402 E11.72408
G1 X122.233 Y112.452 E11.72913
G1 X121.975 Y112.472 E11.73515
G1 X121.09 Y112.472 E11.75575
G1 X116.41 Y112.472 E11.86472
G1 X115.59 Y112.472 E11.88381
G1 X110.91 Y112.472 E11.99277
G1 X110.09 Y112.472 E12.01186
G1 X105.41 Y112.472 E12.12082
G1 X104.59 Y112.472 E12.13991
G1 X99.91 Y112.472 E12.24887
G1 X99.09 Y112.472 E12.26796
G1 X94.41 Y112.472 E12.37692
G1 X93.59 Y112.472 E12.39601
G1 X88.91 Y112.472 E12.50497
G1 X88.025 Y112.472 E12.52558
G1 X87.767 Y112.452 E12.5316
G1 X87.556 Y112.402 E12.53665
G1 X87.33 Y112.307 E12.54236
G1 X87.134 Y112.188 E12.5477
G1 X86.96 Y112.04 E12.55302
G1 X86.812 Y111.866 E12.55833
G1 X86.693 Y111.67 E12.56367
G1 X86.598 Y111.444 E12.56938
G1 X86.548 Y111.233 E12.57443
G1 X86.528 Y110.975 E12.58045
G1 X86.528 Y99.025 E12.85867
G1 X86.548 Y98.767 E12.8647
G1 X86.598 Y98.556 E12.86975
G1 X86.693 Y98.33 E12.87546
G1 X86.812 Y98.134 E12.88079
G1 X86.96 Y97.96 E12.88611
G1 X87.134 Y97.812 E12.89143
G1 X87.33 Y97.693 E12.89677
G1 X87.556 Y97.598 E12.90248
G1 X87.767 Y97.548 E12.90753
G1 X88.025 Y97.528 E12.91355
G1 X88.91 Y97.528 E12.93415
G1 X93.59 Y97.528 E13.04311
G1 X94.41 Y97.528 E13.06221
G1 X99.09 Y97.528 E13.17117
G1 X99.91 Y97.528 E13.19026
G1 X104.59 Y97.528 E13.29922
G1 X105.41 Y97.528 E13.31831
G1 X110.09 Y97.528 E13.42727
G1 X110.91 Y97.528 E13.44636
G1 X115.59 Y97.528 E13.55532
G1 X116.41 Y97.528 E13.57441
G1 X121.09 Y97.528 E13.68337
G1 X121.975 Y97.528 E13.70398
G1 X122.233 Y97.548 E13.71
M204 S3000
M205 X10 Y10
G0 X122.218 Y97.646
G0 X116.34 Y97.59
G0 X116.41 Y97.66
M204 S1800
M205 X8 Y8
G1 X116.41 Y102.34 E13.81896
G1 X121.09 Y102.34 E13.92792
G1 X121.09 Y97.66 E14.03688
G1 X116.41 Y97.66 E14.06257
M204 S3000
M205 X10 Y10
G0 X116.34 Y97.59
G0 X116.34 Y102.59
G0 X116.41 Y102.66
M204 S1800
M205 X8 Y8
G1 X116.41 Y107.34 E14.17153
G1 X121.09 Y107.34 E14.28049
G1 X121.09 Y102.66 E14.38945
G1 X116.41 Y102.66 E14.45171
M204 S3000
M205 X10 Y10
G0 X116.34 Y102.59
G0 X116.34 Y107.59
G0 X116.41 Y107.66
M204 S1800
M205 X8 Y8
G1 X116.41 Y112.34 E14.56067
G1 X121.09 Y112.34 E14.58635
G1 X121.09 Y107.66 E14.69531
G1 X116.41 Y107.66 E14.75758
M204 S3000
M205 X10 Y10
G0 X116.34 Y107.59
G0 X110.84 Y107.59
G0 X110.91 Y107.66
M204 S1800
M205 X8 Y8
G1 X110.91 Y112.34 E14.86654
G1 X115.59 Y112.34 E14.89222
G1 X115.59 Y107.66 E15.00118
G1 X110.91 Y107.66 E15.11014
M204 S3000
M205 X10 Y10
G0 X110.84 Y107.59
G0 X110.84 Y102.59
G0 X110.91 Y102.66
M204 S1800
M205 X8 Y8
G1 X110.91 Y107.34 E15.2191
G1 X115.59 Y107.34 E15.28136
G1 X115.59 Y102.66 E15.39032
G1 X110.91 Y102.66 E15.49928
M204 S3000
M205 X10 Y10
G0 X110.84 Y102.59
G0 X110.84 Y97.59
G0 X110.91 Y97.66
M204 S1800
M205 X8 Y8
G1 X110.91 Y102.34 E15.60824
G1 X115.59 Y102.34 E15.67051
G1 X115.59 Y97.66 E15.77947
G1 X110.91 Y97.66 E15.80515
M204 S3000
M205 X10 Y10
G0 X110.84 Y97.59
G0 X105.34 Y97.59
G0 X105.41 Y97.66
M204 S1800
M205 X8 Y8
G1 X105.41 Y102.34 E15.91411
G1 X110.09 Y102.34 E16.02307
G1 X110.09 Y97.66 E16.13203
G1 X105.41 Y97.66 E16.15772
M204 S3000
M205 X10 Y10
G0 X105.34 Y97.59
G0 X105.34 Y102.59
G0 X105.41 Y102.66
M204 S1800
M205 X8 Y8
G1 X105.41 Y107.34 E16.26668
G1 X110.09 Y107.34 E16.37564
G1 X110.09 Y102.66 E16.4846
G1 X105.41 Y102.66 E16.54686
M204 S3000
M205 X10 Y10
G0 X105.34 Y102.59
G0 X105.34 Y107.59
G0 X105.41 Y107.66
M204 S1800
M205 X8 Y8
G1 X105.41 Y112.34 E16.65582
G1 X110.09 Y112.34 E16.6815
G1 X110.09 Y107.66 E16.79046
G1 X105.41 Y107.66 E16.85273
M204 S3000
M205 X10 Y10
G0 X105.34 Y107.59
G0 X99.84 Y107.59
G0 X99.91 Y107.66
M204 S1800
M205 X8 Y8
G1 X99.91 Y112.34 E16.96169
G1 X104.59 Y112.34 E16.98737
G1 X104.59 Y107.66 E17.09633
G1 X99.91 Y107.66 E17.20529
M204 S3000
M205 X10 Y10
G0 X99.84 Y107.59
G0 X99.84 Y102.59
G0 X99.91 Y102.66
M204 S1800
M205 X8 Y8
G1 X99.91 Y107.34 E17.31425
G1 X104.59 Y107.34 E17.37651
G1 X104.59 Y102.66 E17.48547
G1 X99.91 Y102.66 E17.59443
M204 S3000
M205 X10 Y10
G0 X99.84 Y102.59
G0 X99.84 Y97.59
G0 X99.91 Y97.66
M204 S1800
M205 X8 Y8
G1 X99.91 Y102.34 E17.70339
G1 X104.59 Y102.34 E17.76566
G1 X104.59 Y97.66 E17.87462
G1 X99.91 Y97.66 E17.9003
M204 S3000
M205 X10 Y10
G0 X99.84 Y97.59
G0 X94.34 Y97.59
G0 X94.41 Y97.66
M204 S1800
M205 X8 Y8
G1 X94.41 Y102.34 E18.00926
G1 X99.09 Y102.34 E18.11822
G1 X99.09 Y97.66 E18.22718
G1 X94.41 Y97.66 E18.25286
M204 S3000
M205 X10 Y10
G0 X94.34 Y97.59
G0 X94.34 Y102.59
G0 X94.41 Y102.66
M204 S1800
M205 X8 Y8
G1 X94.41 Y107.34 E18.36182
G1 X99.09 Y107.34 E18.47078
G1 X99.09 Y102.66 E18.57974
G1 X94.41 Y102.66 E18.64201
M204 S3000
M205 X10 Y10
G0 X94.34 Y102.59
G0 X94.34 Y107.59
G0 X94.41 Y107.66
M204 S1800
M205 X8 Y8
G1 X94.41 Y112.34 E18.75097
G1 X99.09 Y112.34 E18.77665
G1 X99.09 Y107.66 E18.88561
G1 X94.41 Y107.66 E18.94787
M204 S3000
M205 X10 Y10
G0 X94.34 Y107.59
G0 X88.84 Y107.59
G0 X88.91 Y107.66
M204 S1800
M205 X8 Y8
G1 X88.91 Y112.34 E19.05683
G1 X93.59 Y112.34 E19.08252
G1 X93.59 Y107.66 E19.19148
G1 X88.91 Y107.66 E19.30044
M204 S3000
M205 X10 Y10
G0 X88.84 Y107.59
G0 X88.84 Y102.59
G0 X88.91 Y102.66
M204 S1800
M205 X8 Y8
G1 X88.91 Y107.34 E19.4094
G1 X93.59 Y107.34 E19.47166
G1 X93.59 Y102.66 E19.58062
G1 X88.91 Y102.66 E19.68958
M204 S3000
M205 X10 Y10
G0 X88.84 Y102.59
G0 X88.84 Y97.59
G0 X88.91 Y97.66
M204 S1800
M205 X8 Y8
G1 X88.91 Y102.34 E19.79854
G1 X93.59 Y102.34 E19.86081
G1 X93.59 Y97.66 E19.96977
G1 X88.91 Y97.66 E19.99545
M204 S3000
M205 X10 Y10
G0 X89.47 Y98.22
M204 S1800
M205 X8 Y8
;TYPE:WALL-OUTER
G1 X89.47 Y101.78 E20.07833
G1 X93.03 Y101.78 E20.16122
G1 X93.03 Y98.22 E20.2441
G1 X89.47 Y98.22 E20.32699
M204 S3000
M205 X10 Y10
G0 X89.47 Y98.42
G0 X88.81 Y98.42
G0 X88.882 Y102.368
G0 X89.47 Y102.56
G0 X89.47 Y103.22
M204 S1800
M205 X8 Y8
G1 X89.47 Y106.78 E20.40987
G1 X93.03 Y106.78 E20.49275
G1 X93.03 Y103.22 E20.57564
G1 X89.47 Y103.22 E20.65852
M204 S3000
M205 X10 Y10
G0 X89.47 Y103.42
G0 X88.81 Y103.42
G0 X88.882 Y107.368
G0 X89.47 Y107.56
G0 X89.47 Y108.22
M204 S1800
M205 X8 Y8
