;FLAVOR:Marlin
;TIME:1293
;Filament used: 1.19507m
;Layer height: 0.2
;Generated with Cura_SteamEngine 3.5.1
M140 S90
M105
M190 S90
M104 S235
M105
M109 S235
M82 ;absolute extrusion mode
G21 ;metric values
G90 ;absolute positioning
M82 ;set extruder to absolute mode
M107 ;start with the fan off
G28 X0 Y0 ;move X/Y to min endstops
G28 Z0 ;move Z to min endstops
G1 Z15.0 F100 ;move the platform down 15mm
G92 E0 ;zero the extruded length
G1 F200 E3 ;extrude 3mm of feed stock
G92 E0 ;zero the extruded length again
G1 F100
M117 Printing...
G5
G92 E0
G1 F2400 E-6
;LAYER_COUNT:113
;LAYER:0
M106 S255
M204 S3000
M205 X10 Y10
G0 F1200 X84.42 Y96.685 Z0.3
M204 S1800
M205 X8 Y8
;TYPE:SKIRT
G1 F2400 E0
G1 X85.074 Y96.186 E0.05746
G1 X85.982 Y95.581 E0.13367
G1 X86.599 Y95.218 E0.18367
G1 X87.381 Y94.879 E0.2432
G1 X88.466 Y94.492 E0.32366
G1 X89.152 Y94.29 E0.37361
G1 X89.69 Y94.187 E0.41187
G1 X99.296 Y92.783 E1.08994
G1 X99.698 Y92.737 E1.1182
G1 X101.098 Y92.622 E1.21631
G1 X101.631 Y92.601 E1.25357
G1 X108.87 Y92.611 E1.75919
G1 X109.764 Y92.675 E1.82179
G1 X120.171 Y94.158 E2.55602
G1 X121.197 Y94.392 E2.62953
G1 X122.187 Y94.705 E2.70205
G1 X122.856 Y94.958 E2.752
G1 X123.551 Y95.319 E2.80671
G1 X124.516 Y95.898 E2.88531
G1 X125.108 Y96.3 E2.93529
G1 X125.724 Y96.836 E2.99232
G1 X126.478 Y97.582 E3.06641
G1 X126.958 Y98.113 E3.1164
G1 X127.452 Y98.818 E3.17653
G1 X128.085 Y99.864 E3.26193
G1 X128.421 Y100.496 E3.31192
G1 X128.684 Y101.161 E3.36187
G1 X128.795 Y101.533 E3.38898
G1 X129.142 Y102.838 E3.4833
G1 X129.287 Y103.539 E3.5333
G1 X129.357 Y104.535 E3.60304
G1 X129.348 Y105.653 E3.68113
G1 X129.302 Y106.366 E3.73103
G1 X129.231 Y106.821 E3.7632
G1 X129.13 Y107.341 E3.80019
G1 X128.946 Y108.061 E3.8521
G1 X128.765 Y108.63 E3.8938
G1 X128.51 Y109.298 E3.94375
G1 X128.282 Y109.759 E3.97967
G1 X127.752 Y110.729 E4.05687
G1 X127.375 Y111.336 E4.10678
G1 X126.863 Y111.974 E4.16392
G1 X126.122 Y112.786 E4.2407
G1 X125.612 Y113.287 E4.29063
G1 X124.978 Y113.775 E4.34651
G1 X124.09 Y114.375 E4.42137
G1 X123.476 Y114.742 E4.47133
G1 X123.09 Y114.928 E4.50126
G1 X122.555 Y115.164 E4.5421
G1 X121.885 Y115.415 E4.59207
G1 X121.297 Y115.569 E4.63453
G1 X119.733 Y115.9 E4.74619
G1 X119.317 Y115.974 E4.7757
G1 X110.028 Y117.307 E5.43115
G1 X109.133 Y117.372 E5.49383
G1 X101.155 Y117.39 E6.05106
G1 X100.238 Y117.326 E6.11527
G1 X89.834 Y115.843 E6.84929
G1 X88.809 Y115.61 E6.92271
G1 X87.812 Y115.295 E6.99574
G1 X87.143 Y115.041 E7.04572
G1 X86.446 Y114.679 E7.10058
G1 X85.483 Y114.101 E7.17903
G1 X84.892 Y113.7 E7.22891
G1 X84.276 Y113.164 E7.28594
G1 X83.522 Y112.418 E7.36003
G1 X83.042 Y111.887 E7.41002
G1 X82.546 Y111.179 E7.4704
G1 X81.91 Y110.127 E7.55627
G1 X81.575 Y109.495 E7.60623
G1 X81.312 Y108.83 E7.65617
G1 X81.2 Y108.452 E7.68371
G1 X80.856 Y107.151 E7.7777
G1 X80.712 Y106.45 E7.82769
G1 X80.643 Y105.463 E7.89679
G1 X80.652 Y104.347 E7.97475
G1 X80.698 Y103.634 E8.02465
G1 X80.769 Y103.179 E8.05681
G1 X80.87 Y102.659 E8.09381
G1 X81.054 Y101.939 E8.14572
G1 X81.235 Y101.37 E8.18742
G1 X81.49 Y100.702 E8.23736
G1 X81.716 Y100.244 E8.27304
G1 X82.246 Y99.273 E8.3503
G1 X82.624 Y98.665 E8.40031
G1 X83.149 Y98.012 E8.45883
G1 X83.908 Y97.185 E8.53723
G1 X84.42 Y96.685 E8.58722
M204 S3000
M205 X10 Y10
G0 F1200 X84.811 Y97.088
M204 S1800
M205 X8 Y8
G1 F2400 X85.385 Y96.652 E8.63756
G1 X86.293 Y96.047 E8.71377
G1 X86.883 Y95.702 E8.76151
G1 X87.569 Y95.406 E8.81369
G1 X88.654 Y95.019 E8.89415
G1 X89.31 Y94.828 E8.94188
G1 X89.771 Y94.741 E8.97464
G1 X99.377 Y93.337 E9.65272
G1 X99.744 Y93.296 E9.67851
G1 X101.144 Y93.181 E9.77662
G1 X101.63 Y93.161 E9.8106
G1 X108.869 Y93.171 E10.31621
G1 X109.685 Y93.229 E10.37335
G1 X120.092 Y94.712 E11.10759
G1 X121.028 Y94.926 E11.17465
G1 X122.018 Y95.239 E11.24717
G1 X122.657 Y95.482 E11.29492
G1 X123.263 Y95.799 E11.34269
G1 X124.228 Y96.378 E11.42129
G1 X124.792 Y96.763 E11.46899
G1 X125.33 Y97.235 E11.51898
G1 X126.084 Y97.981 E11.59306
G1 X126.541 Y98.489 E11.64079
G1 X126.973 Y99.108 E11.69351
G1 X127.606 Y100.154 E11.77891
G1 X127.925 Y100.759 E11.82668
G1 X128.254 Y101.677 E11.89479
G1 X128.601 Y102.982 E11.98911
G1 X128.738 Y103.652 E12.03687
G1 X128.797 Y104.53 E12.09834
G1 X128.788 Y105.648 E12.17643
G1 X128.742 Y106.33 E12.22417
G1 X128.681 Y106.714 E12.25133
G1 X128.58 Y107.234 E12.28833
G1 X128.412 Y107.891 E12.33569
G1 X128.231 Y108.46 E12.3774
G1 X127.986 Y109.098 E12.42513
G1 X127.791 Y109.49 E12.45571
G1 X127.261 Y110.46 E12.53292
G1 X126.899 Y111.04 E12.58067
G1 X126.45 Y111.597 E12.63064
G1 X125.709 Y112.409 E12.70742
G1 X125.22 Y112.885 E12.75509
G1 X124.665 Y113.311 E12.80395
G1 X123.777 Y113.911 E12.87881
G1 X123.189 Y114.26 E12.92657
G1 X122.864 Y114.415 E12.95172
G1 X122.329 Y114.651 E12.99256
G1 X121.689 Y114.89 E13.04028
G1 X121.181 Y115.021 E13.07692
G1 X119.617 Y115.352 E13.18858
G1 X119.238 Y115.42 E13.21547
G1 X109.949 Y116.753 E13.87092
G1 X109.132 Y116.812 E13.92813
G1 X101.154 Y116.83 E14.48537
G1 X100.317 Y116.772 E14.54397
G1 X89.913 Y115.289 E15.278
G1 X88.978 Y115.076 E15.34497
G1 X87.981 Y114.761 E15.418
G1 X87.342 Y114.517 E15.46578
G1 X86.735 Y114.199 E15.51364
G1 X85.772 Y113.621 E15.59209
G1 X85.207 Y113.236 E15.63984
G1 X84.67 Y112.765 E15.68973
G1 X83.916 Y112.019 E15.76382
G1 X83.459 Y111.511 E15.81155
G1 X83.025 Y110.889 E15.86452
G1 X82.389 Y109.837 E15.95038
G1 X82.071 Y109.233 E15.99806
G1 X81.741 Y108.309 E16.06659
G1 X81.397 Y107.008 E16.16058
G1 X81.261 Y106.338 E16.20833
G1 X81.203 Y105.468 E16.26924
G1 X81.212 Y104.352 E16.34719
G1 X81.258 Y103.67 E16.39493
G1 X81.319 Y103.286 E16.42209
G1 X81.42 Y102.766 E16.45909
G1 X81.588 Y102.109 E16.50645
G1 X81.769 Y101.54 E16.54816
G1 X82.014 Y100.902 E16.59589
G1 X82.208 Y100.512 E16.62631
G1 X82.738 Y99.541 E16.70358
G1 X83.1 Y98.961 E16.75133
G1 X83.561 Y98.39 E16.80259
G1 X84.32 Y97.563 E16.88099
G1 X84.811 Y97.088 E16.92871
M204 S3000
M205 X10 Y10
G0 F1200 X85.201 Y97.491
M204 S1800
M205 X8 Y8
G1 F2400 X85.695 Y97.118 E16.97195
G1 X86.603 Y96.513 E17.04816
G1 X87.165 Y96.187 E17.09353
G1 X87.757 Y95.934 E17.1385
G1 X88.842 Y95.547 E17.21896
G1 X89.466 Y95.367 E17.26432
G1 X89.852 Y95.296 E17.29174
G1 X99.458 Y93.892 E17.96981
G1 X99.79 Y93.854 E17.99315
G1 X101.19 Y93.739 E18.09126
G1 X101.629 Y93.721 E18.12195
G1 X108.868 Y93.731 E18.62757
G1 X109.606 Y93.784 E18.67925
G1 X120.013 Y95.267 E19.41348
G1 X120.86 Y95.46 E19.47416
G1 X121.85 Y95.773 E19.54668
G1 X122.456 Y96.006 E19.59203
G1 X122.975 Y96.279 E19.63299
G1 X123.94 Y96.858 E19.71159
G1 X124.475 Y97.226 E19.75694
G1 X124.937 Y97.633 E19.79995
G1 X125.691 Y98.379 E19.87403
G1 X126.123 Y98.863 E19.91934
G1 X126.494 Y99.398 E19.96482
G1 X127.127 Y100.444 E20.05021
G1 X127.429 Y101.02 E20.09564
G1 X127.713 Y101.821 E20.155
G1 X128.06 Y103.126 E20.24932
G1 X128.188 Y103.763 E20.2947
G1 X128.237 Y104.526 E20.3481
G1 X128.228 Y105.644 E20.42619
G1 X128.131 Y106.608 E20.49386
G1 X128.03 Y107.128 E20.53086
G1 X127.879 Y107.722 E20.57367
G1 X127.698 Y108.291 E20.61537
G1 X127.463 Y108.896 E20.66071
G1 X127.299 Y109.222 E20.6862
G1 X126.769 Y110.192 E20.7634
G1 X126.424 Y110.742 E20.80875
G1 X126.036 Y111.219 E20.85169
G1 X125.295 Y112.031 E20.92848
G1 X124.829 Y112.483 E20.97382
G1 X124.351 Y112.847 E21.01578
G1 X123.463 Y113.447 E21.09064
G1 X122.638 Y113.903 E21.15648
G1 X122.103 Y114.139 E21.19732
G1 X121.494 Y114.364 E21.24267
G1 X121.065 Y114.474 E21.2736
G1 X119.501 Y114.805 E21.38526
G1 X119.158 Y114.865 E21.40958
G1 X109.869 Y116.198 E22.06503
G1 X109.131 Y116.252 E22.11671
G1 X101.153 Y116.27 E22.67395
G1 X100.396 Y116.217 E22.72695
G1 X89.992 Y114.734 E23.46098
G1 X89.146 Y114.542 E23.52157
G1 X88.149 Y114.227 E23.5946
G1 X87.543 Y113.993 E23.63997
G1 X87.023 Y113.719 E23.68103
G1 X86.06 Y113.141 E23.75947
G1 X85.524 Y112.773 E23.80489
G1 X85.063 Y112.367 E23.84779
G1 X84.309 Y111.621 E23.92188
G1 X83.877 Y111.137 E23.96719
G1 X83.505 Y110.6 E24.01282
G1 X82.869 Y109.548 E24.09868
G1 X82.567 Y108.972 E24.14411
G1 X82.282 Y108.166 E24.20382
G1 X81.938 Y106.865 E24.29781
G1 X81.811 Y106.228 E24.34318
G1 X81.763 Y105.472 E24.39609
G1 X81.772 Y104.356 E24.47404
G1 X81.869 Y103.392 E24.54171
G1 X81.97 Y102.872 E24.57871
G1 X82.121 Y102.278 E24.62152
G1 X82.302 Y101.709 E24.66322
G1 X82.537 Y101.104 E24.70856
G1 X82.699 Y100.78 E24.73386
G1 X83.229 Y99.809 E24.81112
G1 X83.575 Y99.259 E24.85651
G1 X83.974 Y98.769 E24.90064
G1 X84.733 Y97.942 E24.97905
G1 X85.201 Y97.491 E25.02444
M204 S3000
M205 X10 Y10
G1 F2400 E19.02444
G0 F1200 X87.419 Y101.807
G0 X88.587 Y102.784
G0 X89.257 Y105.808
G0 X89.588 Y106.428
G0 X91.033 Y107.947
M204 S1800
M205 X8 Y8
;TYPE:WALL-INNER
G1 F2400 E25.02444
G1 F600 X91.347 Y107.99 E25.04658
G1 X91.476 Y107.994 E25.05559
G1 X91.66 Y108 E25.06845
G1 X91.971 Y107.977 E25.09023
G1 X92.279 Y107.922 E25.11209
G1 X92.578 Y107.836 E25.13382
G1 X92.62 Y107.819 E25.13698
G1 X92.872 Y107.718 E25.15594
G1 X93.154 Y107.567 E25.17829
G1 X93.412 Y107.39 E25.20014
G1 X93.65 Y107.191 E25.22181
G1 X93.87 Y106.962 E25.24399
G1 X94.061 Y106.716 E25.26574
G1 X94.227 Y106.452 E25.28752
G1 X94.365 Y106.167 E25.30964
G1 X94.472 Y105.871 E25.33162
G1 X94.547 Y105.567 E25.35349
G1 X94.59 Y105.253 E25.37563
G1 X94.6 Y104.94 E25.3975
G1 X94.577 Y104.629 E25.41929
G1 X94.522 Y104.321 E25.44114
G1 X94.436 Y104.022 E25.46287
G1 X94.318 Y103.728 E25.485
G1 X94.167 Y103.446 E25.50734
G1 X93.99 Y103.188 E25.52919
G1 X93.791 Y102.95 E25.55086
G1 X93.562 Y102.73 E25.57304
G1 X93.316 Y102.539 E25.59479
G1 X93.052 Y102.373 E25.61658
G1 X92.767 Y102.235 E25.63869
G1 X92.621 Y102.182 E25.64954
G1 X92.471 Y102.128 E25.66068
G1 X92.167 Y102.053 E25.68255
G1 X91.853 Y102.01 E25.70468
G1 X91.54 Y102 E25.72656
G1 X91.485 Y102.004 E25.73041
G1 X91.229 Y102.023 E25.74834
G1 X90.976 Y102.068 E25.76629
G1 X90.921 Y102.078 E25.77019
G1 X90.819 Y102.107 E25.7776
G1 X90.622 Y102.164 E25.79192
G1 X90.454 Y102.231 E25.80455
G1 X90.328 Y102.282 E25.81405
G1 X90.301 Y102.296 E25.81617
G1 X90.149 Y102.378 E25.82824
G1 X90.046 Y102.433 E25.83639
G1 X89.975 Y102.481 E25.84238
G1 X89.822 Y102.586 E25.85534
G1 X89.788 Y102.61 E25.85825
G1 X89.684 Y102.697 E25.86772
G1 X89.55 Y102.809 E25.87991
G1 X89.415 Y102.949 E25.8935
G1 X89.33 Y103.038 E25.90209
G1 X89.305 Y103.071 E25.90499
G1 X89.187 Y103.223 E25.91843
G1 X89.139 Y103.284 E25.92385
G1 X89.083 Y103.373 E25.93119
G1 X88.987 Y103.525 E25.94375
G1 X88.973 Y103.548 E25.94563
G1 X88.897 Y103.705 E25.95781
G1 X88.835 Y103.833 E25.96775
G1 X88.768 Y104.02 E25.98162
G1 X88.728 Y104.129 E25.98973
G1 X88.713 Y104.19 E25.99412
G1 X88.653 Y104.433 E26.0116
G1 X88.64 Y104.53 E26.01844
G1 X88.61 Y104.747 E26.03374
G1 X88.605 Y104.91 E26.04513
G1 X88.6 Y105.06 E26.05561
G1 X88.602 Y105.098 E26.05827
G1 X88.617 Y105.29 E26.07172
G1 X88.623 Y105.371 E26.07739
G1 X88.636 Y105.446 E26.08271
G1 X88.667 Y105.622 E26.09519
G1 X88.678 Y105.679 E26.09925
G1 X88.723 Y105.837 E26.11072
G1 X88.764 Y105.978 E26.12098
G1 X88.832 Y106.148 E26.13377
G1 X88.882 Y106.272 E26.1431
G1 X88.904 Y106.314 E26.14642
G1 X89.004 Y106.5 E26.16117
G1 X89.033 Y106.554 E26.16545
G1 X89.083 Y106.628 E26.17168
G1 X89.2 Y106.798 E26.1861
G1 X89.21 Y106.812 E26.1873
G1 X89.302 Y106.922 E26.19732
G1 X89.409 Y107.05 E26.20897
G1 X89.429 Y107.069 E26.2109
G1 X89.57 Y107.204 E26.22453
G1 X89.638 Y107.27 E26.23115
G1 X89.691 Y107.311 E26.23583
G1 X89.835 Y107.423 E26.24857
G1 X89.884 Y107.461 E26.2529
G1 X90.01 Y107.54 E26.26329
G1 X90.148 Y107.627 E26.27468
G1 X90.313 Y107.707 E26.28749
G1 X90.433 Y107.765 E26.2968
G1 X90.479 Y107.781 E26.3002
G1 X90.654 Y107.845 E26.31322
G1 X90.729 Y107.872 E26.31879
G1 X90.995 Y107.937 E26.33791
G1 X91.033 Y107.947 E26.34066
M204 S3000
M205 X10 Y10
G0 F1200 X92.531 Y107.28
G0 X102.384 Y102.104
M204 S1800
M205 X8 Y8
G1 F600 X102.151 Y102.337 E26.36367
G1 X101.939 Y102.58 E26.38619
G1 X101.749 Y102.845 E26.40897
G1 X101.578 Y103.125 E26.43189
G1 X101.435 Y103.419 E26.45472
G1 X101.313 Y103.721 E26.47747
G1 X101.221 Y104.034 E26.50026
G1 X101.152 Y104.355 E26.52319
G1 X101.112 Y104.679 E26.54599
G1 X101.098 Y105.005 E26.56878
G1 X101.114 Y105.333 E26.59172
G1 X101.156 Y105.657 E26.61454
G1 X101.223 Y105.972 E26.63703
G1 X101.315 Y106.285 E26.65982
G1 X101.44 Y106.595 E26.68317
G1 X101.586 Y106.886 E26.70591
G1 X101.753 Y107.159 E26.72826
G1 X101.943 Y107.425 E26.75109
G1 X102.161 Y107.676 E26.77431
G1 X102.397 Y107.905 E26.79728
G1 X102.645 Y108.108 E26.81966
G1 X102.908 Y108.293 E26.84212
G1 X103.198 Y108.461 E26.86553
G1 X103.494 Y108.599 E26.88834
G1 X103.8 Y108.712 E26.91113
G1 X104.118 Y108.8 E26.93417
G1 X104.436 Y108.86 E26.95678
G1 X104.761 Y108.893 E26.97959
G1 X105.086 Y108.899 E27.0023
G1 X105.412 Y108.879 E27.02511
G1 X105.735 Y108.83 E27.04793
G1 X106.054 Y108.757 E27.07078
G1 X106.367 Y108.653 E27.09382
G1 X106.665 Y108.527 E27.11642
G1 X106.953 Y108.378 E27.13907
G1 X107.231 Y108.201 E27.16209
G1 X107.495 Y107.999 E27.18531
G1 X107.735 Y107.78 E27.208
G1 X107.954 Y107.548 E27.23028
G1 X108.16 Y107.289 E27.2534
G1 X108.34 Y107.016 E27.27624
G1 X108.497 Y106.73 E27.29902
G1 X108.63 Y106.43 E27.32194
G1 X108.736 Y106.125 E27.3445
G1 X108.818 Y105.805 E27.36757
G1 X108.87 Y105.484 E27.39028
G1 X108.898 Y105.161 E27.41293
G1 X108.898 Y104.829 E27.43612
G1 X108.869 Y104.503 E27.45898
G1 X108.814 Y104.184 E27.48159
G1 X108.733 Y103.869 E27.5043
G1 X108.625 Y103.56 E27.52717
G1 X108.492 Y103.26 E27.55009
G1 X108.335 Y102.977 E27.57269
G1 X108.154 Y102.703 E27.59563
G1 X107.945 Y102.441 E27.61904
G1 X107.723 Y102.209 E27.64147
G1 X107.486 Y101.994 E27.66382
G1 X107.222 Y101.793 E27.68699
G1 X106.944 Y101.618 E27.70994
G1 X106.656 Y101.469 E27.73258
G1 X106.359 Y101.343 E27.75512
G1 X106.049 Y101.241 E27.77791
G1 X105.723 Y101.165 E27.80129
G1 X105.396 Y101.119 E27.82436
G1 X105.078 Y101.101 E27.8466
G1 X104.75 Y101.107 E27.86952
G1 X104.425 Y101.143 E27.89236
G1 X104.108 Y101.202 E27.91488
G1 X103.792 Y101.29 E27.93779
G1 X103.481 Y101.406 E27.96097
G1 X103.188 Y101.546 E27.98365
G1 X102.902 Y101.71 E28.00668
G1 X102.639 Y101.896 E28.02918
G1 X102.384 Y102.104 E28.05217
M204 S3000
M205 X10 Y10
G0 F1200 X104.784 Y101.627
G0 X118.868 Y102.565
G0 X119.459 Y102.779
G0 X121.427 Y103.964
M204 S1800
M205 X8 Y8
G1 F600 X121.473 Y104.114 E28.06312
G1 X121.513 Y104.273 E28.07458
G1 X121.525 Y104.321 E28.07803
G1 X121.555 Y104.476 E28.08906
G1 X121.571 Y104.605 E28.09814
G1 X121.585 Y104.718 E28.10609
G1 X121.596 Y104.89 E28.11813
G1 X121.596 Y104.938 E28.12148
G1 X121.598 Y105.092 E28.13224
G1 X121.589 Y105.264 E28.14427
G1 X121.588 Y105.274 E28.14497
G1 X121.564 Y105.478 E28.15932
G1 X121.541 Y105.603 E28.1682
G1 X121.528 Y105.672 E28.1731
G1 X121.46 Y105.922 E28.1912
G1 X121.426 Y106.045 E28.20011
G1 X121.365 Y106.205 E28.21207
G1 X121.346 Y106.248 E28.21535
G1 X121.281 Y106.393 E28.22645
G1 X121.203 Y106.542 E28.2382
G1 X121.183 Y106.581 E28.24126
G1 X121.092 Y106.73 E28.25345
G1 X121.024 Y106.828 E28.26178
G1 X120.986 Y106.883 E28.26645
G1 X120.862 Y107.041 E28.28048
G1 X120.818 Y107.091 E28.28513
G1 X120.724 Y107.198 E28.29508
G1 X120.592 Y107.33 E28.30812
G1 X120.581 Y107.339 E28.30911
G1 X120.438 Y107.465 E28.32243
G1 X120.335 Y107.546 E28.33158
G1 X120.3 Y107.574 E28.33471
G1 X120.146 Y107.679 E28.34773
G1 X120.056 Y107.734 E28.35509
G1 X119.946 Y107.8 E28.36405
G1 X119.794 Y107.879 E28.37602
G1 X119.752 Y107.897 E28.37921
G1 X119.614 Y107.959 E28.38978
G1 X119.444 Y108.023 E28.40247
G1 X119.226 Y108.09 E28.41839
G1 X119.125 Y108.114 E28.42565
G1 X119.059 Y108.13 E28.43039
G1 X118.802 Y108.171 E28.44857
G1 X118.531 Y108.215 E28.46774
G1 X118.492 Y108.22 E28.47049
G1 X118.187 Y108.264 E28.49201
G1 X117.885 Y108.307 E28.51332
G1 X117.599 Y108.349 E28.53351
G1 X117.445 Y108.371 E28.54437
G1 X109.048 Y109.58 E29.13692
G1 X108.866 Y109.597 E29.14969
G1 X101.242 Y109.6 E29.6822
G1 X101.057 Y109.59 E29.69514
G1 X92.548 Y108.372 E30.29552
G1 X92.503 Y108.366 E30.29783
G1 X92.222 Y108.325 E30.31409
G1 X91.927 Y108.282 E30.32729
G1 X91.627 Y108.238 E30.33756
G1 X91.469 Y108.215 E30.34164
