;FLAVOR:Marlin
;TIME:1655
;Filament used: 1.71536m
;Layer height: 0.2
;Generated with Cura_SteamEngine 3.5.1
M140 S90
M105
M190 S90
M104 S235
M105
M109 S235
M82 ;absolute extrusion mode
G21 ;metric values
G90 ;absolute positioning
M82 ;set extruder to absolute mode
M107 ;start with the fan off
G28 X0 Y0 ;move X/Y to min endstops
G28 Z0 ;move Z to min endstops
G1 Z15.0 F100 ;move the platform down 15mm
G92 E0 ;zero the extruded length
G1 F200 E3 ;extrude 3mm of feed stock
G92 E0 ;zero the extruded length again
G1 F100
M117 Printing...
G5
G92 E0
G1 F2400 E-6
;LAYER_COUNT:60
;LAYER:0
M106 S255
M204 S3000
M205 X10 Y10
G0 F1200 X74.573 Y97.729 Z0.3
M204 S1800
M205 X8 Y8
;TYPE:SKIRT
G1 F2400 E0
G1 X75.203 Y97.329 E0.05212
G1 X75.766 Y97.015 E0.09715
G1 X76.409 Y96.702 E0.1471
G1 X77.026 Y96.479 E0.19292
G1 X82.273 Y94.888 E0.57588
G1 X87.294 Y93.046 E0.94944
G1 X89.002 Y92.354 E1.07815
G1 X89.679 Y92.123 E1.12812
G1 X90.377 Y91.968 E1.17806
G1 X90.793 Y91.914 E1.20736
G1 X91.406 Y91.855 E1.25037
G1 X92.023 Y91.826 E1.29351
G1 X118.372 Y91.843 E3.13389
G1 X119.086 Y91.883 E3.18384
G1 X119.791 Y92.003 E3.23379
G1 X120.649 Y92.263 E3.29641
G1 X125.215 Y94.004 E3.63772
G1 X130.375 Y95.729 E4.01774
G1 X133.275 Y96.6 E4.22923
G1 X133.948 Y96.843 E4.27921
G1 X134.589 Y97.16 E4.32915
G1 X135.19 Y97.547 E4.37908
G1 X135.89 Y98.135 E4.44293
G1 X136.288 Y98.521 E4.48166
G1 X136.773 Y99.047 E4.53163
G1 X137.196 Y99.623 E4.58155
G1 X137.552 Y100.244 E4.63154
G1 X137.836 Y100.9 E4.68147
G1 X138.007 Y101.433 E4.72057
G1 X138.165 Y102.013 E4.76256
G1 X138.314 Y102.712 E4.81248
G1 X138.39 Y103.695 E4.88134
G1 X138.39 Y108.365 E5.20752
G1 X138.35 Y109.079 E5.25747
G1 X138.177 Y110.003 E5.32313
G1 X138.033 Y110.547 E5.36244
G1 X137.812 Y111.227 E5.41238
G1 X137.516 Y111.878 E5.46233
G1 X137.149 Y112.492 E5.51229
G1 X136.716 Y113.061 E5.56223
G1 X136.44 Y113.365 E5.59091
G1 X136.055 Y113.762 E5.62954
G1 X135.53 Y114.246 E5.67941
G1 X134.953 Y114.669 E5.72938
G1 X134.333 Y115.026 E5.77935
G1 X133.676 Y115.31 E5.82934
G1 X133.145 Y115.48 E5.86829
G1 X132.562 Y115.639 E5.91049
G1 X131.862 Y115.789 E5.9605
G1 X130.924 Y115.865 E6.02623
G1 X124.131 Y115.914 E6.50071
G1 X118.815 Y116.215 E6.8726
G1 X113.575 Y116.81 E7.24095
G1 X106.769 Y118.018 E7.72375
G1 X105.794 Y118.115 E7.79219
G1 X104.769 Y118.138 E7.8638
G1 X104.054 Y118.114 E7.91377
G1 X103.448 Y118.031 E7.95649
G1 X100.416 Y117.464 E8.17193
G1 X95.107 Y116.632 E8.54727
G1 X89.791 Y116.105 E8.9204
G1 X87.225 Y115.961 E9.09991
G1 X78.759 Y115.834 E9.69129
G1 X78.046 Y115.784 E9.74121
G1 X77.342 Y115.654 E9.79122
G1 X76.658 Y115.446 E9.84115
G1 X75.784 Y115.05 E9.90817
G1 X75.272 Y114.77 E9.94893
G1 X74.665 Y114.392 E9.99888
G1 X74.103 Y113.949 E10.04886
G1 X73.595 Y113.446 E10.09879
G1 X73.146 Y112.89 E10.14871
G1 X72.863 Y112.462 E10.18455
G1 X72.58 Y111.993 E10.2228
G1 X72.246 Y111.36 E10.27279
G1 X71.983 Y110.695 E10.32274
G1 X71.797 Y110.004 E10.37272
G1 X71.689 Y109.292 E10.42302
G1 X71.63 Y108.672 E10.46652
G1 X71.601 Y108.011 E10.51274
G1 X71.641 Y103.376 E10.83649
G1 X71.687 Y102.662 E10.88646
G1 X71.813 Y101.958 E10.93641
G1 X72.016 Y101.272 E10.98638
G1 X72.419 Y100.373 E11.05519
G1 X72.698 Y99.86 E11.09598
G1 X73.074 Y99.252 E11.14591
G1 X73.516 Y98.69 E11.19585
G1 X74.018 Y98.18 E11.24583
G1 X74.573 Y97.729 E11.29578
M204 S3000
M205 X10 Y10
G0 F1200 X75.001 Y98.113
M204 S1800
M205 X8 Y8
G1 F2400 X75.475 Y97.818 E11.33478
G1 X76.038 Y97.504 E11.37981
G1 X76.654 Y97.206 E11.4276
G1 X77.188 Y97.015 E11.46721
G1 X82.456 Y95.417 E11.85172
G1 X87.485 Y93.573 E12.22585
G1 X89.212 Y92.873 E12.356
G1 X89.859 Y92.654 E12.40371
G1 X90.846 Y92.472 E12.47381
G1 X91.459 Y92.413 E12.51683
G1 X92.023 Y92.386 E12.55626
G1 X118.372 Y92.403 E14.39664
G1 X119.054 Y92.443 E14.44436
G1 X119.726 Y92.563 E14.49204
G1 X120.449 Y92.786 E14.54489
G1 X125.028 Y94.533 E14.8872
G1 X130.194 Y96.259 E15.26763
G1 X133.114 Y97.136 E15.48058
G1 X133.756 Y97.37 E15.52831
G1 X134.366 Y97.678 E15.57604
G1 X134.935 Y98.055 E15.62371
G1 X135.5 Y98.537 E15.67559
G1 X135.898 Y98.923 E15.71431
G1 X136.36 Y99.426 E15.76201
G1 X136.759 Y99.98 E15.8097
G1 X137.092 Y100.577 E15.85745
G1 X137.352 Y101.209 E15.90518
G1 X137.467 Y101.58 E15.93231
G1 X137.625 Y102.16 E15.9743
G1 X137.765 Y102.829 E16.02203
G1 X137.83 Y103.695 E16.08269
G1 X137.83 Y108.365 E16.40887
G1 X137.79 Y109.047 E16.45659
G1 X137.636 Y109.859 E16.51432
G1 X137.492 Y110.403 E16.55362
G1 X137.278 Y111.053 E16.60142
G1 X136.991 Y111.672 E16.64908
G1 X136.633 Y112.254 E16.6968
G1 X136.038 Y112.975 E16.76209
G1 X135.653 Y113.372 E16.80072
G1 X135.15 Y113.833 E16.84838
G1 X134.596 Y114.233 E16.8961
G1 X133.999 Y114.566 E16.94385
G1 X133.367 Y114.826 E16.99158
G1 X132.998 Y114.94 E17.01856
G1 X132.415 Y115.099 E17.06076
G1 X131.746 Y115.24 E17.10852
G1 X130.92 Y115.305 E17.16639
G1 X124.115 Y115.354 E17.64171
G1 X118.773 Y115.657 E18.01542
G1 X113.493 Y116.256 E18.38658
G1 X106.671 Y117.467 E18.87052
G1 X105.781 Y117.556 E18.93299
G1 X104.756 Y117.579 E19.0046
G1 X104.073 Y117.554 E19.05234
G1 X103.551 Y117.48 E19.08916
G1 X100.536 Y116.916 E19.3034
G1 X95.18 Y116.077 E19.68206
G1 X89.83 Y115.547 E20.05757
G1 X87.242 Y115.401 E20.23862
G1 X78.767 Y115.274 E20.83063
G1 X78.086 Y115.224 E20.87833
G1 X77.415 Y115.095 E20.92605
G1 X76.764 Y114.888 E20.97376
G1 X76.053 Y114.559 E21.02848
G1 X75.541 Y114.279 E21.06924
G1 X74.962 Y113.917 E21.11694
G1 X74.429 Y113.489 E21.16468
G1 X73.949 Y113.002 E21.21244
G1 X73.53 Y112.463 E21.26013
G1 X73.343 Y112.172 E21.28429
G1 X73.06 Y111.703 E21.32255
G1 X72.742 Y111.099 E21.37022
G1 X72.496 Y110.461 E21.41798
G1 X72.327 Y109.799 E21.4657
G1 X72.246 Y109.239 E21.50523
G1 X72.187 Y108.619 E21.54873
G1 X72.161 Y108.016 E21.59088
G1 X72.201 Y103.381 E21.91463
G1 X72.247 Y102.699 E21.96238
G1 X72.372 Y102.027 E22.01012
G1 X72.575 Y101.375 E22.05781
G1 X72.911 Y100.641 E22.1142
G1 X73.19 Y100.128 E22.15498
G1 X73.551 Y99.548 E22.2027
G1 X73.977 Y99.014 E22.25041
G1 X74.463 Y98.533 E22.29817
G1 X75.001 Y98.113 E22.34585
M204 S3000
M205 X10 Y10
G0 F1200 X75.425 Y98.502
M204 S1800
M205 X8 Y8
G1 F2400 X75.748 Y98.307 E22.3722
G1 X76.311 Y97.993 E22.41722
G1 X76.897 Y97.712 E22.46262
G1 X77.351 Y97.551 E22.49626
G1 X82.635 Y95.948 E22.88194
G1 X87.675 Y94.1 E23.25688
G1 X89.422 Y93.392 E23.38854
G1 X90.038 Y93.185 E23.43393
G1 X90.9 Y93.029 E23.49512
G1 X91.513 Y92.97 E23.53813
G1 X92.022 Y92.946 E23.57372
G1 X118.371 Y92.963 E25.4141
G1 X119.02 Y93.003 E25.45952
G1 X119.658 Y93.123 E25.50486
G1 X120.25 Y93.31 E25.54823
G1 X124.822 Y95.054 E25.89001
G1 X130.023 Y96.792 E26.27302
G1 X132.953 Y97.672 E26.4867
G1 X133.562 Y97.897 E26.53205
G1 X134.14 Y98.195 E26.57747
G1 X134.676 Y98.561 E26.6228
G1 X135.11 Y98.939 E26.663
G1 X135.508 Y99.325 E26.70173
G1 X135.946 Y99.805 E26.74711
G1 X136.321 Y100.335 E26.79246
G1 X136.628 Y100.907 E26.83781
G1 X136.926 Y101.727 E26.89874
G1 X137.084 Y102.307 E26.94073
G1 X137.216 Y102.943 E26.9861
G1 X137.27 Y103.695 E27.03876
G1 X137.27 Y108.365 E27.36494
G1 X137.23 Y109.013 E27.41029
G1 X137.094 Y109.716 E27.4603
G1 X136.95 Y110.26 E27.49961
G1 X136.746 Y110.877 E27.545
G1 X136.467 Y111.463 E27.59033
G1 X136.118 Y112.012 E27.63577
G1 X135.636 Y112.585 E27.68806
G1 X135.251 Y112.982 E27.72669
G1 X134.771 Y113.419 E27.77203
G1 X134.241 Y113.795 E27.81742
G1 X133.669 Y114.102 E27.86276
G1 X132.85 Y114.4 E27.92363
G1 X132.267 Y114.559 E27.96584
G1 X131.631 Y114.691 E28.01121
G1 X130.916 Y114.745 E28.06129
G1 X124.1 Y114.794 E28.53738
G1 X118.712 Y115.099 E28.91431
G1 X113.428 Y115.699 E29.28575
G1 X106.573 Y116.916 E29.77203
G1 X105.768 Y116.996 E29.82854
G1 X104.743 Y117.019 E29.90015
G1 X104.094 Y116.993 E29.94551
G1 X103.654 Y116.93 E29.97656
G1 X100.595 Y116.358 E30.19392
G1 X95.25 Y115.521 E30.5718
G1 X89.893 Y114.989 E30.94781
G1 X87.256 Y114.841 E31.13228
G1 X78.776 Y114.714 E31.72465
G1 X78.128 Y114.665 E31.77004
G1 X77.491 Y114.536 E31.81543
G1 X76.875 Y114.33 E31.8608
G1 X76.322 Y114.068 E31.90354
G1 X75.81 Y113.788 E31.9443
G1 X75.26 Y113.441 E31.98972
G1 X74.757 Y113.03 E32.03509
G1 X74.308 Y112.561 E32.08044
G1 X73.822 Y111.883 E32.1387
G1 X73.539 Y111.414 E32.17696
G1 X73.238 Y110.838 E32.22236
G1 X73.011 Y110.23 E32.26769
G1 X72.859 Y109.598 E32.31309
G1 X72.804 Y109.186 E32.34212
G1 X72.745 Y108.566 E32.38562
G1 X72.721 Y108.02 E32.42379
G1 X72.761 Y103.385 E32.74754
G1 X72.807 Y102.737 E32.79292
G1 X72.932 Y102.1 E32.83826
G1 X73.134 Y101.483 E32.8836
G1 X73.403 Y100.908 E32.92794
G1 X73.682 Y100.395 E32.96873
G1 X74.026 Y99.845 E33.01404
G1 X74.436 Y99.341 E33.05942
G1 X74.905 Y98.891 E33.10482
G1 X75.425 Y98.502 E33.15018
M204 S3000
M205 X10 Y10
G1 F2400 E27.15018
G0 F1200 X86.664 Y101.849
G0 X87.436 Y103.178
G0 X104.342 Y109.22
G0 X105.219 Y109.296
G0 X105.985 Y109.095
G0 X107.786 Y108.093
M204 S1800
M205 X8 Y8
;TYPE:WALL-INNER
G1 F2400 E33.15018
G1 F600 X107.922 Y107.765 E33.17498
G1 X108.021 Y107.43 E33.19938
G1 X108.082 Y107.078 E33.22433
G1 X108.102 Y106.725 E33.24903
G1 X108.082 Y106.372 E33.27372
G1 X108.021 Y106.02 E33.29867
G1 X107.922 Y105.685 E33.32307
G1 X107.786 Y105.357 E33.34787
G1 X107.608 Y105.044 E33.37302
G1 X107.401 Y104.761 E33.39751
G1 X107.162 Y104.501 E33.42218
G1 X106.895 Y104.269 E33.44688
G1 X106.601 Y104.067 E33.4718
G1 X106.288 Y103.904 E33.49645
G1 X105.961 Y103.775 E33.521
G1 X105.616 Y103.684 E33.54592
G1 X105.263 Y103.634 E33.57082
G1 X104.913 Y103.624 E33.59528
G1 X104.559 Y103.654 E33.62009
G1 X104.208 Y103.726 E33.64512
G1 X103.876 Y103.834 E33.66951
G1 X103.552 Y103.981 E33.69436
G1 X103.249 Y104.165 E33.71912
G1 X102.967 Y104.38 E33.74388
G1 X102.713 Y104.63 E33.76878
G1 X102.491 Y104.901 E33.79325
G1 X102.3 Y105.198 E33.81791
G1 X102.142 Y105.516 E33.84271
G1 X102.024 Y105.851 E33.86752
G1 X101.943 Y106.195 E33.8922
G1 X101.903 Y106.548 E33.91702
G1 X101.903 Y106.902 E33.94174
G1 X101.943 Y107.255 E33.96656
G1 X102.024 Y107.599 E33.99124
G1 X102.142 Y107.934 E34.01605
G1 X102.239 Y108.128 E34.0312
G1 X102.3 Y108.252 E34.04085
G1 X102.491 Y108.549 E34.06551
G1 X102.713 Y108.82 E34.08998
G1 X102.744 Y108.85 E34.09299
G1 X102.967 Y109.07 E34.11487
G1 X103.249 Y109.285 E34.13964
G1 X103.309 Y109.321 E34.14453
G1 X103.413 Y109.384 E34.15302
G1 X103.552 Y109.469 E34.1644
G1 X103.876 Y109.616 E34.18925
G1 X103.914 Y109.628 E34.19204
G1 X104.168 Y109.711 E34.2107
G1 X104.208 Y109.724 E34.21364
G1 X104.559 Y109.796 E34.23866
G1 X104.625 Y109.801 E34.24329
G1 X104.913 Y109.826 E34.26348
G1 X104.984 Y109.824 E34.26844
G1 X105.263 Y109.816 E34.28794
G1 X105.343 Y109.805 E34.29358
G1 X105.616 Y109.766 E34.31284
G1 X105.855 Y109.703 E34.3301
G1 X105.961 Y109.675 E34.33776
G1 X106.037 Y109.645 E34.34347
G1 X106.288 Y109.546 E34.36231
G1 X106.601 Y109.383 E34.38696
G1 X106.683 Y109.327 E34.3939
G1 X106.895 Y109.181 E34.41187
G1 X107.162 Y108.949 E34.43658
G1 X107.248 Y108.855 E34.44548
G1 X107.401 Y108.689 E34.46125
G1 X107.608 Y108.406 E34.48574
G1 X107.78 Y108.103 E34.51007
G1 X107.786 Y108.093 E34.51089
M204 S3000
M205 X10 Y10
G0 F1200 X122.899 Y103.903
M204 S1800
M205 X8 Y8
G1 F600 X123.459 Y103.975 E34.55032
G1 X130.6 Y103.975 E35.0491
G1 X130.6 Y108.075 E35.33546
G1 X113.668 Y108.075 E36.5181
G1 X112.806 Y108.01 E36.57848
G1 X112.443 Y107.942 E36.60428
G1 X112.087 Y107.847 E36.63001
G1 X111.173 Y107.49 E36.69855
G1 X110.736 Y107.345 E36.73071
G1 X110.135 Y107.3 E36.7728
G1 X109.542 Y107.407 E36.81489
G1 X108.994 Y107.658 E36.85699
G1 X108.522 Y108.04 E36.8994
G1 X108.233 Y108.432 E36.93342
G1 X108.027 Y108.713 E36.95686
G1 X107.819 Y108.996 E36.97958
G1 X107.651 Y109.224 E36.99847
G1 X107.501 Y109.35 E37.01166
G1 X107.228 Y109.579 E37.03484
G1 X106.993 Y109.776 E37.05526
G1 X106.888 Y109.835 E37.0634
G1 X106.835 Y109.86 E37.06728
G1 X106.518 Y110.016 E37.09053
G1 X106.238 Y110.153 E37.11138
G1 X106.106 Y110.19 E37.12069
G1 X105.992 Y110.222 E37.12861
G1 X105.725 Y110.279 E37.14671
G1 X105.42 Y110.344 E37.16754
G1 X105.28 Y110.348 E37.17702
G1 X105 Y110.357 E37.19562
G1 X104.897 Y110.354 E37.2025
G1 X104.58 Y110.344 E37.22375
G1 X104.449 Y110.317 E37.23281
G1 X104.098 Y110.242 E37.25656
G1 X104.003 Y110.221 E37.26312
G1 X103.746 Y110.148 E37.28114
G1 X103.649 Y110.103 E37.28844
G1 X103.325 Y109.95 E37.31231
G1 X103.127 Y109.857 E37.32715
G1 X103.024 Y109.793 E37.33549
G1 X102.908 Y109.696 E37.34581
G1 X102.635 Y109.469 E37.36913
G1 X102.361 Y109.241 E37.3929
G1 X102.284 Y109.137 E37.40172
G1 X102.076 Y108.854 E37.42468
G1 X101.868 Y108.57 E37.44783
G1 X101.786 Y108.458 E37.45732
G1 X101.479 Y108.04 E37.49354
G1 X101.022 Y107.671 E37.53457
G1 X100.483 Y107.418 E37.57615
G1 X99.9 Y107.306 E37.61762
G1 X99.301 Y107.336 E37.65951
G1 X98.847 Y107.482 E37.69282
G1 X97.943 Y107.835 E37.7606
G1 X97.683 Y107.895 E37.77924
G1 X97.524 Y107.941 E37.7908
G1 X97.181 Y108.012 E37.81527
G1 X96.332 Y108.075 E37.87473
G1 X79.4 Y108.075 E39.05737
G1 X79.4 Y103.975 E39.34374
G1 X86.541 Y103.975 E39.84251
G1 X87.101 Y103.903 E39.88194
G1 X87.709 Y103.65 E39.92794
G1 X88.153 Y103.308 E39.96709
G1 X91.843 Y99.625 E40.33123
G1 X118.157 Y99.625 E42.16916
G1 X121.847 Y103.308 E42.53331
G1 X122.291 Y103.65 E42.57245
G1 X122.899 Y103.903 E42.61845
M204 S3000
M205 X10 Y10
G0 F1200 X123.045 Y103.357
M204 S1800
M205 X8 Y8
G1 F600 X123.495 Y103.415 E42.65014
G1 X130.846 Y103.415 E43.16358
G1 X130.963 Y103.43 E43.17182
G1 X131.032 Y103.459 E43.17705
G1 X131.08 Y103.495 E43.18124
G1 X131.115 Y103.541 E43.18527
G1 X131.145 Y103.612 E43.19066
G1 X131.16 Y103.729 E43.1989
G1 X131.16 Y108.321 E43.51963
G1 X131.145 Y108.437 E43.5278
G1 X131.116 Y108.507 E43.53309
G1 X131.08 Y108.555 E43.53728
G1 X131.032 Y108.591 E43.54147
G1 X130.963 Y108.62 E43.5467
G1 X130.846 Y108.635 E43.55494
G1 X113.653 Y108.635 E44.75581
G1 X112.734 Y108.566 E44.82018
G1 X112.312 Y108.487 E44.85017
G1 X111.909 Y108.379 E44.87931
G1 X110.982 Y108.017 E44.94882
G1 X110.625 Y107.898 E44.9751
G1 X110.165 Y107.864 E45.00732
G1 X109.711 Y107.946 E45.03954
G1 X109.291 Y108.138 E45.0718
G1 X108.93 Y108.43 E45.10423
G1 X108.062 Y109.61 E45.20654
G1 X107.312 Y110.239 E45.27491
G1 X107.152 Y110.329 E45.28773
G1 X106.438 Y110.678 E45.34324
G1 X106.122 Y110.767 E45.36617
G1 X105.488 Y110.903 E45.41146
G1 X105 Y110.917 E45.44556
G1 X104.512 Y110.903 E45.47966
G1 X103.878 Y110.767 E45.52495
G1 X103.55 Y110.675 E45.54874
G1 X102.861 Y110.35 E45.60195
G1 X102.696 Y110.248 E45.6155
G1 X101.949 Y109.626 E45.6834
G1 X101.07 Y108.43 E45.78707
G1 X100.723 Y108.149 E45.81825
G1 X100.309 Y107.955 E45.85019
G1 X99.861 Y107.869 E45.88205
G1 X99.402 Y107.892 E45.91415
G1 X99.035 Y108.01 E45.94107
G1 X98.111 Y108.371 E46.01036
G1 X97.823 Y108.437 E46.031
G1 X97.66 Y108.484 E46.04285
G1 X97.26 Y108.567 E46.07138
G1 X96.347 Y108.635 E46.13533
G1 X79.154 Y108.635 E47.3362
G1 X79.037 Y108.62 E47.34444
G1 X78.968 Y108.591 E47.34966
G1 X78.92 Y108.555 E47.35385
G1 X78.884 Y108.507 E47.35804
G1 X78.855 Y108.437 E47.36334
G1 X78.84 Y108.321 E47.37151
G1 X78.84 Y103.729 E47.69224
G1 X78.855 Y103.612 E47.70048
G1 X78.885 Y103.541 E47.70586
G1 X78.92 Y103.495 E47.7099
G1 X78.968 Y103.459 E47.71409
G1 X79.037 Y103.43 E47.71932
G1 X79.154 Y103.415 E47.72756
G1 X86.505 Y103.415 E48.241
G1 X86.955 Y103.357 E48.27269
G1 X87.426 Y103.161 E48.30832
G1 X87.783 Y102.886 E48.3398
G1 X91.499 Y99.177 E48.70651
G1 X91.589 Y99.108 E48.71443
G1 X91.656 Y99.08 E48.7195
G1 X91.772 Y99.065 E48.72767
G1 X118.228 Y99.065 E50.57552
G1 X118.344 Y99.08 E50.58369
G1 X118.411 Y99.108 E50.58877
G1 X118.501 Y99.177 E50.59669
G1 X122.217 Y102.886 E50.9634
G1 X122.574 Y103.161 E50.99487
G1 X123.045 Y103.357 E51.03051
M204 S3000
M205 X10 Y10
G0 F1200 X123.02 Y103.453
G0 X107.371 Y107.889
G0 X107.282 Y107.846
M204 S1800
M205 X8 Y8
G1 F600 X107.393 Y107.578 E51.05077
G1 X107.475 Y107.302 E51.07088
G1 X107.525 Y107.014 E51.09129
G1 X107.541 Y106.725 E51.11151
G1 X107.525 Y106.436 E51.13173
G1 X107.475 Y106.148 E51.15214
G1 X107.393 Y105.872 E51.17225
G1 X107.282 Y105.604 E51.19251
G1 X107.137 Y105.349 E51.213
G1 X106.967 Y105.117 E51.23309
G1 X106.771 Y104.903 E51.25336
