;FLAVOR:Marlin
;TIME:1863
;Filament used: 1.56917m
;Layer height: 0.2
;Generated with Cura_SteamEngine 3.5.1
M140 S90
M105
M190 S90
M104 S235
M105
M109 S235
M82 ;absolute extrusion mode
G21 ;metric values
G90 ;absolute positioning
M82 ;set extruder to absolute mode
M107 ;start with the fan off
G28 X0 Y0 ;move X/Y to min endstops
G28 Z0 ;move Z to min endstops
G1 Z15.0 F100 ;move the platform down 15mm
G92 E0 ;zero the extruded length
G1 F200 E3 ;extrude 3mm of feed stock
G92 E0 ;zero the extruded length again
G1 F100
M117 Printing...
G5
G92 E0
G1 F2400 E-6
;LAYER_COUNT:16
;LAYER:0
M106 S255
M204 S3000
M205 X10 Y10
G0 F1200 X68.7 Y82.17 Z0.3
M204 S1800
M205 X8 Y8
;TYPE:SKIRT
G1 F2400 E0
G1 X69.277 Y81.747 E0.04997
G1 X69.926 Y81.378 E0.10212
G1 X70.68 Y81.005 E0.16087
G1 X71.116 Y80.809 E0.19426
G1 X74.49 Y79.443 E0.4485
G1 X75.167 Y79.212 E0.49847
G1 X75.866 Y79.058 E0.54846
G1 X76.854 Y78.975 E0.61771
G1 X80.94 Y78.951 E0.90311
G1 X81.53 Y78.975 E0.94435
G1 X86.023 Y79.364 E1.25934
G1 X91.326 Y79.551 E1.62997
G1 X96.627 Y79.44 E2.00031
G1 X102.523 Y78.971 E2.41342
G1 X103.032 Y78.951 E2.449
G1 X106.994 Y78.952 E2.72573
G1 X107.627 Y78.984 E2.77
G1 X109.328 Y79.154 E2.8894
G1 X114.685 Y79.495 E3.26432
G1 X119.986 Y79.534 E3.63459
G1 X125.315 Y79.27 E4.00726
G1 X128.422 Y78.98 E4.22521
G1 X129.014 Y78.952 E4.26661
G1 X132.97 Y78.951 E4.54292
G1 X133.685 Y78.991 E4.59294
G1 X134.174 Y79.065 E4.62748
G1 X134.472 Y79.122 E4.64867
G1 X135.166 Y79.295 E4.69863
G1 X135.794 Y79.527 E4.74539
G1 X139.753 Y81.226 E5.0463
G1 X140.393 Y81.544 E5.09621
G1 X140.994 Y81.932 E5.14618
G1 X141.776 Y82.603 E5.21815
G1 X144.654 Y85.508 E5.50377
G1 X145.128 Y86.043 E5.55369
G1 X145.539 Y86.628 E5.60363
G1 X145.978 Y87.464 E5.66958
G1 X147.079 Y90.001 E5.86275
G1 X147.135 Y90.134 E5.87283
G1 X147.643 Y91.381 E5.96688
G1 X147.961 Y92.398 E6.0413
G1 X148.049 Y92.791 E6.06943
G1 X148.166 Y93.496 E6.11935
G1 X148.204 Y94.189 E6.16782
G1 X148.204 Y98.136 E6.44351
G1 X148.164 Y98.85 E6.49346
G1 X148.066 Y99.457 E6.5364
G1 X147.993 Y99.803 E6.5611
G1 X147.807 Y100.494 E6.61108
G1 X147.644 Y100.931 E6.64366
G1 X146.142 Y104.558 E6.91785
G1 X145.832 Y105.202 E6.96778
G1 X145.577 Y105.624 E7.00221
G1 X145.389 Y105.91 E7.02612
G1 X144.963 Y106.485 E7.0761
G1 X144.573 Y106.914 E7.1166
G1 X142.762 Y108.73 E7.29573
G1 X142.737 Y108.755 E7.2982
G1 X141.74 Y109.744 E7.39629
G1 X141.191 Y110.229 E7.44745
G1 X139.683 Y111.416 E7.5815
G1 X135.587 Y114.892 E7.95672
G1 X131.734 Y118.554 E8.328
G1 X129.94 Y120.411 E8.50834
G1 X126.4 Y124.401 E8.8809
G1 X123.094 Y128.581 E9.25314
G1 X121.56 Y130.7 E9.43585
G1 X119.337 Y133.986 E9.71296
G1 X118.904 Y134.555 E9.7629
G1 X118.561 Y134.926 E9.79819
G1 X115.814 Y137.672 E10.06948
G1 X115.28 Y138.149 E10.11949
G1 X114.974 Y138.379 E10.14623
G1 X114.636 Y138.617 E10.1751
G1 X114.029 Y138.995 E10.22505
G1 X113.371 Y139.309 E10.27597
G1 X109.6 Y140.849 E10.56048
G1 X108.923 Y141.082 E10.61049
G1 X108.225 Y141.238 E10.66044
G1 X107.207 Y141.324 E10.7318
G1 X102.944 Y141.342 E11.02956
G1 X102.23 Y141.305 E11.07949
G1 X101.524 Y141.189 E11.12947
G1 X100.529 Y140.88 E11.20224
G1 X96.695 Y139.338 E11.49088
G1 X96.047 Y139.034 E11.54087
G1 X95.489 Y138.696 E11.58644
G1 X95.128 Y138.451 E11.61691
G1 X94.56 Y138.016 E11.66688
G1 X94.198 Y137.682 E11.70128
G1 X91.439 Y134.925 E11.97371
G1 X90.962 Y134.392 E12.02367
G1 X90.688 Y134.022 E12.05583
G1 X87.494 Y129.373 E12.44979
G1 X84.238 Y125.165 E12.82142
G1 X80.782 Y121.184 E13.18964
G1 X77.09 Y117.389 E13.55944
G1 X73.182 Y113.802 E13.92995
G1 X68.668 Y110.108 E14.33735
G1 X68.196 Y109.681 E14.38181
G1 X65.438 Y106.924 E14.65419
G1 X64.962 Y106.391 E14.7041
G1 X64.584 Y105.866 E14.74929
G1 X64.388 Y105.562 E14.77455
G1 X64.035 Y104.94 E14.8245
G1 X63.855 Y104.544 E14.85489
G1 X62.361 Y100.939 E15.12745
G1 X62.124 Y100.264 E15.17742
G1 X62.018 Y99.842 E15.20781
G1 X61.941 Y99.486 E15.23325
G1 X61.829 Y98.78 E15.28318
G1 X61.797 Y98.04 E15.33491
G1 X61.859 Y93.77 E15.63318
G1 X61.909 Y93.057 E15.68311
G1 X62.039 Y92.353 E15.73311
G1 X62.344 Y91.417 E15.80187
G1 X63.865 Y87.74 E16.0798
G1 X64.175 Y87.095 E16.12978
G1 X64.555 Y86.489 E16.17974
G1 X65.189 Y85.726 E16.24903
G1 X68.174 Y82.654 E16.54821
G1 X68.7 Y82.17 E16.59814
M204 S3000
M205 X10 Y10
G0 F1200 X69.08 Y82.583
M204 S1800
M205 X8 Y8
G1 F2400 X69.634 Y82.184 E16.64582
G1 X70.175 Y81.879 E16.6892
G1 X70.929 Y81.506 E16.74796
G1 X71.326 Y81.328 E16.77835
G1 X74.7 Y79.962 E17.03259
G1 X75.348 Y79.743 E17.08036
G1 X76.016 Y79.601 E17.12806
G1 X76.858 Y79.535 E17.18706
G1 X80.944 Y79.511 E17.47245
G1 X81.481 Y79.533 E17.50999
G1 X85.993 Y79.923 E17.82631
G1 X91.319 Y80.112 E18.19855
G1 X96.648 Y80 E18.57084
G1 X102.567 Y79.529 E18.98557
G1 X103.031 Y79.511 E19.018
G1 X106.993 Y79.512 E19.29473
G1 X107.572 Y79.541 E19.33522
G1 X109.293 Y79.713 E19.45603
G1 X114.664 Y80.055 E19.83193
G1 X119.992 Y80.094 E20.20408
G1 X125.348 Y79.828 E20.57864
G1 X128.474 Y79.537 E20.79792
G1 X129.015 Y79.512 E20.83575
G1 X132.971 Y79.511 E21.11206
G1 X133.653 Y79.551 E21.15978
G1 X134.069 Y79.615 E21.18918
G1 X134.367 Y79.672 E21.21037
G1 X135.03 Y79.839 E21.25812
G1 X135.573 Y80.041 E21.29859
G1 X139.532 Y81.74 E21.5995
G1 X140.143 Y82.046 E21.64723
G1 X140.714 Y82.421 E21.69494
G1 X141.378 Y82.997 E21.75634
G1 X144.256 Y85.902 E22.04196
G1 X144.707 Y86.414 E22.08961
G1 X145.096 Y86.976 E22.13735
G1 X145.464 Y87.687 E22.19327
G1 X146.565 Y90.224 E22.38644
G1 X146.616 Y90.346 E22.39568
G1 X147.124 Y91.593 E22.48972
G1 X147.415 Y92.52 E22.55759
G1 X147.503 Y92.913 E22.58572
G1 X147.613 Y93.587 E22.63341
G1 X147.644 Y94.189 E22.67552
G1 X147.644 Y98.136 E22.9512
G1 X147.604 Y98.818 E22.99892
G1 X147.518 Y99.342 E23.03601
G1 X147.445 Y99.688 E23.06071
G1 X147.265 Y100.347 E23.10842
G1 X147.127 Y100.716 E23.13594
G1 X145.625 Y104.343 E23.41013
G1 X145.327 Y104.958 E23.45787
G1 X145.109 Y105.317 E23.4872
G1 X144.921 Y105.603 E23.51111
G1 X144.513 Y106.151 E23.55883
G1 X144.176 Y106.519 E23.59368
G1 X142.365 Y108.335 E23.77281
G1 X142.343 Y108.357 E23.77499
G1 X141.346 Y109.346 E23.87307
G1 X140.845 Y109.789 E23.91978
G1 X139.328 Y110.983 E24.05462
G1 X135.216 Y114.472 E24.43129
G1 X131.33 Y118.166 E24.80577
G1 X129.526 Y120.033 E24.98711
G1 X125.972 Y124.039 E25.36115
G1 X122.64 Y128.252 E25.73632
G1 X121.108 Y130.367 E25.91873
G1 X118.873 Y133.672 E26.1974
G1 X118.458 Y134.215 E26.24514
G1 X118.165 Y134.53 E26.27518
G1 X115.418 Y137.276 E26.54648
G1 X114.651 Y137.921 E26.61647
G1 X114.313 Y138.159 E26.64535
G1 X113.733 Y138.519 E26.69303
G1 X113.159 Y138.791 E26.73739
G1 X109.388 Y140.331 E27.0219
G1 X108.741 Y140.551 E27.06963
G1 X108.073 Y140.695 E27.11736
G1 X107.205 Y140.764 E27.17818
G1 X102.942 Y140.782 E27.47593
G1 X102.259 Y140.745 E27.52371
G1 X101.586 Y140.628 E27.57142
G1 X100.738 Y140.36 E27.63354
G1 X96.904 Y138.818 E27.92218
G1 X96.286 Y138.527 E27.96989
G1 X95.804 Y138.232 E28.00936
G1 X95.443 Y137.987 E28.03983
G1 X94.901 Y137.571 E28.08755
G1 X94.594 Y137.286 E28.11681
G1 X91.835 Y134.529 E28.38924
G1 X91.381 Y134.019 E28.43693
G1 X91.149 Y133.705 E28.4642
G1 X87.939 Y129.031 E28.86024
G1 X84.675 Y124.813 E29.23276
G1 X81.193 Y120.804 E29.60364
G1 X77.474 Y116.981 E29.97617
G1 X73.556 Y113.384 E30.34766
G1 X69.022 Y109.674 E30.75685
G1 X68.592 Y109.285 E30.79735
G1 X65.834 Y106.528 E31.06973
G1 X65.38 Y106.018 E31.11742
G1 X65.055 Y105.563 E31.15648
G1 X64.859 Y105.259 E31.18174
G1 X64.523 Y104.664 E31.22947
G1 X64.372 Y104.33 E31.25507
G1 X62.878 Y100.725 E31.52763
G1 X62.654 Y100.079 E31.57539
G1 X62.565 Y99.724 E31.60095
G1 X62.488 Y99.368 E31.62639
G1 X62.383 Y98.693 E31.6741
G1 X62.357 Y98.048 E31.71919
G1 X62.419 Y93.778 E32.01747
G1 X62.468 Y93.097 E32.06516
G1 X62.598 Y92.426 E32.11289
G1 X62.861 Y91.631 E32.17138
G1 X64.382 Y87.954 E32.44931
G1 X64.68 Y87.339 E32.49704
G1 X65.048 Y86.763 E32.54479
G1 X65.591 Y86.116 E32.60378
G1 X68.576 Y83.044 E32.90296
G1 X69.08 Y82.583 E32.95067
M204 S3000
M205 X10 Y10
G0 F1200 X69.458 Y82.997
M204 S1800
M205 X8 Y8
G1 F2400 X69.988 Y82.622 E32.99602
G1 X70.423 Y82.381 E33.03075
G1 X71.177 Y82.008 E33.08951
G1 X71.537 Y81.847 E33.11705
G1 X74.911 Y80.481 E33.37129
G1 X75.527 Y80.275 E33.41666
G1 X76.163 Y80.146 E33.46199
G1 X76.861 Y80.095 E33.51087
G1 X80.947 Y80.071 E33.79627
G1 X81.433 Y80.091 E33.83024
G1 X85.945 Y80.481 E34.14656
G1 X91.328 Y80.672 E34.52278
G1 X96.687 Y80.559 E34.89717
G1 X102.611 Y80.088 E35.31225
G1 X103.031 Y80.071 E35.34161
G1 X106.993 Y80.072 E35.61834
G1 X107.516 Y80.098 E35.65491
G1 X109.257 Y80.272 E35.77712
G1 X114.642 Y80.615 E36.154
G1 X119.999 Y80.654 E36.52818
G1 X125.404 Y80.386 E36.90616
G1 X128.526 Y80.095 E37.12517
G1 X129.015 Y80.072 E37.15936
G1 X132.971 Y80.071 E37.43567
G1 X133.619 Y80.111 E37.48102
G1 X133.964 Y80.165 E37.50541
G1 X134.262 Y80.222 E37.5266
G1 X134.891 Y80.383 E37.57195
G1 X135.352 Y80.556 E37.60634
G1 X139.311 Y82.255 E37.90725
G1 X139.891 Y82.547 E37.95261
G1 X140.431 Y82.909 E37.99802
G1 X140.98 Y83.391 E38.04904
G1 X143.858 Y86.296 E38.33466
G1 X144.286 Y86.785 E38.38005
G1 X144.651 Y87.322 E38.4254
G1 X144.951 Y87.91 E38.47151
G1 X146.052 Y90.447 E38.66468
G1 X146.098 Y90.557 E38.673
G1 X146.606 Y91.804 E38.76705
G1 X146.868 Y92.642 E38.82838
G1 X146.956 Y93.035 E38.85651
G1 X147.059 Y93.677 E38.90192
G1 X147.084 Y94.189 E38.93772
G1 X147.084 Y98.136 E39.21341
G1 X147.044 Y98.784 E39.25875
G1 X146.97 Y99.226 E39.29006
G1 X146.897 Y99.572 E39.31476
G1 X146.724 Y100.198 E39.36012
G1 X146.609 Y100.502 E39.38282
G1 X145.107 Y104.129 E39.65702
G1 X144.822 Y104.713 E39.7024
G1 X144.641 Y105.009 E39.72664
G1 X144.453 Y105.295 E39.75054
G1 X144.064 Y105.815 E39.7959
G1 X143.78 Y106.123 E39.82516
G1 X141.969 Y107.939 E40.0043
G1 X141.948 Y107.96 E40.00637
G1 X140.951 Y108.949 E40.10446
G1 X140.498 Y109.349 E40.14667
G1 X138.971 Y110.55 E40.28236
G1 X134.845 Y114.052 E40.66035
G1 X130.937 Y117.767 E41.03697
G1 X129.124 Y119.643 E41.21919
G1 X125.542 Y123.68 E41.59615
G1 X122.187 Y127.923 E41.97396
G1 X120.646 Y130.051 E42.15747
G1 X118.409 Y133.358 E42.43634
G1 X118.013 Y133.873 E42.48171
G1 X117.769 Y134.134 E42.50667
G1 X115.022 Y136.88 E42.77796
G1 X114.329 Y137.463 E42.84121
G1 X113.991 Y137.701 E42.87009
G1 X113.438 Y138.042 E42.91547
G1 X112.947 Y138.272 E42.95334
G1 X109.176 Y139.812 E43.23784
G1 X108.561 Y140.02 E43.28319
G1 X107.925 Y140.151 E43.32854
G1 X107.202 Y140.204 E43.37918
G1 X102.939 Y140.222 E43.67694
G1 X102.291 Y140.185 E43.72227
G1 X101.652 Y140.068 E43.76764
G1 X100.947 Y139.841 E43.81938
G1 X97.113 Y138.299 E44.10801
G1 X96.526 Y138.02 E44.15341
G1 X96.118 Y137.769 E44.18687
G1 X95.757 Y137.524 E44.21734
G1 X95.243 Y137.127 E44.2627
G1 X94.99 Y136.89 E44.28692
G1 X92.231 Y134.133 E44.55934
G1 X91.611 Y133.388 E44.62704
G1 X88.392 Y128.702 E45.02413
G1 X85.119 Y124.472 E45.39769
G1 X81.604 Y120.424 E45.77215
G1 X77.859 Y116.575 E46.14724
G1 X73.921 Y112.96 E46.52061
G1 X69.377 Y109.241 E46.93074
G1 X68.988 Y108.889 E46.96739
G1 X66.23 Y106.132 E47.23976
G1 X65.8 Y105.646 E47.28509
G1 X65.525 Y105.259 E47.31825
G1 X65.329 Y104.955 E47.34351
G1 X64.889 Y104.115 E47.40975
G1 X63.395 Y100.51 E47.68231
G1 X63.112 Y99.605 E47.74854
G1 X63.035 Y99.249 E47.77398
G1 X62.937 Y98.607 E47.81934
G1 X62.917 Y98.056 E47.85785
G1 X62.979 Y93.786 E48.15612
G1 X63.028 Y93.139 E48.20144
G1 X63.156 Y92.502 E48.24683
G1 X63.379 Y91.845 E48.29529
G1 X64.9 Y88.168 E48.57322
G1 X65.185 Y87.584 E48.6186
G1 X65.539 Y87.039 E48.664
G1 X65.992 Y86.506 E48.71285
G1 X68.977 Y83.434 E49.01203
G1 X69.458 Y82.997 E49.05742
M204 S3000
M205 X10 Y10
G1 F2400 E43.05742
G0 F1200 X72.538 Y86.453
G0 X73.595 Y88.029
G0 X80.93 Y94.372
G0 X81.2 Y94.781
G0 X82.141 Y96.427
M204 S1800
M205 X8 Y8
;TYPE:WALL-INNER
G1 F2400 E49.05742
G1 F600 X82.149 Y96.155 E49.07643
G1 X82.141 Y95.899 E49.09432
G1 X82.108 Y95.63 E49.11325
G1 X82.052 Y95.376 E49.13142
G1 X81.981 Y95.132 E49.14916
G1 X81.884 Y94.884 E49.16776
G1 X81.767 Y94.649 E49.1861
G1 X81.632 Y94.422 E49.20455
G1 X81.475 Y94.207 E49.22314
G1 X81.306 Y94.011 E49.24122
G1 X81.121 Y93.827 E49.25944
G1 X80.912 Y93.653 E49.27844
G1 X80.703 Y93.508 E49.2962
G1 X80.48 Y93.375 E49.31434
G1 X80.244 Y93.263 E49.33259
G1 X79.998 Y93.167 E49.35103
G1 X79.744 Y93.094 E49.36949
G1 X79.489 Y93.043 E49.38765
G1 X79.232 Y93.014 E49.40572
G1 X78.969 Y93.004 E49.4241
G1 X78.704 Y93.019 E49.44264
G1 X78.446 Y93.054 E49.46082
G1 X78.193 Y93.11 E49.47892
G1 X77.944 Y93.188 E49.49715
G1 X77.7 Y93.285 E49.51549
G1 X77.462 Y93.405 E49.5341
G1 X77.238 Y93.544 E49.55252
G1 X77.029 Y93.698 E49.57065
G1 X76.833 Y93.869 E49.58882
G1 X76.653 Y94.055 E49.6069
G1 X76.484 Y94.259 E49.6254
G1 X76.336 Y94.477 E49.6438
G1 X76.204 Y94.704 E49.66214
G1 X76.094 Y94.944 E49.68058
G1 X76.002 Y95.189 E49.69886
G1 X75.932 Y95.447 E49.71754
G1 X75.885 Y95.698 E49.73537
G1 X75.857 Y95.96 E49.75378
G1 X75.852 Y96.221 E49.77201
G1 X75.866 Y96.477 E49.78992
G1 X75.904 Y96.743 E49.80868
G1 X75.965 Y96.998 E49.827
G1 X76.044 Y97.243 E49.84498
G1 X76.143 Y97.482 E49.86305
G1 X76.261 Y97.717 E49.88141
G1 X76.405 Y97.943 E49.90013
G1 X76.562 Y98.153 E49.91844
G1 X76.741 Y98.352 E49.93714
G1 X76.931 Y98.53 E49.95532
G1 X77.129 Y98.689 E49.97306
G1 X77.346 Y98.837 E49.99141
G1 X77.579 Y98.967 E50.01004
G1 X77.815 Y99.073 E50.02811
G1 X78.061 Y99.162 E50.04638
G1 X78.319 Y99.23 E50.06502
G1 X78.578 Y99.278 E50.08342
G1 X78.842 Y99.301 E50.10193
G1 X79.101 Y99.303 E50.12002
G1 X79.359 Y99.284 E50.13809
G1 X79.619 Y99.245 E50.15645
G1 X79.877 Y99.18 E50.17503
G1 X80.118 Y99.099 E50.19279
G1 X80.359 Y98.997 E50.21107
G1 X80.597 Y98.872 E50.22985
G1 X80.816 Y98.728 E50.24815
G1 X81.019 Y98.573 E50.26599
G1 X81.21 Y98.399 E50.28404
G1 X81.395 Y98.205 E50.30276
G1 X81.557 Y97.995 E50.32129
G1 X81.699 Y97.782 E50.33917
G1 X81.824 Y97.553 E50.35739
G1 X81.933 Y97.309 E50.37606
G1 X82.018 Y97.059 E50.3945
G1 X82.086 Y96.796 E50.41347
G1 X82.141 Y96.427 E50.43953
M204 S3000
M205 X10 Y10
G0 F1200 X77.852 Y104.488
M204 S1800
M205 X8 Y8
G1 F600 X77.456 Y104.698 E50.47084
G1 X77.285 Y104.818 E50.48543
G1 X77.276 Y104.825 E50.48623
G1 X77.27 Y104.815
G1 X77.177 Y104.666 E50.49338
G1 X77.021 Y104.464 E50.51121
G1 X76.851 Y104.275 E50.52896
G1 X76.664 Y104.103 E50.54671
G1 X76.439 Y103.928 E50.56662
G1 X76.048 Y103.701 E50.5982
G1 X75.781 Y103.59 E50.61839
G1 X75.538 Y103.514 E50.63618
G1 X75.291 Y103.46 E50.65384
G1 X75.035 Y103.426 E50.67188
G1 X74.78 Y103.418 E50.68969
G1 X74.53 Y103.429 E50.70717
G1 X74.241 Y103.467 E50.72753
G1 X74.116 Y103.501 E50.73658
G1 X74.093 Y103.508 E50.73826
G1 X74.003 Y103.096 E50.75844
G1 X73.905 Y102.83 E50.77824
G1 X73.8 Y102.602 E50.79578
G1 X73.674 Y102.382 E50.81348
G1 X73.527 Y102.169 E50.83156
G1 X73.361 Y101.974 E50.84945
G1 X73.182 Y101.794 E50.86718
G1 X72.985 Y101.629 E50.88513
G1 X72.774 Y101.482 E50.90309
G1 X72.554 Y101.357 E50.92076
G1 X72.324 Y101.249 E50.93851
G1 X72.083 Y101.164 E50.95636
G1 X71.838 Y101.098 E50.97408
G1 X71.662 Y101.07 E50.98653
G1 X71.649 Y101.067 E50.98746
G1 X71.652 Y101.055
G1 X71.693 Y100.883 E50.99472
G1 X71.725 Y100.626 E51.0128
G1 X71.737 Y100.385 E51.02966
G1 X71.73 Y100.129 E51.04755
G1 X71.696 Y99.871 E51.06572
G1 X71.643 Y99.619 E51.08371
G1 X71.563 Y99.371 E51.10191
G1 X71.467 Y99.137 E51.11957
G1 X71.349 Y98.911 E51.13738
G1 X71.21 Y98.695 E51.15532
G1 X71.056 Y98.495 E51.17295
G1 X70.882 Y98.306 E51.1909
G1 X70.693 Y98.135 E51.2087
G1 X70.491 Y97.979 E51.22653
G1 X70.34 Y97.886 E51.23891
G1 X70.331 Y97.88 E51.23967
G1 X70.44 Y97.723 E51.24748
G1 X70.567 Y97.507 E51.26498
G1 X70.675 Y97.276 E51.28279
G1 X70.764 Y97.04 E51.30041
G1 X70.831 Y96.789 E51.31856
G1 X70.876 Y96.538 E51.33637
G1 X70.898 Y96.289 E51.35383
G1 X70.899 Y96.032 E51.37178
G1 X70.877 Y95.775 E51.38979
G1 X70.832 Y95.523 E51.40767
G1 X70.765 Y95.273 E51.42575
G1 X70.676 Y95.035 E51.4435
G1 X70.569 Y94.808 E51.46103
G1 X70.441 Y94.588 E51.4788
G1 X70.331 Y94.431 E51.49219
G1 X70.489 Y94.331 E51.50525
G1 X70.689 Y94.18 E51.52276
G1 X70.883 Y94.005 E51.54101
G1 X71.055 Y93.817 E51.5588
