;FLAVOR:Marlin
;TIME:2236
;Filament used: 1.96094m
;Layer height: 0.2
;Generated with Cura_SteamEngine 3.5.1
M140 S90
M105
M190 S90
M104 S235
M105
M109 S235
M82 ;absolute extrusion mode
G21 ;metric values
G90 ;absolute positioning
M82 ;set extruder to absolute mode
M107 ;start with the fan off
G28 X0 Y0 ;move X/Y to min endstops
G28 Z0 ;move Z to min endstops
G1 Z15.0 F100 ;move the platform down 15mm
G92 E0 ;zero the extruded length
G1 F200 E3 ;extrude 3mm of feed stock
G92 E0 ;zero the extruded length again
G1 F100
M117 Printing...
G5
G92 E0
G1 F2400 E-6
;LAYER_COUNT:65
;LAYER:0
M106 S255
M204 S3000
M205 X10 Y10
G0 F1200 X75.985 Y88.033 Z0.3
M204 S1800
M205 X8 Y8
;TYPE:SKIRT
G1 F2400 E0
G1 X76.565 Y87.615 E0.04994
G1 X77.188 Y87.265 E0.09985
G1 X77.847 Y86.986 E0.14983
G1 X78.533 Y86.782 E0.19982
G1 X79.237 Y86.656 E0.24977
G1 X80.01 Y86.609 E0.30386
G1 X129.991 Y86.61 E3.79485
G1 X130.705 Y86.65 E3.8448
G1 X131.41 Y86.769 E3.89474
G1 X132.098 Y86.967 E3.94474
G1 X132.759 Y87.24 E3.99469
G1 X133.386 Y87.585 E4.04468
G1 X133.97 Y87.997 E4.0946
G1 X134.504 Y88.473 E4.14456
G1 X134.983 Y89.005 E4.19456
G1 X135.398 Y89.587 E4.24449
G1 X135.747 Y90.211 E4.29443
G1 X136.023 Y90.871 E4.34439
G1 X136.224 Y91.557 E4.39432
G1 X136.347 Y92.262 E4.44431
G1 X136.391 Y93.036 E4.49846
G1 X136.387 Y94.038 E4.56844
G1 X136.344 Y94.752 E4.6184
G1 X136.204 Y95.53 E4.67362
G1 X134.908 Y100.838 E5.05525
G1 X134.411 Y103.33 E5.23274
G1 X133.587 Y108.6 E5.6053
G1 X133.065 Y113.903 E5.97748
G1 X132.884 Y117.29 E6.21439
G1 X132.806 Y118.001 E6.26435
G1 X132.649 Y118.699 E6.31432
G1 X132.416 Y119.375 E6.36426
G1 X132.108 Y120.02 E6.41419
G1 X131.73 Y120.628 E6.46419
G1 X131.287 Y121.189 E6.51412
G1 X130.784 Y121.698 E6.5641
G1 X130.227 Y122.147 E6.61407
G1 X129.624 Y122.531 E6.664
G1 X128.981 Y122.845 E6.71398
G1 X128.308 Y123.086 E6.76391
G1 X127.491 Y123.271 E6.82242
G1 X127.168 Y123.322 E6.84526
G1 X126.169 Y123.4 E6.91525
G1 X83.508 Y123.391 E9.89496
G1 X82.794 Y123.351 E9.94491
G1 X82.088 Y123.231 E9.99493
G1 X81.401 Y123.034 E10.04485
G1 X80.74 Y122.761 E10.0948
G1 X80.113 Y122.416 E10.14478
G1 X79.529 Y122.003 E10.19474
G1 X78.995 Y121.528 E10.24466
G1 X78.517 Y120.996 E10.29462
G1 X78.101 Y120.413 E10.34464
G1 X77.753 Y119.789 E10.39454
G1 X77.477 Y119.129 E10.44451
G1 X77.276 Y118.442 E10.49451
G1 X77.153 Y117.738 E10.54442
G1 X77.116 Y117.285 E10.57617
G1 X77.018 Y115.166 E10.72433
G1 X76.56 Y109.82 E11.0991
G1 X75.811 Y104.573 E11.4693
G1 X74.767 Y99.387 E11.83879
G1 X73.808 Y95.578 E12.11313
G1 X73.672 Y94.875 E12.16315
G1 X73.614 Y94.04 E12.22161
G1 X73.61 Y93.034 E12.29187
G1 X73.647 Y92.32 E12.34181
G1 X73.764 Y91.614 E12.3918
G1 X73.958 Y90.926 E12.44172
G1 X74.229 Y90.264 E12.49169
G1 X74.571 Y89.636 E12.54163
G1 X74.981 Y89.05 E12.59159
G1 X75.455 Y88.514 E12.64156
G1 X75.985 Y88.033 E12.69155
M204 S3000
M205 X10 Y10
G0 F1200 X76.53 Y88.319
M204 S1800
M205 X8 Y8
G1 F2400 X77.102 Y87.945 E12.73929
G1 X77.713 Y87.64 E12.78698
G1 X78.356 Y87.408 E12.83473
G1 X79.022 Y87.253 E12.88249
G1 X80.01 Y87.169 E12.95175
G1 X129.991 Y87.17 E16.44273
G1 X130.673 Y87.21 E16.49045
G1 X131.346 Y87.329 E16.53819
G1 X132 Y87.526 E16.58589
G1 X132.627 Y87.799 E16.63366
G1 X133.217 Y88.142 E16.68133
G1 X133.764 Y88.552 E16.72907
G1 X134.259 Y89.023 E16.7768
G1 X134.695 Y89.549 E16.82452
G1 X135.067 Y90.122 E16.87223
G1 X135.37 Y90.735 E16.91999
G1 X135.598 Y91.378 E16.96764
G1 X135.751 Y92.045 E17.01544
G1 X135.831 Y93.033 E17.08468
G1 X135.827 Y94.035 E17.15466
G1 X135.784 Y94.717 E17.20239
G1 X135.66 Y95.397 E17.25067
G1 X134.363 Y100.71 E17.63266
G1 X133.859 Y103.234 E17.81243
G1 X133.032 Y108.527 E18.18662
G1 X132.506 Y113.863 E18.56112
G1 X132.325 Y117.26 E18.79873
G1 X132.248 Y117.939 E18.84646
G1 X132.093 Y118.604 E18.89415
G1 X131.862 Y119.247 E18.94187
G1 X131.557 Y119.858 E18.98957
G1 X131.182 Y120.43 E19.03734
G1 X130.744 Y120.954 E19.08504
G1 X130.247 Y121.423 E19.13277
G1 X129.699 Y121.831 E19.18049
G1 X129.107 Y122.172 E19.22821
G1 X128.479 Y122.441 E19.27593
G1 X127.824 Y122.635 E19.32364
G1 X127.404 Y122.718 E19.35354
G1 X127.081 Y122.769 E19.37638
G1 X126.169 Y122.84 E19.44028
G1 X83.508 Y122.831 E22.41999
G1 X82.826 Y122.791 E22.46771
G1 X82.153 Y122.671 E22.51545
G1 X81.499 Y122.474 E22.56316
G1 X80.872 Y122.202 E22.6109
G1 X80.282 Y121.858 E22.6586
G1 X79.735 Y121.448 E22.70635
G1 X79.241 Y120.977 E22.75402
G1 X78.804 Y120.451 E22.80178
G1 X78.432 Y119.878 E22.8495
G1 X78.13 Y119.265 E22.89723
G1 X77.901 Y118.621 E22.94497
G1 X77.749 Y117.955 E22.99268
G1 X77.675 Y117.259 E23.04157
G1 X77.577 Y115.12 E23.19113
G1 X77.116 Y109.746 E23.56786
G1 X76.365 Y104.487 E23.93891
G1 X75.314 Y99.265 E24.31096
G1 X74.351 Y95.441 E24.58639
G1 X74.223 Y94.77 E24.6341
G1 X74.174 Y94.038 E24.68535
G1 X74.17 Y93.032 E24.75561
G1 X74.207 Y92.35 E24.80332
G1 X74.324 Y91.677 E24.85103
G1 X74.518 Y91.022 E24.89874
G1 X74.788 Y90.394 E24.94649
G1 X75.129 Y89.802 E24.99421
G1 X75.537 Y89.254 E25.04193
G1 X76.006 Y88.757 E25.08966
G1 X76.53 Y88.319 E25.13736
M204 S3000
M205 X10 Y10
G0 F1200 X76.556 Y89.015
M204 S1800
M205 X8 Y8
G1 F2400 X77.073 Y88.621 E25.18276
G1 X77.634 Y88.294 E25.22811
G1 X78.231 Y88.038 E25.27348
G1 X78.855 Y87.857 E25.31886
G1 X79.496 Y87.754 E25.36421
G1 X80.01 Y87.729 E25.40015
G1 X129.991 Y87.73 E28.89114
G1 X130.639 Y87.77 E28.93649
G1 X131.278 Y87.889 E28.98189
G1 X131.897 Y88.086 E29.02726
G1 X132.487 Y88.357 E29.07261
G1 X133.04 Y88.699 E29.11802
G1 X133.546 Y89.106 E29.16338
G1 X133.999 Y89.572 E29.20877
G1 X134.39 Y90.09 E29.2541
G1 X134.716 Y90.653 E29.29954
G1 X134.969 Y91.251 E29.34489
G1 X135.148 Y91.875 E29.39023
G1 X135.248 Y92.517 E29.43562
G1 X135.271 Y93.031 E29.47155
G1 X135.267 Y94.033 E29.54154
G1 X135.224 Y94.681 E29.5869
G1 X135.116 Y95.264 E29.62831
G1 X133.817 Y100.586 E30.01095
G1 X133.309 Y103.13 E30.19214
G1 X132.477 Y108.458 E30.5688
G1 X131.948 Y113.823 E30.94534
G1 X131.766 Y117.23 E31.18364
G1 X131.691 Y117.875 E31.229
G1 X131.538 Y118.507 E31.27442
G1 X131.308 Y119.115 E31.31982
G1 X131.006 Y119.689 E31.36512
G1 X130.635 Y120.223 E31.41054
G1 X130.202 Y120.707 E31.4559
G1 X129.713 Y121.134 E31.50124
G1 X129.174 Y121.498 E31.54667
G1 X128.595 Y121.792 E31.59202
G1 X127.985 Y122.014 E31.63736
G1 X127.316 Y122.164 E31.68525
G1 X126.993 Y122.215 E31.70809
G1 X126.169 Y122.28 E31.76582
G1 X83.508 Y122.271 E34.74554
G1 X82.86 Y122.231 E34.79088
G1 X82.221 Y122.111 E34.83629
G1 X81.602 Y121.915 E34.88164
G1 X81.012 Y121.643 E34.92702
G1 X80.459 Y121.301 E34.97244
G1 X79.953 Y120.894 E35.01779
G1 X79.501 Y120.428 E35.06314
G1 X79.109 Y119.91 E35.10851
G1 X78.784 Y119.347 E35.15392
G1 X78.53 Y118.749 E35.1993
G1 X78.352 Y118.125 E35.24462
G1 X78.235 Y117.234 E35.30739
G1 X78.137 Y115.096 E35.45687
G1 X77.673 Y109.69 E35.83585
G1 X76.915 Y104.386 E36.21008
G1 X75.86 Y99.139 E36.5839
G1 X74.894 Y95.304 E36.86012
G1 X74.774 Y94.666 E36.90547
G1 X74.734 Y94.036 E36.94956
G1 X74.73 Y93.03 E37.01983
G1 X74.767 Y92.381 E37.06523
G1 X74.884 Y91.742 E37.1106
G1 X75.078 Y91.123 E37.15591
G1 X75.347 Y90.531 E37.20133
G1 X75.687 Y89.977 E37.24673
G1 X76.092 Y89.47 E37.29205
G1 X76.556 Y89.015 E37.33744
M204 S3000
M205 X10 Y10
G1 F2400 E31.33744
G0 F1200 X81.432 Y92.335
G0 X81.432 Y93.845
G0 X97.55 Y98.5
M204 S1800
M205 X8 Y8
;TYPE:WALL-INNER
G1 F2400 E37.33744
G1 F600 X97.55 Y112.3 E38.30132
G1 X117.35 Y112.3 E39.68428
G1 X117.35 Y98.5 E40.64816
G1 X97.55 Y98.5 E42.03111
M204 S3000
M205 X10 Y10
G0 F1200 X89.306 Y114.327
G0 X88.687 Y114.916
G0 X88.045 Y115.175
G0 X86.274 Y115.545
M204 S1800
M205 X8 Y8
G1 F600 X86.419 Y115.6 E42.04195
G1 X86.274 Y115.6 E42.04228
G1 X85.961 Y115.6 E42.06375
G1 X85.677 Y115.6 E42.08359
G1 X85.513 Y115.6 E42.09504
G1 X84.9 Y115.6 E42.13786
G1 X84.9 Y114.975 E42.18151
G1 X84.9 Y114.933 E42.18444
G1 X84.9 Y114.665 E42.20316
G1 X84.9 Y114.365 E42.22412
G1 X84.9 Y114.15 E42.23913
G1 X85.003 Y114.365 E42.24175
G1 X85.195 Y114.665 E42.25246
G1 X85.423 Y114.933 E42.27154
G1 X85.453 Y114.961 E42.27432
G1 X85.557 Y115.058 E42.28425
G1 X85.677 Y115.169 E42.29413
G1 X85.961 Y115.374 E42.30988
G1 X86.274 Y115.545 E42.31781
M204 S3000
M205 X10 Y10
G0 F1200 X119.765 Y112.67
M204 S1800
M205 X8 Y8
G1 F600 X119.749 Y113.022 E42.34242
G1 X119.773 Y113.368 E42.36665
G1 X119.84 Y113.712 E42.39113
G1 X119.95 Y114.046 E42.41569
G1 X120.103 Y114.365 E42.4404
G1 X120.295 Y114.665 E42.46528
G1 X120.523 Y114.933 E42.48985
G1 X120.657 Y115.058 E42.50265
G1 X120.777 Y115.169 E42.51407
G1 X121.061 Y115.374 E42.53853
G1 X121.374 Y115.545 E42.56344
G1 X121.519 Y115.6 E42.57428
G1 X121.374 Y115.6 E42.57461
G1 X121.061 Y115.6 E42.57952
G1 X120.777 Y115.6 E42.59065
G1 X120.613 Y115.6 E42.60088
G1 X89.384 Y115.6 E44.78211
G1 X89.249 Y115.6 E44.79154
G1 X88.967 Y115.6 E44.81124
G1 X88.657 Y115.6 E44.83289
G1 X88.481 Y115.6 E44.84518
G1 X88.657 Y115.53 E44.84666
G1 X88.967 Y115.357 E44.85528
G1 X89.249 Y115.148 E44.87183
G1 X89.347 Y115.056 E44.88038
G1 X89.507 Y114.904 E44.89579
G1 X89.728 Y114.632 E44.92027
G1 X89.914 Y114.336 E44.94469
G1 X90.064 Y114.014 E44.9695
G1 X90.168 Y113.678 E44.99406
G1 X90.235 Y113.33 E45.01882
G1 X90.251 Y112.978 E45.04343
G1 X90.227 Y112.632 E45.06765
G1 X90.16 Y112.288 E45.09213
G1 X90.05 Y111.954 E45.11669
G1 X89.897 Y111.635 E45.1414
G1 X89.705 Y111.335 E45.16628
G1 X89.477 Y111.067 E45.19086
G1 X89.223 Y110.831 E45.21507
G1 X88.939 Y110.626 E45.23954
G1 X88.626 Y110.455 E45.26445
G1 X88.297 Y110.33 E45.28903
G1 X87.959 Y110.244 E45.31339
G1 X87.609 Y110.203 E45.33801
G1 X87.256 Y110.204 E45.36266
G1 X86.907 Y110.252 E45.38727
G1 X86.57 Y110.34 E45.4116
G1 X86.243 Y110.47 E45.43617
G1 X85.933 Y110.643 E45.46097
G1 X85.651 Y110.852 E45.48549
G1 X85.448 Y111.044 E45.505
G1 X85.393 Y111.096 E45.51029
G1 X85.172 Y111.368 E45.53477
G1 X84.986 Y111.664 E45.55919
G1 X84.9 Y111.849 E45.57343
G1 X84.9 Y111.664 E45.57414
G1 X84.9 Y111.368 E45.58008
G1 X84.9 Y111.096 E45.59258
G1 X84.9 Y111.019 E45.59767
G1 X84.9 Y102.275 E46.2084
G1 X84.9 Y102.233 E46.21134
G1 X84.9 Y101.965 E46.23005
G1 X84.9 Y101.665 E46.25101
G1 X84.9 Y101.45 E46.26603
G1 X85.003 Y101.665 E46.26864
G1 X85.195 Y101.965 E46.27935
G1 X85.423 Y102.233 E46.29843
G1 X85.453 Y102.261 E46.30121
G1 X85.677 Y102.469 E46.32256
G1 X85.961 Y102.674 E46.34702
G1 X86.274 Y102.845 E46.37193
G1 X86.603 Y102.97 E46.39652
G1 X86.941 Y103.056 E46.42088
G1 X87.291 Y103.097 E46.44549
G1 X87.644 Y103.096 E46.47015
G1 X87.993 Y103.048 E46.49475
G1 X88.33 Y102.96 E46.51908
G1 X88.657 Y102.83 E46.54366
G1 X88.967 Y102.657 E46.56845
G1 X89.249 Y102.448 E46.59297
G1 X89.507 Y102.204 E46.61777
G1 X89.728 Y101.932 E46.64225
G1 X89.914 Y101.636 E46.66667
G1 X90.064 Y101.314 E46.69148
G1 X90.168 Y100.978 E46.71605
G1 X90.235 Y100.63 E46.7408
G1 X90.251 Y100.278 E46.76541
G1 X90.227 Y99.932 E46.78964
G1 X90.16 Y99.588 E46.81411
G1 X90.05 Y99.254 E46.83868
G1 X89.897 Y98.935 E46.86339
G1 X89.705 Y98.635 E46.88826
G1 X89.477 Y98.367 E46.91284
G1 X89.223 Y98.131 E46.93706
G1 X88.939 Y97.926 E46.96152
G1 X88.626 Y97.755 E46.98643
G1 X88.297 Y97.63 E47.01102
G1 X87.959 Y97.544 E47.03538
G1 X87.609 Y97.503 E47.05999
G1 X87.256 Y97.504 E47.08465
G1 X86.907 Y97.552 E47.10925
G1 X86.57 Y97.64 E47.13358
G1 X86.243 Y97.77 E47.15816
G1 X85.933 Y97.943 E47.18295
G1 X85.651 Y98.152 E47.20747
G1 X85.448 Y98.344 E47.22699
G1 X85.393 Y98.396 E47.23227
G1 X85.172 Y98.668 E47.25675
G1 X84.986 Y98.964 E47.28117
G1 X84.9 Y99.149 E47.29542
G1 X84.9 Y98.964 E47.29612
G1 X84.9 Y98.668 E47.30206
G1 X84.9 Y98.396 E47.31456
G1 X84.9 Y98.319 E47.31965
G1 X84.9 Y97.123 E47.40319
G1 X84.884 Y96.798 E47.42591
G1 X84.825 Y96.442 E47.45112
G1 X84.732 Y96.102 E47.47574
G1 X84.604 Y95.767 E47.50079
G1 X84.439 Y95.449 E47.52581
G1 X84.243 Y95.148 E47.5509
G1 X84.075 Y94.943 E47.56941
G1 X84.016 Y94.872 E47.57586
G1 X83.765 Y94.622 E47.6006
G1 X83.489 Y94.4 E47.62534
G1 X83.765 Y94.4 E47.62799
G1 X84.016 Y94.4 E47.63808
G1 X84.109 Y94.4 E47.64412
G1 X125.893 Y94.4 E50.56257
G1 X125.976 Y94.4 E50.56837
G1 X126.227 Y94.4 E50.5859
G1 X126.513 Y94.4 E50.60588
G1 X126.227 Y94.63 E50.61442
G1 X125.976 Y94.881 E50.63204
G1 X125.924 Y94.945 E50.63743
G1 X125.752 Y95.155 E50.65639
G1 X125.553 Y95.459 E50.68176
G1 X125.392 Y95.778 E50.70672
G1 X125.265 Y96.11 E50.73155
G1 X125.171 Y96.457 E50.75666
G1 X125.116 Y96.81 E50.78161
G1 X125.1 Y97.125 E50.80364
G1 X125.1 Y111.025 E51.77451
G1 X125.1 Y111.067 E51.77744
G1 X125.1 Y111.335 E51.79616
G1 X125.1 Y111.635 E51.81711
G1 X125.1 Y111.85 E51.83213
G1 X124.997 Y111.635 E51.83474
G1 X124.805 Y111.335 E51.84545
G1 X124.577 Y111.067 E51.86453
G1 X124.547 Y111.039 E51.86731
G1 X124.323 Y110.831 E51.88866
G1 X124.039 Y110.626 E51.91313
G1 X123.726 Y110.455 E51.93804
G1 X123.397 Y110.33 E51.96262
G1 X123.059 Y110.244 E51.98698
G1 X122.709 Y110.203 E52.01159
G1 X122.356 Y110.204 E52.03625
G1 X122.007 Y110.252 E52.06086
G1 X121.67 Y110.34 E52.08518
G1 X121.343 Y110.47 E52.10976
G1 X121.033 Y110.643 E52.13456
G1 X120.751 Y110.852 E52.15907
G1 X120.493 Y111.096 E52.18388
G1 X120.272 Y111.368 E52.20836
G1 X120.086 Y111.664 E52.23277
G1 X119.936 Y111.986 E52.25758
G1 X119.832 Y112.322 E52.28215
G1 X119.765 Y112.67 E52.3069
M204 S3000
M205 X10 Y10
G0 F1200 X120.713 Y114.352
G0 X121.335 Y114.929
G0 X122.135 Y115.242
G0 X122.829 Y115.239
G0 X124.607 Y114.904
M204 S1800
M205 X8 Y8
G1 F600 X124.828 Y114.632 E52.33138
G1 X125.014 Y114.336 E52.3558
G1 X125.1 Y114.151 E52.37005
G1 X125.1 Y114.336 E52.37075
G1 X125.1 Y114.632 E52.37669
G1 X125.1 Y114.904 E52.38919
G1 X125.1 Y114.981 E52.39457
G1 X125.1 Y115.6 E52.43781
G1 X124.484 Y115.6 E52.48083
G1 X124.349 Y115.6 E52.49026
G1 X124.067 Y115.6 E52.50996
G1 X123.757 Y115.6 E52.53161
G1 X123.581 Y115.6 E52.5439
G1 X123.757 Y115.53 E52.54539
G1 X124.067 Y115.357 E52.554
G1 X124.349 Y115.148 E52.57055
G1 X124.447 Y115.056 E52.5791
G1 X124.552 Y114.956 E52.58923
G1 X124.607 Y114.904 E52.59422
M204 S3000
M205 X10 Y10
G0 F1200 X122.708 Y115.275
G0 X121.86 Y115.173
G0 X121.111 Y114.767
G0 X120.558 Y114.109
G0 X120.342 Y113.459
G0 X120.224 Y112.732
G0 X120.323 Y112.736
M204 S1800
M205 X8 Y8
G1 F600 X120.31 Y113.016 E52.6138
G1 X120.329 Y113.295 E52.63333
G1 X120.383 Y113.57 E52.6529
G1 X120.471 Y113.837 E52.67254
G1 X120.593 Y114.092 E52.69228
G1 X120.746 Y114.331 E52.7121
G1 X120.928 Y114.545 E52.73173
G1 X121.133 Y114.735 E52.75125
G1 X121.36 Y114.899 E52.77081
G1 X121.609 Y115.035 E52.79062
G1 X121.872 Y115.135 E52.81028
G1 X122.143 Y115.204 E52.82981
G1 X122.423 Y115.237 E52.8495
G1 X122.705 Y115.236 E52.8692
G1 X122.984 Y115.198 E52.88887
G1 X123.255 Y115.127 E52.90843
G1 X123.516 Y115.023 E52.92806
G1 X123.763 Y114.885 E52.94782
G1 X123.989 Y114.718 E52.96745
G1 X124.195 Y114.523 E52.98726
G1 X124.372 Y114.305 E53.00687
G1 X124.521 Y114.068 E53.02643
G1 X124.64 Y113.812 E53.04614
G1 X124.724 Y113.542 E53.06589
G1 X124.777 Y113.264 E53.08566
G1 X124.79 Y112.984 E53.10524
G1 X124.771 Y112.705 E53.12477
G1 X124.717 Y112.43 E53.14435
G1 X124.629 Y112.163 E53.16398
G1 X124.507 Y111.908 E53.18373
G1 X124.354 Y111.669 E53.20355
G1 X124.172 Y111.455 E53.22317
G1 X123.967 Y111.265 E53.24269
G1 X123.74 Y111.101 E53.26225
G1 X123.491 Y110.965 E53.28207
G1 X123.228 Y110.865 E53.30172
G1 X122.957 Y110.796 E53.32125
G1 X122.677 Y110.763 E53.34094
G1 X122.395 Y110.764 E53.36064
G1 X122.116 Y110.802 E53.38031
G1 X121.845 Y110.873 E53.39988
G1 X121.584 Y110.977 E53.4195
G1 X121.337 Y111.115 E53.43926
G1 X121.111 Y111.282 E53.45889
G1 X120.905 Y111.477 E53.4787
G1 X120.728 Y111.695 E53.49831
G1 X120.579 Y111.932 E53.51787
G1 X120.46 Y112.188 E53.53759
G1 X120.376 Y112.458 E53.55734
G1 X120.323 Y112.736 E53.5771
M204 S3000
M205 X10 Y10
G0 F1200 X120.224 Y112.732
G0 X116.818 Y99.032
G0 X98.04 Y98.99
G0 X98.11 Y99.06
M204 S1800
M205 X8 Y8
G1 F600 X98.11 Y111.74 E54.46275
G1 X116.79 Y111.74 E55.76748
G1 X116.79 Y99.06 E56.65313
G1 X98.11 Y99.06 E57.95786
M204 S3000
M205 X10 Y10
G0 F1200 X98.04 Y98.99
G0 X87.292 Y98.025
G0 X86.47 Y98.24
G0 X85.777 Y98.748
G0 X85.411 Y99.333
G0 X85.124 Y100.032
G0 X85.223 Y100.036
M204 S1800
