;FLAVOR:Marlin
;TIME:4285
;Filament used: 4.25683m
;Layer height: 0.2
;Generated with Cura_SteamEngine 3.5.1
M140 S90
M105
M190 S90
M104 S235
M105
M109 S235
M82 ;absolute extrusion mode
G21 ;metric values
G90 ;absolute positioning
M82 ;set extruder to absolute mode
M107 ;start with the fan off
G28 X0 Y0 ;move X/Y to min endstops
G28 Z0 ;move Z to min endstops
G1 Z15.0 F100 ;move the platform down 15mm
G92 E0 ;zero the extruded length
G1 F200 E3 ;extrude 3mm of feed stock
G92 E0 ;zero the extruded length again
G1 F100
M117 Printing...
G5
G92 E0
G1 F2400 E-6
;LAYER_COUNT:142
;LAYER:0
M106 S255
M204 S3000
M205 X10 Y10
G0 F1200 X95.728 Y76.97 Z0.3
M204 S1800
M205 X8 Y8
;TYPE:SKIRT
G1 F2400 E0
G1 X96.189 Y76.422 E0.05002
G1 X96.707 Y75.93 E0.09992
G1 X97.278 Y75.498 E0.14993
G1 X97.893 Y75.133 E0.19988
G1 X98.545 Y74.838 E0.24986
G1 X99.225 Y74.618 E0.29978
G1 X99.926 Y74.476 E0.34974
G1 X100.849 Y74.409 E0.41438
G1 X118.614 Y74.41 E1.6552
G1 X119.329 Y74.45 E1.70521
G1 X120.034 Y74.569 E1.75515
G1 X120.721 Y74.767 E1.80509
G1 X121.382 Y75.04 E1.85504
G1 X122.009 Y75.385 E1.90503
G1 X122.593 Y75.797 E1.95495
G1 X123.128 Y76.273 E2.00496
G1 X123.772 Y77.022 E2.07396
G1 X126.067 Y80.147 E2.34476
G1 X129.429 Y84.305 E2.71824
G1 X133.008 Y88.251 E3.09034
G1 X134.802 Y90.07 E3.26878
G1 X138.711 Y93.707 E3.64171
G1 X142.82 Y97.118 E4.01471
G1 X145.697 Y99.299 E4.26687
G1 X146.242 Y99.763 E4.31687
G1 X146.732 Y100.284 E4.36682
G1 X147.16 Y100.856 E4.41672
G1 X147.522 Y101.473 E4.46669
G1 X147.814 Y102.126 E4.51665
G1 X148.03 Y102.808 E4.56661
G1 X148.169 Y103.51 E4.6166
G1 X148.231 Y104.401 E4.67898
G1 X148.23 Y114.243 E5.36641
G1 X148.19 Y114.957 E5.41636
G1 X148.07 Y115.662 E5.46631
G1 X147.873 Y116.349 E5.51623
G1 X147.6 Y117.011 E5.56624
G1 X147.255 Y117.637 E5.61617
G1 X146.842 Y118.221 E5.66613
G1 X146.367 Y118.756 E5.7161
G1 X145.835 Y119.234 E5.76605
G1 X145.253 Y119.65 E5.81602
G1 X144.628 Y119.998 E5.86598
G1 X144.067 Y120.238 E5.9086
G1 X141.943 Y121.031 E6.06696
G1 X136.99 Y123.107 E6.44206
G1 X132.229 Y125.425 E6.81192
G1 X127.613 Y128.007 E7.18134
G1 X123.142 Y130.849 E7.55138
G1 X118.486 Y134.169 E7.95079
G1 X117.881 Y134.551 E8.00076
G1 X117.238 Y134.863 E8.05068
G1 X116.882 Y135 E8.07733
G1 X116.327 Y135.194 E8.11839
G1 X115.639 Y135.391 E8.16838
G1 X114.934 Y135.511 E8.21833
G1 X114.22 Y135.552 E8.26828
G1 X68.174 Y135.59 E11.48442
G1 X67.46 Y135.551 E11.53437
G1 X66.755 Y135.432 E11.5843
G1 X66.067 Y135.235 E11.63429
G1 X65.406 Y134.963 E11.68421
G1 X64.779 Y134.618 E11.7342
G1 X64.194 Y134.206 E11.78418
G1 X63.659 Y133.731 E11.83415
G1 X63.181 Y133.2 E11.88405
G1 X62.765 Y132.618 E11.93402
G1 X62.416 Y131.994 E11.98395
G1 X62.139 Y131.334 E12.03395
G1 X61.937 Y130.648 E12.0839
G1 X61.813 Y129.943 E12.13389
G1 X61.769 Y129.19 E12.18658
G1 X61.77 Y116.009 E13.10722
G1 X61.81 Y115.294 E13.15724
G1 X61.929 Y114.589 E13.20718
G1 X62.127 Y113.902 E13.25712
G1 X62.4 Y113.241 E13.30707
G1 X62.745 Y112.614 E13.35705
G1 X63.157 Y112.03 E13.40697
G1 X63.633 Y111.495 E13.45699
G1 X64.165 Y111.017 E13.50694
G1 X64.539 Y110.738 E13.53953
G1 X67.798 Y108.493 E13.81594
G1 X72.03 Y105.281 E14.18703
G1 X76.055 Y101.852 E14.55635
G1 X79.892 Y98.189 E14.92686
G1 X83.54 Y94.288 E15.29991
G1 X85.228 Y92.324 E15.48079
G1 X86.874 Y90.291 E15.66349
G1 X90.052 Y86.013 E16.03572
G1 X92.977 Y81.57 E16.40726
G1 X95.332 Y77.565 E16.73177
G1 X95.728 Y76.97 E16.78169
M204 S3000
M205 X10 Y10
G0 F1200 X96.195 Y77.281
M204 S1800
M205 X8 Y8
G1 F2400 X96.639 Y76.762 E16.8294
G1 X97.14 Y76.298 E16.8771
G1 X97.693 Y75.896 E16.92485
G1 X98.288 Y75.56 E16.97257
G1 X98.918 Y75.297 E17.02026
G1 X99.575 Y75.11 E17.06797
G1 X100.25 Y75 E17.11574
G1 X100.849 Y74.969 E17.15763
G1 X118.614 Y74.97 E18.39845
G1 X119.296 Y75.01 E18.44617
G1 X119.969 Y75.129 E18.4939
G1 X120.623 Y75.327 E18.54163
G1 X121.25 Y75.599 E18.58937
G1 X121.841 Y75.942 E18.6371
G1 X122.387 Y76.352 E18.68479
G1 X122.882 Y76.824 E18.73256
G1 X123.321 Y77.353 E18.78057
G1 X125.635 Y80.504 E19.05363
G1 X128.999 Y84.665 E19.42736
G1 X132.613 Y88.649 E19.80306
G1 X134.394 Y90.455 E19.98022
G1 X138.349 Y94.134 E20.3575
G1 X142.484 Y97.568 E20.73293
G1 X145.358 Y99.746 E20.98479
G1 X145.878 Y100.189 E21.03251
G1 X146.342 Y100.691 E21.08025
G1 X146.744 Y101.243 E21.12795
G1 X147.079 Y101.839 E21.1757
G1 X147.343 Y102.469 E21.22341
G1 X147.53 Y103.126 E21.27113
G1 X147.64 Y103.8 E21.31883
G1 X147.671 Y104.401 E21.36086
G1 X147.67 Y114.243 E22.04829
G1 X147.63 Y114.925 E22.096
G1 X147.511 Y115.597 E22.14367
G1 X147.313 Y116.252 E22.19146
G1 X147.041 Y116.878 E22.23914
G1 X146.698 Y117.469 E22.28686
G1 X146.287 Y118.015 E22.3346
G1 X145.816 Y118.51 E22.38232
G1 X145.291 Y118.946 E22.42999
G1 X144.717 Y119.318 E22.47776
G1 X143.872 Y119.714 E22.54294
G1 X141.699 Y120.525 E22.70494
G1 X136.756 Y122.597 E23.0793
G1 X131.974 Y124.926 E23.45081
G1 X127.345 Y127.514 E23.82123
G1 X122.818 Y130.392 E24.19591
G1 X118.161 Y133.713 E24.59542
G1 X117.582 Y134.076 E24.64315
G1 X116.697 Y134.471 E24.71085
G1 X116.142 Y134.665 E24.75191
G1 X115.485 Y134.852 E24.79962
G1 X114.811 Y134.962 E24.84732
G1 X114.22 Y134.992 E24.88865
G1 X68.174 Y135.03 E28.1048
G1 X67.492 Y134.991 E28.15251
G1 X66.819 Y134.872 E28.20025
G1 X66.165 Y134.675 E28.24795
G1 X65.538 Y134.404 E28.29566
G1 X64.947 Y134.061 E28.34339
G1 X64.4 Y133.651 E28.39114
G1 X63.905 Y133.18 E28.43886
G1 X63.468 Y132.655 E28.48657
G1 X63.095 Y132.082 E28.53432
G1 X62.792 Y131.47 E28.58202
G1 X62.563 Y130.826 E28.62976
G1 X62.41 Y130.16 E28.67749
G1 X62.329 Y129.19 E28.74548
G1 X62.33 Y116.009 E29.66612
G1 X62.37 Y115.327 E29.71384
G1 X62.489 Y114.654 E29.76158
G1 X62.687 Y114 E29.8093
G1 X62.959 Y113.373 E29.85704
G1 X63.302 Y112.782 E29.90477
G1 X63.712 Y112.236 E29.95246
G1 X64.184 Y111.741 E30.00023
G1 X64.857 Y111.2 E30.06054
G1 X68.104 Y108.963 E30.33595
G1 X72.382 Y105.717 E30.71103
G1 X76.437 Y102.263 E31.08307
G1 X80.283 Y98.59 E31.45452
G1 X83.966 Y94.652 E31.83113
G1 X85.682 Y92.655 E32.01503
G1 X87.309 Y90.646 E32.1956
G1 X90.51 Y86.336 E32.57058
G1 X93.453 Y81.866 E32.94438
G1 X95.815 Y77.849 E33.26987
G1 X96.195 Y77.281 E33.3176
M204 S3000
M205 X10 Y10
G0 F1200 X96.661 Y77.594
M204 S1800
M205 X8 Y8
G1 F2400 X97.087 Y77.104 E33.36295
G1 X97.571 Y76.67 E33.40836
G1 X98.104 Y76.299 E33.45371
G1 X98.678 Y75.996 E33.49905
G1 X99.286 Y75.766 E33.54445
G1 X99.917 Y75.612 E33.58982
G1 X100.849 Y75.529 E33.65517
G1 X118.614 Y75.53 E34.89599
G1 X119.263 Y75.57 E34.94141
G1 X119.901 Y75.689 E34.98674
G1 X120.52 Y75.886 E35.03211
G1 X121.111 Y76.158 E35.07755
G1 X121.663 Y76.499 E35.12287
G1 X122.169 Y76.906 E35.16823
G1 X122.622 Y77.372 E35.21362
G1 X122.87 Y77.685 E35.24151
G1 X125.186 Y80.839 E35.51482
G1 X128.579 Y85.034 E35.89167
G1 X132.195 Y89.022 E36.26767
G1 X134.011 Y90.862 E36.44824
G1 X137.987 Y94.562 E36.82759
G1 X142.124 Y97.997 E37.20317
G1 X145.02 Y100.192 E37.45698
G1 X145.513 Y100.615 E37.50235
G1 X145.95 Y101.096 E37.54774
G1 X146.324 Y101.627 E37.59311
G1 X146.631 Y102.2 E37.63851
G1 X146.865 Y102.806 E37.68389
G1 X147.022 Y103.436 E37.72923
G1 X147.111 Y104.401 E37.79692
G1 X147.11 Y114.243 E38.48435
G1 X147.07 Y114.891 E38.5297
G1 X146.951 Y115.529 E38.57503
G1 X146.754 Y116.149 E38.62046
G1 X146.482 Y116.739 E38.66584
G1 X146.141 Y117.291 E38.71116
G1 X145.734 Y117.797 E38.75652
G1 X145.267 Y118.25 E38.80196
G1 X144.749 Y118.642 E38.84733
G1 X144.187 Y118.967 E38.89268
G1 X143.676 Y119.189 E38.93159
G1 X141.517 Y119.995 E39.09255
G1 X136.523 Y122.087 E39.47074
G1 X131.706 Y124.434 E39.845
G1 X127.049 Y127.038 E40.21767
G1 X122.515 Y129.92 E40.59291
G1 X117.836 Y133.257 E40.99432
G1 X117.285 Y133.601 E41.03969
G1 X116.512 Y133.942 E41.0987
G1 X115.957 Y134.136 E41.13977
G1 X115.332 Y134.312 E41.18512
G1 X114.69 Y134.411 E41.23049
G1 X114.219 Y134.432 E41.26342
G1 X68.173 Y134.47 E44.47956
G1 X67.525 Y134.431 E44.52491
G1 X66.886 Y134.312 E44.57031
G1 X66.267 Y134.116 E44.61566
G1 X65.677 Y133.845 E44.661
G1 X65.124 Y133.503 E44.70642
G1 X64.617 Y133.097 E44.75179
G1 X64.164 Y132.631 E44.79718
G1 X63.772 Y132.113 E44.84255
G1 X63.446 Y131.551 E44.88793
G1 X63.192 Y130.953 E44.93331
G1 X63.013 Y130.329 E44.97865
G1 X62.912 Y129.687 E45.02405
G1 X62.889 Y129.19 E45.0588
G1 X62.89 Y116.009 E45.97944
G1 X62.93 Y115.36 E46.02486
G1 X63.049 Y114.722 E46.07019
G1 X63.246 Y114.103 E46.11556
G1 X63.518 Y113.512 E46.161
G1 X63.859 Y112.96 E46.20632
G1 X64.266 Y112.454 E46.25167
G1 X64.733 Y112.001 E46.29712
G1 X65.175 Y111.661 E46.33607
G1 X68.436 Y109.415 E46.61263
G1 X72.737 Y106.151 E46.98975
G1 X76.809 Y102.682 E47.36338
G1 X80.684 Y98.982 E47.7376
G1 X84.382 Y95.028 E48.11574
G1 X86.091 Y93.038 E48.29895
G1 X87.751 Y90.989 E48.48314
G1 X90.976 Y86.648 E48.86086
G1 X93.93 Y82.161 E49.23608
G1 X96.298 Y78.133 E49.56243
G1 X96.661 Y77.594 E49.60782
M204 S3000
M205 X10 Y10
G1 F2400 E43.60782
G0 F1200 X100.175 Y81.654
G0 X101.694 Y81.654
G0 X103.833 Y86.792
M204 S1800
M205 X8 Y8
;TYPE:WALL-INNER
G1 F2400 E49.60782
G1 F600 X104.165 Y87.105 E49.63969
G1 X104.53 Y87.367 E49.67107
G1 X104.929 Y87.577 E49.70257
G1 X105.337 Y87.724 E49.73286
G1 X105.654 Y87.799 E49.75561
G1 X106.087 Y87.849 E49.78605
G1 X106.537 Y87.838 E49.8175
G1 X106.983 Y87.767 E49.84904
G1 X107.412 Y87.634 E49.88041
G1 X107.825 Y87.441 E49.91225
G1 X108.201 Y87.194 E49.94367
G1 X108.542 Y86.899 E49.97517
G1 X108.84 Y86.554 E50.00701
G1 X109.086 Y86.175 E50.03857
G1 X109.264 Y85.787 E50.06838
G1 X109.371 Y85.479 E50.09116
G1 X109.461 Y85.05 E50.12177
G1 X109.492 Y84.603 E50.15307
G1 X109.462 Y84.153 E50.18457
G1 X109.369 Y83.706 E50.21646
G1 X109.213 Y83.281 E50.24808
G1 X109.003 Y82.885 E50.27939
G1 X108.876 Y82.709 E50.29455
G1 X108.739 Y82.518 E50.31097
G1 X108.433 Y82.2 E50.34179
G1 X108.739 Y82.2 E50.34593
G1 X108.975 Y82.2 E50.35925
G1 X117.22 Y82.2 E50.93514
G1 X117.22 Y94.924 E51.82386
G1 X117.156 Y95.75 E51.88173
G1 X117.14 Y96.501 E51.93419
G1 X117.162 Y97.254 E51.98681
G1 X117.224 Y97.999 E52.03903
G1 X117.322 Y98.742 E52.09137
G1 X117.463 Y99.484 E52.14412
G1 X117.655 Y100.265 E52.2003
G1 X117.871 Y100.983 E52.25267
G1 X118.126 Y101.69 E52.30516
G1 X118.419 Y102.383 E52.35772
G1 X118.746 Y103.06 E52.41023
G1 X119.126 Y103.748 E52.46513
G1 X119.525 Y104.387 E52.51774
G1 X119.958 Y105.006 E52.57051
G1 X120.434 Y105.614 E52.62444
G1 X120.926 Y106.181 E52.67687
G1 X121.451 Y106.726 E52.72973
G1 X122.013 Y107.249 E52.78335
G1 X122.593 Y107.734 E52.83616
G1 X123.205 Y108.192 E52.88955
G1 X123.835 Y108.616 E52.94259
G1 X124.489 Y109.006 E52.99577
G1 X125.161 Y109.359 E53.04879
G1 X125.85 Y109.677 E53.10179
G1 X126.557 Y109.961 E53.15501
G1 X127.279 Y110.205 E53.20824
G1 X128.022 Y110.414 E53.26215
G1 X128.755 Y110.579 E53.31463
G1 X129.52 Y110.708 E53.36882
G1 X130.263 Y110.793 E53.42105
G1 X131.035 Y110.841 E53.47508
G1 X131.781 Y110.848 E53.52718
G1 X132.529 Y110.817 E53.57947
G1 X133.299 Y110.742 E53.63351
G1 X134.041 Y110.632 E53.6859
G1 X134.785 Y110.481 E53.73893
G1 X135.52 Y110.288 E53.79201
G1 X136.246 Y110.062 E53.84511
G1 X136.962 Y109.792 E53.89856
G1 X137.657 Y109.486 E53.9516
G1 X138.343 Y109.141 E54.00523
G1 X139.005 Y108.764 E54.05844
G1 X139.646 Y108.353 E54.11163
G1 X139.96 Y108.126 E54.13869
G1 X140.261 Y107.909 E54.16461
G1 X140.44 Y107.765 E54.18065
G1 X140.44 Y107.909 E54.18077
G1 X140.44 Y108.281 E54.1989
G1 X140.44 Y112.85 E54.51802
G1 X117.793 Y112.85 E56.09983
G1 X117.391 Y112.877 E56.12797
G1 X116.954 Y112.964 E56.1591
G1 X116.532 Y113.108 E56.19024
G1 X116.135 Y113.305 E56.2212
G1 X115.761 Y113.555 E56.25262
G1 X115.429 Y113.849 E56.28359
G1 X115.138 Y114.181 E56.31443
G1 X114.889 Y114.555 E56.34581
G1 X114.694 Y114.954 E56.37683
G1 X114.551 Y115.376 E56.40795
G1 X114.467 Y115.811 E56.43889
G1 X114.44 Y116.202 E56.46627
G1 X114.44 Y127.156 E57.23136
G1 X114.431 Y127.286 E57.24047
G1 X114.394 Y127.422 E57.25031
G1 X114.315 Y127.562 E57.26154
G1 X114.264 Y127.619 E57.26688
G1 X114.196 Y127.679 E57.27321
G1 X114.143 Y127.714 E57.27765
G1 X114.005 Y127.774 E57.28816
G1 X113.914 Y127.791 E57.29463
G1 X113.789 Y127.8 E57.30338
G1 X69.56 Y127.8 E60.39261
G1 X69.56 Y117.4 E61.11901
G1 X98.886 Y117.4 E63.16733
G1 X99.284 Y117.373 E63.19519
G1 X99.721 Y117.287 E63.2263
G1 X100.143 Y117.143 E63.25744
G1 X100.54 Y116.947 E63.28836
G1 X100.913 Y116.7 E63.31961
G1 X101.246 Y116.406 E63.35064
G1 X101.54 Y116.073 E63.38166
G1 X101.787 Y115.7 E63.41291
G1 X101.983 Y115.303 E63.44384
G1 X102.127 Y114.881 E63.47498
G1 X102.213 Y114.444 E63.50609
G1 X102.24 Y114.046 E63.53395
G1 X102.24 Y82.2 E65.75828
G1 X103.475 Y82.2 E65.84454
G1 X103.836 Y82.2 E65.86975
G1 X104.056 Y82.2 E65.88512
G1 X103.836 Y82.409 E65.89246
G1 X103.613 Y82.693 E65.91057
G1 X103.559 Y82.761 E65.91664
G1 X103.329 Y83.146 E65.94796
G1 X103.154 Y83.569 E65.97994
G1 X103.042 Y84.007 E66.01151
G1 X102.991 Y84.453 E66.04287
G1 X103.002 Y84.906 E66.07452
G1 X103.074 Y85.334 E66.10483
G1 X103.162 Y85.646 E66.12747
G1 X103.328 Y86.048 E66.15785
G1 X103.553 Y86.432 E66.18894
G1 X103.833 Y86.792 E66.22079
M204 S3000
M205 X10 Y10
G0 F1200 X104.072 Y121.808
G0 X104.383 Y123.742
M204 S1800
M205 X8 Y8
G1 F600 X104.715 Y124.055 E66.25266
G1 X105.08 Y124.317 E66.28404
G1 X105.479 Y124.527 E66.31554
G1 X105.887 Y124.674 E66.34583
G1 X106.204 Y124.749 E66.36858
G1 X106.637 Y124.799 E66.39902
G1 X107.087 Y124.788 E66.43046
G1 X107.533 Y124.717 E66.46201
G1 X107.962 Y124.584 E66.49338
G1 X108.375 Y124.391 E66.52522
G1 X108.751 Y124.144 E66.55664
G1 X109.092 Y123.849 E66.58813
G1 X109.39 Y123.504 E66.61998
G1 X109.636 Y123.125 E66.65154
G1 X109.814 Y122.737 E66.68135
G1 X109.921 Y122.429 E66.70413
G1 X110.011 Y122 E66.73474
G1 X110.042 Y121.553 E66.76604
G1 X110.012 Y121.103 E66.79754
G1 X109.919 Y120.656 E66.82943
G1 X109.763 Y120.231 E66.86105
G1 X109.553 Y119.835 E66.89236
G1 X109.289 Y119.468 E66.92393
G1 X108.973 Y119.14 E66.95575
G1 X108.638 Y118.879 E66.98541
G1 X108.365 Y118.705 E67.00802
G1 X107.967 Y118.519 E67.0387
G1 X107.536 Y118.384 E67.07025
G1 X107.089 Y118.311 E67.10189
G1 X106.635 Y118.3 E67.1336
G1 X106.185 Y118.355 E67.16527
G1 X105.75 Y118.468 E67.19666
G1 X105.354 Y118.634 E67.22665
G1 X105.068 Y118.792 E67.24947
G1 X104.715 Y119.047 E67.27989
G1 X104.386 Y119.359 E67.31156
G1 X104.109 Y119.711 E67.34284
G1 X103.879 Y120.096 E67.37417
G1 X103.704 Y120.519 E67.40614
G1 X103.592 Y120.957 E67.43772
G1 X103.541 Y121.403 E67.46907
G1 X103.552 Y121.856 E67.50072
G1 X103.624 Y122.284 E67.53104
G1 X103.712 Y122.596 E67.55368
G1 X103.878 Y122.998 E67.58406
G1 X104.103 Y123.382 E67.61514
G1 X104.383 Y123.742 E67.647
M204 S3000
M205 X10 Y10
G0 F1200 X75.764 Y124.277
G0 X75.586 Y124.248
G0 X73.483 Y123.742
M204 S1800
M205 X8 Y8
G1 F600 X73.815 Y124.055 E67.67887
G1 X74.18 Y124.317 E67.71025
G1 X74.579 Y124.527 E67.74174
G1 X74.987 Y124.674 E67.77203
G1 X75.304 Y124.749 E67.79479
G1 X75.737 Y124.799 E67.82523
G1 X76.187 Y124.788 E67.85667
G1 X76.633 Y124.717 E67.88821
G1 X77.062 Y124.584 E67.91959
G1 X77.475 Y124.391 E67.95143
G1 X77.851 Y124.144 E67.98285
G1 X78.192 Y123.849 E68.01434
G1 X78.49 Y123.504 E68.04618
G1 X78.736 Y123.125 E68.07774
G1 X78.914 Y122.737 E68.10756
G1 X79.021 Y122.429 E68.13033
G1 X79.111 Y122 E68.16095
G1 X79.142 Y121.553 E68.19224
G1 X79.112 Y121.103 E68.22375
G1 X79.019 Y120.656 E68.25564
G1 X78.863 Y120.231 E68.28726
G1 X78.653 Y119.835 E68.31856
G1 X78.389 Y119.468 E68.35014
G1 X78.073 Y119.14 E68.38195
G1 X77.738 Y118.879 E68.41161
G1 X77.465 Y118.705 E68.43423
G1 X77.067 Y118.519 E68.46491
G1 X76.636 Y118.384 E68.49646
G1 X76.189 Y118.311 E68.52809
G1 X75.735 Y118.3 E68.55981
G1 X75.285 Y118.355 E68.59148
G1 X74.85 Y118.468 E68.62287
G1 X74.454 Y118.634 E68.65286
G1 X74.168 Y118.792 E68.67568
G1 X73.815 Y119.047 E68.7061
G1 X73.486 Y119.359 E68.73777
G1 X73.209 Y119.711 E68.76905
G1 X72.979 Y120.096 E68.80038
G1 X72.804 Y120.519 E68.83235
G1 X72.692 Y120.957 E68.86393
G1 X72.641 Y121.403 E68.89528
G1 X72.652 Y121.856 E68.92693
G1 X72.724 Y122.284 E68.95724
G1 X72.812 Y122.596 E68.97989
G1 X72.978 Y122.998 E69.01026
G1 X73.203 Y123.382 E69.04135
