;FLAVOR:Marlin
;TIME:2324
;Filament used: 2.07494m
;Layer height: 0.2
;Generated with Cura_SteamEngine 3.5.1
M140 S90
M105
M190 S90
M104 S235
M105
M109 S235
M82 ;absolute extrusion mode
G21 ;metric values
G90 ;absolute positioning
M82 ;set extruder to absolute mode
M107 ;start with the fan off
G28 X0 Y0 ;move X/Y to min endstops
G28 Z0 ;move Z to min endstops
G1 Z15.0 F100 ;move the platform down 15mm
G92 E0 ;zero the extruded length
G1 F200 E3 ;extrude 3mm of feed stock
G92 E0 ;zero the extruded length again
G1 F100
M117 Printing...
G5
G92 E0
G1 F2400 E-6
;LAYER_COUNT:73
;LAYER:0
M106 S255
M204 S3000
M205 X10 Y10
G0 F1200 X115.661 Y70.916 Z0.3
M204 S1800
M205 X8 Y8
;TYPE:SKIRT
G1 F2400 E0
G1 X116.164 Y70.408 E0.04993
G1 X116.474 Y70.145 E0.07833
G1 X117.105 Y69.644 E0.1346
G1 X117.69 Y69.231 E0.18462
G1 X118.027 Y69.034 E0.21188
G1 X118.913 Y68.552 E0.28233
G1 X119.559 Y68.246 E0.33226
G1 X120.16 Y68.036 E0.37673
G1 X121.302 Y67.699 E0.45989
G1 X121.998 Y67.535 E0.50984
G1 X122.488 Y67.468 E0.54438
G1 X123.263 Y67.392 E0.59877
G1 X124.226 Y67.37 E0.66605
G1 X125.002 Y67.411 E0.72033
G1 X125.713 Y67.489 E0.77028
G1 X126.219 Y67.594 E0.80638
G1 X127.385 Y67.886 E0.89033
G1 X128.068 Y68.098 E0.94028
G1 X128.785 Y68.417 E0.9951
G1 X129.884 Y68.989 E1.08163
G1 X130.499 Y69.354 E1.13158
G1 X130.919 Y69.662 E1.16796
G1 X131.521 Y70.142 E1.22174
G1 X132.221 Y70.791 E1.28841
G1 X132.742 Y71.352 E1.34189
G1 X133.336 Y72.096 E1.40838
G1 X133.77 Y72.731 E1.46211
G1 X134.14 Y73.343 E1.51206
G1 X134.346 Y73.769 E1.54511
G1 X134.818 Y74.844 E1.62711
G1 X135.069 Y75.514 E1.67708
G1 X135.275 Y76.388 E1.7398
G1 X135.505 Y77.8 E1.83973
G1 X135.58 Y78.511 E1.88966
G1 X135.559 Y79.435 E1.95422
G1 X135.444 Y80.645 E2.03911
G1 X135.282 Y81.591 E2.10615
G1 X134.192 Y85.951 E2.42005
G1 X133.659 Y88.441 E2.59791
G1 X132.759 Y93.711 E2.97133
G1 X132.163 Y98.984 E3.34197
G1 X131.867 Y104.272 E3.7119
G1 X131.818 Y129.188 E5.45219
G1 X131.777 Y129.903 E5.50221
G1 X131.656 Y130.608 E5.55217
G1 X131.457 Y131.295 E5.60213
G1 X131.183 Y131.955 E5.65204
G1 X130.837 Y132.581 E5.702
G1 X130.423 Y133.165 E5.752
G1 X129.947 Y133.698 E5.80191
G1 X129.414 Y134.175 E5.85187
G1 X128.831 Y134.59 E5.90186
G1 X128.206 Y134.937 E5.95179
G1 X127.545 Y135.212 E6.00179
G1 X126.859 Y135.412 E6.0517
G1 X126.154 Y135.534 E6.10167
G1 X125.414 Y135.576 E6.15344
G1 X114.533 Y135.569 E6.91344
G1 X113.819 Y135.529 E6.96339
G1 X113.273 Y135.443 E7.002
G1 X110.441 Y134.872 E7.20378
G1 X105.172 Y134.047 E7.57629
G1 X99.893 Y133.524 E7.94681
G1 X94.613 Y133.302 E8.31592
G1 X89.251 Y133.378 E8.69048
G1 X86.05 Y133.528 E8.9143
G1 X85.335 Y133.521 E8.96424
G1 X84.978 Y133.488 E8.98928
G1 X84.214 Y133.395 E9.04304
G1 X83.263 Y133.206 E9.11076
G1 X82.512 Y132.996 E9.16523
G1 X81.611 Y132.669 E9.23218
G1 X80.884 Y132.342 E9.28786
G1 X80.249 Y132.012 E9.33784
G1 X79.804 Y131.723 E9.3749
G1 X78.821 Y131.025 E9.45911
G1 X78.262 Y130.579 E9.50906
G1 X77.907 Y130.237 E9.54349
G1 X77.391 Y129.699 E9.59555
G1 X76.926 Y129.156 E9.64549
G1 X76.632 Y128.738 E9.68118
G1 X75.949 Y127.679 E9.7692
G1 X75.595 Y127.057 E9.81919
G1 X75.29 Y126.336 E9.87387
G1 X74.904 Y125.24 E9.95503
G1 X74.705 Y124.553 E10.00498
G1 X74.624 Y124.141 E10.03431
G1 X74.519 Y123.495 E10.08002
G1 X74.444 Y122.783 E10.13003
G1 X74.436 Y122.402 E10.15665
G1 X74.448 Y121.245 E10.23746
G1 X74.544 Y120.207 E10.31027
G1 X74.634 Y119.693 E10.34672
G1 X74.796 Y118.997 E10.39663
G1 X74.952 Y118.533 E10.43082
G1 X75.455 Y117.203 E10.53014
G1 X75.745 Y116.549 E10.58011
G1 X75.975 Y116.138 E10.61301
G1 X76.232 Y115.716 E10.64752
G1 X76.765 Y114.968 E10.71167
G1 X77.785 Y113.734 E10.82349
G1 X77.925 Y113.57 E10.83855
G1 X115.661 Y70.916 E14.81634
M204 S3000
M205 X10 Y10
G0 F1200 X116.08 Y71.287
M204 S1800
M205 X8 Y8
G1 F2400 X116.823 Y70.583 E14.88783
G1 X117.454 Y70.082 E14.94411
G1 X118.294 Y69.526 E15.01446
G1 X119.18 Y69.044 E15.08491
G1 X119.798 Y68.753 E15.13262
G1 X120.318 Y68.573 E15.17106
G1 X121.46 Y68.236 E15.25422
G1 X122.126 Y68.081 E15.30198
G1 X122.543 Y68.025 E15.33137
G1 X123.318 Y67.949 E15.38576
G1 X124.196 Y67.929 E15.4471
G1 X124.972 Y67.97 E15.50138
G1 X125.651 Y68.046 E15.5491
G1 X126.083 Y68.137 E15.57994
G1 X127.249 Y68.429 E15.66389
G1 X127.901 Y68.633 E15.71161
G1 X128.526 Y68.914 E15.75947
G1 X129.625 Y69.486 E15.84601
G1 X130.212 Y69.836 E15.89374
G1 X130.57 Y70.1 E15.92481
G1 X131.172 Y70.58 E15.97859
G1 X131.81 Y71.172 E16.03938
G1 X132.331 Y71.733 E16.09286
G1 X132.873 Y72.412 E16.15354
G1 X133.307 Y73.047 E16.20726
G1 X133.659 Y73.632 E16.25495
G1 X133.833 Y73.994 E16.283
G1 X134.305 Y75.069 E16.365
G1 X134.543 Y75.71 E16.41276
G1 X134.722 Y76.478 E16.46784
G1 X134.952 Y77.89 E16.56776
G1 X135.022 Y78.57 E16.61551
G1 X135.002 Y79.382 E16.67224
G1 X134.887 Y80.592 E16.75714
G1 X134.739 Y81.455 E16.81829
G1 X133.65 Y85.813 E17.13204
G1 X133.107 Y88.349 E17.31319
G1 X132.203 Y93.643 E17.68831
G1 X131.606 Y98.925 E18.05958
G1 X131.307 Y104.257 E18.43259
G1 X131.258 Y129.187 E20.17386
G1 X131.217 Y129.869 E20.22158
G1 X131.096 Y130.542 E20.26934
G1 X130.898 Y131.196 E20.31707
G1 X130.624 Y131.822 E20.3648
G1 X130.28 Y132.412 E20.4125
G1 X129.868 Y132.957 E20.46022
G1 X129.396 Y133.451 E20.50794
G1 X128.87 Y133.887 E20.55566
G1 X128.296 Y134.258 E20.6034
G1 X127.683 Y134.559 E20.6511
G1 X127.039 Y134.787 E20.69881
G1 X126.372 Y134.937 E20.74657
G1 X125.414 Y135.016 E20.8137
G1 X114.533 Y135.009 E21.5737
G1 X113.851 Y134.969 E21.62142
G1 X113.384 Y134.894 E21.65446
G1 X110.546 Y134.322 E21.85667
G1 X105.245 Y133.492 E22.23143
G1 X99.937 Y132.966 E22.60399
G1 X94.611 Y132.742 E22.97632
G1 X89.248 Y132.818 E23.35095
G1 X86.024 Y132.969 E23.57638
G1 X85.045 Y132.932 E23.6448
G1 X84.281 Y132.839 E23.69856
G1 X83.414 Y132.666 E23.76031
G1 X82.663 Y132.456 E23.81478
G1 X81.84 Y132.158 E23.87591
G1 X81.113 Y131.831 E23.93159
G1 X80.508 Y131.515 E23.97927
G1 X80.128 Y131.267 E24.01096
G1 X79.145 Y130.569 E24.09517
G1 X78.612 Y130.141 E24.14291
G1 X78.311 Y129.849 E24.1722
G1 X77.795 Y129.311 E24.22427
G1 X77.352 Y128.792 E24.27193
G1 X77.102 Y128.434 E24.30243
G1 X76.419 Y127.375 E24.39045
G1 X76.083 Y126.78 E24.43817
G1 X75.819 Y126.15 E24.48588
G1 X75.433 Y125.054 E24.56704
G1 X75.244 Y124.397 E24.61479
G1 X75.177 Y124.051 E24.63941
G1 X75.072 Y123.405 E24.68512
G1 X74.996 Y122.407 E24.75503
G1 X75.008 Y121.25 E24.83585
G1 X75.096 Y120.304 E24.90221
G1 X75.186 Y119.79 E24.93865
G1 X75.343 Y119.125 E24.98638
G1 X75.476 Y118.731 E25.01542
G1 X75.979 Y117.401 E25.11474
G1 X76.257 Y116.777 E25.16246
G1 X76.453 Y116.429 E25.19035
G1 X76.71 Y116.007 E25.22486
G1 X77.197 Y115.324 E25.28345
G1 X78.217 Y114.09 E25.39528
G1 X78.344 Y113.941 E25.40895
G1 X116.08 Y71.287 E29.38674
M204 S3000
M205 X10 Y10
G0 F1200 X116.499 Y71.658
M204 S1800
M205 X8 Y8
G1 F2400 X117.171 Y71.022 E29.45136
G1 X117.802 Y70.521 E29.50764
G1 X118.562 Y70.018 E29.57129
G1 X119.448 Y69.536 E29.64174
G1 X120.036 Y69.261 E29.68708
G1 X120.477 Y69.11 E29.71964
G1 X121.619 Y68.773 E29.8028
G1 X122.252 Y68.628 E29.84816
G1 X122.598 Y68.582 E29.87254
G1 X123.373 Y68.506 E29.92693
G1 X124.167 Y68.488 E29.9824
G1 X124.943 Y68.529 E30.03668
G1 X125.588 Y68.603 E30.08203
G1 X125.947 Y68.68 E30.10767
G1 X127.113 Y68.972 E30.19163
G1 X127.732 Y69.168 E30.23698
G1 X128.268 Y69.41 E30.27805
G1 X129.367 Y69.982 E30.36459
G1 X129.923 Y70.317 E30.40993
G1 X130.221 Y70.538 E30.43584
G1 X130.823 Y71.018 E30.48962
G1 X131.4 Y71.553 E30.54458
G1 X131.921 Y72.114 E30.59805
G1 X132.411 Y72.728 E30.65292
G1 X132.845 Y73.363 E30.70664
G1 X133.178 Y73.921 E30.75203
G1 X133.321 Y74.219 E30.77512
G1 X133.793 Y75.294 E30.85712
G1 X134.017 Y75.904 E30.90251
G1 X134.169 Y76.568 E30.95009
G1 X134.399 Y77.98 E31.05001
G1 X134.464 Y78.627 E31.09543
G1 X134.444 Y79.329 E31.14448
G1 X134.329 Y80.539 E31.22937
G1 X134.195 Y81.319 E31.28465
G1 X133.105 Y85.681 E31.59869
G1 X132.559 Y88.229 E31.7807
G1 X131.649 Y93.558 E32.1583
G1 X131.048 Y98.883 E32.53259
G1 X130.747 Y104.244 E32.90763
G1 X130.698 Y129.186 E34.64974
G1 X130.657 Y129.835 E34.69516
G1 X130.536 Y130.473 E34.74051
G1 X130.338 Y131.092 E34.78591
G1 X130.066 Y131.681 E34.83122
G1 X129.723 Y132.233 E34.87661
G1 X129.315 Y132.739 E34.92201
G1 X128.848 Y133.19 E34.96736
G1 X128.329 Y133.581 E35.01274
G1 X127.766 Y133.905 E35.05811
G1 X127.168 Y134.158 E35.10347
G1 X126.543 Y134.335 E35.14884
G1 X125.901 Y134.434 E35.19421
G1 X125.415 Y134.456 E35.22819
G1 X114.534 Y134.449 E35.98819
G1 X113.885 Y134.409 E36.0336
G1 X113.494 Y134.345 E36.06128
G1 X110.629 Y133.768 E36.2654
G1 X105.315 Y132.936 E36.64109
G1 X99.979 Y132.407 E37.01562
G1 X94.626 Y132.181 E37.38984
G1 X89.214 Y132.259 E37.76788
G1 X85.998 Y132.409 E37.99275
G1 X85.113 Y132.376 E38.05461
G1 X84.349 Y132.283 E38.10837
G1 X83.565 Y132.127 E38.1642
G1 X82.814 Y131.917 E38.21867
G1 X82.07 Y131.647 E38.27395
G1 X81.343 Y131.32 E38.32963
G1 X80.768 Y131.018 E38.37499
G1 X80.452 Y130.81 E38.40141
G1 X79.469 Y130.112 E38.48562
G1 X78.964 Y129.704 E38.53097
G1 X78.715 Y129.462 E38.55522
G1 X78.199 Y128.924 E38.60729
G1 X77.779 Y128.428 E38.65268
G1 X77.573 Y128.131 E38.67793
G1 X76.89 Y127.072 E38.76594
G1 X76.572 Y126.505 E38.81135
G1 X76.347 Y125.964 E38.85227
G1 X75.961 Y124.868 E38.93344
G1 X75.729 Y123.961 E38.99883
G1 X75.624 Y123.315 E39.04454
G1 X75.556 Y122.413 E39.10772
G1 X75.568 Y121.256 E39.18853
G1 X75.647 Y120.4 E39.24858
G1 X75.737 Y119.886 E39.28502
G1 X75.888 Y119.255 E39.33034
G1 X75.999 Y118.929 E39.3544
G1 X76.502 Y117.599 E39.45371
G1 X76.769 Y117.007 E39.49907
G1 X76.931 Y116.721 E39.52203
G1 X77.188 Y116.299 E39.55654
G1 X77.628 Y115.681 E39.60953
G1 X78.648 Y114.447 E39.72135
G1 X78.763 Y114.312 E39.73374
G1 X116.499 Y71.658 E43.71153
M204 S3000
M205 X10 Y10
G1 F2400 E37.71153
G0 F1200 X119.842 Y74.817
G0 X120.934 Y75.851
G0 X121.432 Y77.389
M204 S1800
M205 X8 Y8
;TYPE:WALL-INNER
G1 F2400 E43.71153
G1 F600 X121.243 Y77.758 E43.74048
G1 X121.109 Y78.139 E43.76869
G1 X121.024 Y78.538 E43.79719
G1 X120.996 Y78.95 E43.82603
G1 X121.024 Y79.363 E43.85494
G1 X121.109 Y79.762 E43.88344
G1 X121.243 Y80.143 E43.91165
G1 X121.432 Y80.512 E43.9406
G1 X121.67 Y80.846 E43.96925
G1 X121.949 Y81.145 E43.99781
G1 X122.269 Y81.405 E44.02661
G1 X122.618 Y81.616 E44.0551
G1 X122.993 Y81.78 E44.08368
G1 X123.387 Y81.89 E44.11225
G1 X123.794 Y81.947 E44.14096
G1 X124.204 Y81.947 E44.1696
G1 X124.612 Y81.89 E44.19837
G1 X125.006 Y81.78 E44.22694
G1 X125.38 Y81.617 E44.25544
G1 X125.73 Y81.405 E44.28402
G1 X126.051 Y81.145 E44.31287
G1 X126.329 Y80.845 E44.34144
G1 X126.564 Y80.512 E44.36991
G1 X126.754 Y80.147 E44.39865
G1 X126.892 Y79.759 E44.42741
G1 X126.974 Y79.359 E44.45593
G1 X127.002 Y78.95 E44.48456
G1 X126.974 Y78.542 E44.51313
G1 X126.892 Y78.142 E44.54165
G1 X126.754 Y77.754 E44.57041
G1 X126.564 Y77.389 E44.59915
G1 X126.329 Y77.056 E44.62762
G1 X126.051 Y76.756 E44.65619
G1 X125.73 Y76.496 E44.68504
G1 X125.38 Y76.284 E44.71362
G1 X125.006 Y76.121 E44.74212
G1 X124.612 Y76.011 E44.77069
G1 X124.204 Y75.954 E44.79946
G1 X123.794 Y75.954 E44.8281
G1 X123.387 Y76.011 E44.8568
G1 X122.993 Y76.121 E44.88538
G1 X122.618 Y76.285 E44.91396
G1 X122.269 Y76.496 E44.94245
G1 X121.949 Y76.756 E44.97125
G1 X121.67 Y77.055 E44.99981
G1 X121.432 Y77.389 E45.02846
M204 S3000
M205 X10 Y10
G0 F1200 X114.151 Y95.831
M204 S1800
M205 X8 Y8
G1 F600 X88.866 Y124.445 E47.69554
G1 X88.652 Y124.668 E47.71712
G1 X88.446 Y124.856 E47.7366
G1 X88.213 Y125.037 E47.75721
G1 X87.99 Y125.185 E47.7759
G1 X87.729 Y125.331 E47.79679
G1 X87.463 Y125.457 E47.81735
G1 X87.221 Y125.547 E47.83538
G1 X86.95 Y125.629 E47.85516
G1 X86.656 Y125.691 E47.87615
G1 X86.376 Y125.729 E47.89588
G1 X86.094 Y125.748 E47.91562
G1 X85.814 Y125.745 E47.93518
G1 X85.523 Y125.72 E47.95558
G1 X85.24 Y125.674 E47.97561
G1 X84.982 Y125.612 E47.99414
G1 X84.699 Y125.52 E48.01493
G1 X84.426 Y125.409 E48.03551
G1 X84.19 Y125.294 E48.05385
G1 X83.936 Y125.142 E48.07452
G1 X83.71 Y124.982 E48.09386
G1 X83.477 Y124.792 E48.11486
G1 X83.287 Y124.612 E48.13314
G1 X83.089 Y124.391 E48.15387
G1 X82.921 Y124.175 E48.17298
G1 X82.755 Y123.927 E48.19382
G1 X82.614 Y123.676 E48.21393
G1 X82.5 Y123.432 E48.23274
G1 X82.399 Y123.162 E48.25288
G1 X82.32 Y122.891 E48.27259
G1 X82.259 Y122.612 E48.29254
G1 X82.218 Y122.321 E48.31307
G1 X82.202 Y122.052 E48.33189
G1 X82.205 Y121.761 E48.35222
G1 X82.232 Y121.451 E48.37395
G1 X82.273 Y121.204 E48.39144
G1 X82.339 Y120.93 E48.41112
G1 X82.431 Y120.644 E48.43211
G1 X82.536 Y120.389 E48.45137
G1 X82.668 Y120.124 E48.47205
G1 X82.806 Y119.892 E48.4909
G1 X82.989 Y119.634 E48.513
G1 X83.153 Y119.434 E48.53106
G1 X121.146 Y76.442 E52.53842
G1 X121.343 Y76.234 E52.55843
G1 X121.557 Y76.041 E52.57856
G1 X121.788 Y75.862 E52.59897
G1 X122.017 Y75.711 E52.61813
G1 X122.267 Y75.571 E52.63815
G1 X122.54 Y75.443 E52.65921
G1 X122.789 Y75.349 E52.6778
G1 X123.054 Y75.271 E52.69709
G1 X123.349 Y75.209 E52.71814
G1 X123.636 Y75.168 E52.73839
G1 X123.9 Y75.152 E52.75687
G1 X124.189 Y75.157 E52.77706
G1 X124.482 Y75.182 E52.79759
G1 X124.747 Y75.225 E52.81635
G1 X125.03 Y75.295 E52.83671
G1 X125.309 Y75.385 E52.85718
G1 X125.574 Y75.493 E52.87717
G1 X125.827 Y75.618 E52.89688
G1 X126.055 Y75.756 E52.9155
G1 X126.295 Y75.924 E52.93596
G1 X126.518 Y76.107 E52.95611
G1 X126.706 Y76.286 E52.97424
G1 X126.921 Y76.522 E52.99654
G1 X127.092 Y76.744 E53.01611
G1 X127.237 Y76.964 E53.03451
G1 X127.39 Y77.236 E53.05631
G1 X127.502 Y77.477 E53.07487
G1 X127.598 Y77.731 E53.09384
G1 X127.686 Y78.035 E53.11594
G1 X127.742 Y78.297 E53.13466
G1 X127.78 Y78.578 E53.15446
G1 X127.798 Y78.852 E53.17364
G1 X127.793 Y79.134 E53.19334
G1 X127.766 Y79.437 E53.21459
G1 X127.721 Y79.712 E53.23405
G1 X127.651 Y79.998 E53.25462
G1 X127.571 Y80.245 E53.27275
G1 X127.461 Y80.514 E53.29305
G1 X127.329 Y80.779 E53.31373
G1 X127.182 Y81.026 E53.3338
G1 X127.032 Y81.239 E53.352
G1 X126.846 Y81.467 E53.37255
G1 X124.029 Y84.655 E53.6697
G1 X124.029 Y127.785 E56.68217
G1 X116.943 Y127.785 E57.1771
G1 X116.836 Y127.785 E57.18457
G1 X116.394 Y127.785 E57.21544
G1 X115.964 Y127.785 E57.24548
G1 X115.964 Y127.433 E57.26721
G1 X116.394 Y127.365 E57.28825
G1 X116.836 Y127.259 E57.31517
G1 X116.938 Y127.226 E57.32243
G1 X117.265 Y127.12 E57.34644
G1 X117.683 Y126.949 E57.37799
G1 X118.081 Y126.745 E57.40922
G1 X118.46 Y126.512 E57.4403
G1 X118.811 Y126.248 E57.47097
G1 X119.029 Y126.056 E57.49126
G1 X119.257 Y125.831 E57.51364
G1 X119.458 Y125.601 E57.53497
G1 X119.634 Y125.362 E57.5557
G1 X119.788 Y125.134 E57.57492
G1 X119.957 Y124.825 E57.59952
G1 X120.164 Y124.322 E57.63751
G1 X120.289 Y123.812 E57.67419
G1 X120.337 Y123.406 E57.70274
G1 X120.334 Y122.9 E57.73809
G1 X120.276 Y122.476 E57.76798
G1 X120.136 Y121.972 E57.80451
G1 X120 Y121.636 E57.82983
G1 X119.883 Y121.409 E57.84767
G1 X119.721 Y121.132 E57.87008
G1 X119.544 Y120.88 E57.89159
G1 X119.353 Y120.646 E57.91269
G1 X119.143 Y120.421 E57.93418
G1 X118.816 Y120.124 E57.96504
G1 X118.455 Y119.857 E57.9964
G1 X118.08 Y119.626 E58.02716
G1 X117.682 Y119.422 E58.0584
G1 X117.264 Y119.251 E58.08994
G1 X116.836 Y119.112 E58.12138
G1 X116.396 Y119.008 E58.15295
G1 X115.963 Y118.937 E58.1836
G1 X115.963 Y112.433 E58.63788
G1 X116.394 Y112.365 E58.66836
G1 X116.836 Y112.259 E58.70011
G1 X117.265 Y112.12 E58.7316
G1 X117.683 Y111.949 E58.76315
G1 X118.081 Y111.745 E58.79439
G1 X118.46 Y111.512 E58.82546
G1 X118.811 Y111.248 E58.85614
G1 X119.029 Y111.056 E58.87643
G1 X119.257 Y110.831 E58.8988
G1 X119.458 Y110.601 E58.92013
G1 X119.634 Y110.362 E58.94087
G1 X119.788 Y110.134 E58.96008
G1 X119.957 Y109.825 E58.98468
G1 X120.164 Y109.322 E59.02267
G1 X120.289 Y108.812 E59.05935
G1 X120.337 Y108.406 E59.08791
G1 X120.334 Y107.9 E59.12325
G1 X120.276 Y107.476 E59.15314
G1 X120.136 Y106.972 E59.18967
G1 X120 Y106.636 E59.21499
G1 X119.883 Y106.409 E59.23283
G1 X119.721 Y106.132 E59.25524
G1 X119.544 Y105.88 E59.27675
G1 X119.353 Y105.646 E59.29785
G1 X119.143 Y105.421 E59.31935
G1 X118.816 Y105.124 E59.3502
G1 X118.455 Y104.857 E59.38156
G1 X118.08 Y104.626 E59.41232
