;FLAVOR:Marlin
;TIME:2323
;Filament used: 2.38639m
;Layer height: 0.2
;Generated with Cura_SteamEngine 3.5.0
M140 S60
M105
M190 S60
M104 S200
M105
M109 S200
M82 ;absolute extrusion mode
G21 ;metric values
G90 ;absolute positioning
M82 ;set extruder to absolute mode
M107 ;start with the fan off
G28 X0 Y0 ;move X/Y to min endstops
G28 Z0 ;move Z to min endstops
G1 Z15.0 F120 ;move the platform down 15mm
G92 E0 ;zero the extruded length
G1 F200 E3 ;extrude 3mm of feed stock
G92 E0 ;zero the extruded length again
G1 F120
M117 Printing...
G5
G92 E0
G1 F2400 E-6
;LAYER_COUNT:73
;LAYER:0
M106 S255
M204 S3000
M205 X10 Y10
G0 F3000 X113.62 Y74.898 Z0.3
M204 S1800
M205 X8 Y8
;TYPE:SKIRT
G1 F2400 E0
G1 X113.807 Y74.695 E0.01928
G1 X114.982 Y73.473 E0.13769
G1 X115.505 Y72.986 E0.1876
G1 X116.128 Y72.529 E0.24157
G1 X117.174 Y71.855 E0.32848
G1 X117.796 Y71.502 E0.37843
G1 X118.518 Y71.198 E0.43315
G1 X119.624 Y70.809 E0.51504
G1 X120.31 Y70.609 E0.56495
G1 X121.192 Y70.47 E0.62731
G1 X122.606 Y70.347 E0.72645
G1 X123.321 Y70.325 E0.77641
G1 X124.025 Y70.382 E0.82574
G1 X124.928 Y70.505 E0.8894
G1 X125.63 Y70.641 E0.93934
G1 X126.344 Y70.866 E0.99163
G1 X127.687 Y71.378 E1.09202
G1 X128.34 Y71.67 E1.14198
G1 X128.892 Y71.99 E1.18655
G1 X129.519 Y72.397 E1.23876
G1 X130.266 Y72.964 E1.30426
G1 X130.865 Y73.492 E1.36003
G1 X131.541 Y74.185 E1.42765
G1 X132.029 Y74.768 E1.48075
G1 X132.456 Y75.341 E1.53066
G1 X132.73 Y75.794 E1.56764
G1 X133.336 Y76.897 E1.65555
G1 X133.645 Y77.542 E1.7055
G1 X133.904 Y78.306 E1.76184
G1 X134.215 Y79.454 E1.84492
G1 X134.363 Y80.153 E1.89482
G1 X134.419 Y80.636 E1.92878
G1 X134.478 Y81.403 E1.98252
G1 X134.48 Y82.356 E2.04908
G1 X134.424 Y83.13 E2.10328
G1 X134.271 Y84.132 E2.17408
G1 X132.562 Y91.403 E2.69577
G1 X132.101 Y93.884 E2.87203
G1 X131.348 Y99.149 E3.24351
G1 X130.892 Y104.456 E3.61555
G1 X130.737 Y109.883 E3.99476
G1 X130.727 Y132.134 E5.54891
G1 X130.687 Y132.848 E5.59886
G1 X130.567 Y133.553 E5.64881
G1 X130.369 Y134.241 E5.69881
G1 X130.096 Y134.902 E5.74876
G1 X129.751 Y135.528 E5.79869
G1 X129.338 Y136.112 E5.84865
G1 X128.863 Y136.646 E5.89856
G1 X128.33 Y137.124 E5.94857
G1 X127.748 Y137.54 E5.99854
G1 X127.123 Y137.888 E6.0485
G1 X126.463 Y138.164 E6.09847
G1 X125.777 Y138.365 E6.1484
G1 X125.072 Y138.487 E6.19837
G1 X124.326 Y138.531 E6.25057
G1 X113.472 Y138.529 E7.00868
G1 X112.758 Y138.489 E7.05863
G1 X112.209 Y138.403 E7.09744
G1 X109.37 Y137.831 E7.29972
G1 X104.096 Y137.004 E7.67259
G1 X98.817 Y136.48 E8.04312
G1 X93.534 Y136.256 E8.41245
G1 X88.166 Y136.332 E8.78742
G1 X84.801 Y136.477 E9.02267
G1 X84.086 Y136.468 E9.07262
G1 X83.579 Y136.413 E9.10824
G1 X82.816 Y136.299 E9.16212
G1 X82.116 Y136.154 E9.21205
G1 X81.497 Y135.955 E9.25747
G1 X80.152 Y135.446 E9.35791
G1 X79.498 Y135.156 E9.40788
G1 X78.937 Y134.831 E9.45316
G1 X78.295 Y134.415 E9.5066
G1 X77.536 Y133.839 E9.57315
G1 X76.941 Y133.313 E9.62862
G1 X76.252 Y132.601 E9.69782
G1 X75.735 Y131.977 E9.75442
G1 X75.142 Y131.13 E9.82664
G1 X74.71 Y130.393 E9.88631
G1 X74.383 Y129.757 E9.93626
G1 X74.197 Y129.29 E9.97137
G1 X73.817 Y128.215 E10.051
G1 X73.617 Y127.528 E10.10098
G1 X73.535 Y127.117 E10.13025
G1 X73.427 Y126.458 E10.17689
G1 X73.351 Y125.747 E10.22684
G1 X73.343 Y125.347 E10.25478
G1 X73.357 Y124.17 E10.337
G1 X73.406 Y123.456 E10.38698
G1 X73.553 Y122.673 E10.44263
G1 X73.86 Y121.462 E10.52989
G1 X74.074 Y120.78 E10.57981
G1 X74.385 Y120.083 E10.63312
G1 X74.91 Y119.073 E10.71263
G1 X75.275 Y118.458 E10.76258
G1 X75.789 Y117.792 E10.82134
G1 X113.62 Y74.898 E14.81608
M204 S3000
M205 X10 Y10
G0 F3000 X114.04 Y75.268
M204 S1800
M205 X8 Y8
G1 F2400 X114.21 Y75.083 E14.83363
G1 X115.385 Y73.861 E14.95204
G1 X115.887 Y73.397 E14.99979
G1 X116.432 Y73 E15.04688
G1 X117.478 Y72.326 E15.1338
G1 X118.073 Y71.99 E15.18152
G1 X118.703 Y71.726 E15.22923
G1 X119.809 Y71.337 E15.31112
G1 X120.466 Y71.148 E15.35887
G1 X121.241 Y71.028 E15.41365
G1 X122.655 Y70.905 E15.51278
G1 X123.338 Y70.886 E15.56051
G1 X123.949 Y70.936 E15.60333
G1 X124.852 Y71.059 E15.66698
G1 X125.523 Y71.191 E15.71474
G1 X126.144 Y71.389 E15.76027
G1 X127.487 Y71.901 E15.86066
G1 X128.11 Y72.181 E15.90837
G1 X128.587 Y72.46 E15.94696
G1 X129.214 Y72.867 E15.99917
G1 X129.896 Y73.384 E16.05895
G1 X130.495 Y73.912 E16.11472
G1 X131.111 Y74.545 E16.17641
G1 X131.599 Y75.128 E16.22952
G1 X132.006 Y75.676 E16.27719
G1 X132.239 Y76.064 E16.30881
G1 X132.845 Y77.167 E16.39671
G1 X133.139 Y77.784 E16.44445
G1 X133.364 Y78.452 E16.49368
G1 X133.675 Y79.6 E16.57675
G1 X133.815 Y80.269 E16.62449
G1 X133.861 Y80.679 E16.65331
G1 X133.92 Y81.446 E16.70704
G1 X133.922 Y82.315 E16.76773
G1 X133.866 Y83.089 E16.82194
G1 X133.726 Y84.004 E16.88659
G1 X132.017 Y91.278 E17.40849
G1 X131.548 Y93.799 E17.58759
G1 X130.791 Y99.094 E17.96119
G1 X130.334 Y104.41 E18.33386
G1 X130.177 Y109.903 E18.71768
G1 X130.167 Y132.134 E20.27043
G1 X130.127 Y132.816 E20.31815
G1 X130.007 Y133.488 E20.36583
G1 X129.81 Y134.142 E20.41354
G1 X129.537 Y134.769 E20.4613
G1 X129.194 Y135.359 E20.50897
G1 X128.783 Y135.906 E20.55676
G1 X128.312 Y136.4 E20.60443
G1 X127.786 Y136.836 E20.65215
G1 X127.213 Y137.208 E20.69987
G1 X126.6 Y137.511 E20.74763
G1 X125.956 Y137.739 E20.79534
G1 X125.29 Y137.891 E20.84306
G1 X124.326 Y137.971 E20.91062
G1 X113.472 Y137.969 E21.66873
G1 X112.79 Y137.929 E21.71645
G1 X112.32 Y137.854 E21.74969
G1 X109.475 Y137.281 E21.9524
G1 X104.151 Y136.446 E22.3288
G1 X98.877 Y135.923 E22.69898
G1 X93.532 Y135.696 E23.07264
G1 X88.169 Y135.771 E23.44727
G1 X84.777 Y135.918 E23.68441
G1 X84.094 Y135.907 E23.73212
G1 X83.662 Y135.859 E23.76248
G1 X82.899 Y135.745 E23.81636
G1 X82.23 Y135.605 E23.8641
G1 X81.695 Y135.431 E23.9034
G1 X80.35 Y134.922 E24.00384
G1 X79.726 Y134.643 E24.05158
G1 X79.241 Y134.361 E24.09077
G1 X78.599 Y133.945 E24.1442
G1 X77.907 Y133.419 E24.20491
G1 X77.312 Y132.893 E24.26038
G1 X76.683 Y132.244 E24.32351
G1 X76.166 Y131.62 E24.38011
G1 X75.625 Y130.847 E24.44601
G1 X75.193 Y130.11 E24.50568
G1 X74.882 Y129.502 E24.55338
G1 X74.725 Y129.103 E24.58333
G1 X74.345 Y128.028 E24.66296
G1 X74.155 Y127.372 E24.71067
G1 X74.088 Y127.026 E24.73528
G1 X73.98 Y126.367 E24.78193
G1 X73.903 Y125.354 E24.85288
G1 X73.917 Y124.177 E24.9351
G1 X73.965 Y123.495 E24.98285
G1 X74.096 Y122.811 E25.03149
G1 X74.403 Y121.6 E25.11875
G1 X74.609 Y120.949 E25.16645
G1 X74.882 Y120.342 E25.21293
G1 X75.407 Y119.332 E25.29244
G1 X75.757 Y118.745 E25.34017
G1 X76.209 Y118.162 E25.3917
G1 X114.04 Y75.268 E29.38644
M204 S3000
M205 X10 Y10
G0 F3000 X114.46 Y75.639
M204 S1800
M205 X8 Y8
G1 F2400 X114.614 Y75.471 E29.40236
G1 X115.789 Y74.249 E29.52077
G1 X116.267 Y73.81 E29.5661
G1 X116.735 Y73.471 E29.60646
G1 X117.781 Y72.797 E29.69337
G1 X118.348 Y72.479 E29.73878
G1 X118.889 Y72.254 E29.77971
G1 X119.995 Y71.865 E29.86159
G1 X120.62 Y71.688 E29.90696
G1 X121.289 Y71.586 E29.95423
G1 X122.703 Y71.463 E30.05337
G1 X123.353 Y71.446 E30.09878
G1 X123.874 Y71.491 E30.13531
G1 X124.777 Y71.614 E30.19896
G1 X125.414 Y71.741 E30.24433
G1 X125.945 Y71.912 E30.28329
G1 X127.288 Y72.424 E30.38368
G1 X127.879 Y72.693 E30.42904
G1 X128.282 Y72.929 E30.46166
G1 X128.909 Y73.336 E30.51387
G1 X129.525 Y73.804 E30.5679
G1 X130.124 Y74.332 E30.62367
G1 X130.682 Y74.904 E30.67949
G1 X131.17 Y75.487 E30.73259
G1 X131.555 Y76.01 E30.77795
G1 X131.749 Y76.334 E30.80433
G1 X132.355 Y77.437 E30.89223
G1 X132.632 Y78.024 E30.93756
G1 X132.823 Y78.598 E30.97982
G1 X133.134 Y79.746 E31.06289
G1 X133.265 Y80.383 E31.10831
G1 X133.302 Y80.722 E31.13213
G1 X133.361 Y81.489 E31.18586
G1 X133.363 Y82.275 E31.24076
G1 X133.307 Y83.049 E31.29496
G1 X133.181 Y83.876 E31.35339
G1 X131.465 Y91.178 E31.87731
G1 X130.999 Y93.686 E32.05548
G1 X130.233 Y99.038 E32.43311
G1 X129.775 Y104.381 E32.80766
G1 X129.617 Y109.886 E33.19232
G1 X129.607 Y132.133 E34.7462
G1 X129.567 Y132.782 E34.79161
G1 X129.447 Y133.42 E34.83695
G1 X129.25 Y134.039 E34.88233
G1 X128.979 Y134.629 E34.92767
G1 X128.637 Y135.182 E34.97309
G1 X128.229 Y135.688 E35.01849
G1 X127.763 Y136.14 E35.06383
G1 X127.245 Y136.532 E35.10921
G1 X126.682 Y136.857 E35.15461
G1 X126.084 Y137.11 E35.19996
G1 X125.459 Y137.288 E35.24535
G1 X124.817 Y137.388 E35.29074
G1 X124.326 Y137.411 E35.32507
G1 X113.472 Y137.409 E36.08318
G1 X112.824 Y137.369 E36.12853
G1 X112.43 Y137.305 E36.15641
G1 X109.558 Y136.726 E36.36104
G1 X104.239 Y135.892 E36.73709
G1 X98.903 Y135.363 E37.11162
G1 X93.548 Y135.135 E37.48598
G1 X88.137 Y135.212 E37.86396
G1 X84.753 Y135.358 E38.10054
G1 X84.104 Y135.346 E38.14588
G1 X83.745 Y135.305 E38.17112
G1 X82.982 Y135.191 E38.225
G1 X82.346 Y135.056 E38.27041
G1 X81.893 Y134.907 E38.30372
G1 X80.548 Y134.398 E38.40417
G1 X79.956 Y134.131 E38.44953
G1 X79.546 Y133.891 E38.48271
G1 X78.904 Y133.475 E38.53614
G1 X78.278 Y133 E38.59103
G1 X77.683 Y132.474 E38.6465
G1 X77.114 Y131.887 E38.7036
G1 X76.597 Y131.263 E38.7602
G1 X76.108 Y130.564 E38.81978
G1 X75.676 Y129.827 E38.87945
G1 X75.382 Y129.247 E38.92487
G1 X75.253 Y128.917 E38.94961
G1 X74.873 Y127.842 E39.02925
G1 X74.641 Y126.936 E39.09457
G1 X74.533 Y126.277 E39.14122
G1 X74.463 Y125.36 E39.20545
G1 X74.477 Y124.183 E39.28767
G1 X74.525 Y123.535 E39.33305
G1 X74.639 Y122.949 E39.37475
G1 X74.946 Y121.738 E39.46201
G1 X75.144 Y121.119 E39.5074
G1 X75.379 Y120.6 E39.54719
G1 X75.904 Y119.59 E39.6267
G1 X76.239 Y119.033 E39.6721
G1 X76.629 Y118.533 E39.71639
G1 X114.46 Y75.639 E43.71113
M204 S3000
M205 X10 Y10
G1 F2400 E37.71113
G0 F3000 X117.917 Y78.697
G0 X119.058 Y79.706
G0 X120.786 Y83.194
G0 X121.213 Y83.719
G0 X121.766 Y84.109
G0 X122.402 Y84.337
G0 X123.074 Y84.381
G0 X123.261 Y84.343
G0 X125.237 Y83.802
M204 S1800
M205 X8 Y8
;TYPE:WALL-INNER
G1 F2400 E43.71113
G1 F1800 X125.474 Y83.462 E43.74008
G1 X125.661 Y83.102 E43.76842
G1 X125.797 Y82.72 E43.79674
G1 X125.882 Y82.319 E43.82537
G1 X125.91 Y81.906 E43.85428
G1 X125.882 Y81.493 E43.88319
G1 X125.797 Y81.092 E43.91182
G1 X125.661 Y80.71 E43.94015
G1 X125.474 Y80.35 E43.96848
G1 X125.237 Y80.01 E43.99743
G1 X124.954 Y79.71 E44.02623
G1 X124.639 Y79.454 E44.05459
G1 X124.29 Y79.24 E44.08318
G1 X123.913 Y79.076 E44.11189
G1 X123.517 Y78.964 E44.14064
G1 X123.109 Y78.91 E44.16938
G1 X122.704 Y78.91 E44.19767
G1 X122.296 Y78.964 E44.22642
G1 X121.899 Y79.077 E44.25525
G1 X121.525 Y79.24 E44.28374
G1 X121.174 Y79.453 E44.31242
G1 X120.857 Y79.712 E44.34101
G1 X120.578 Y80.011 E44.36958
G1 X120.341 Y80.346 E44.39824
G1 X120.152 Y80.709 E44.42682
G1 X120.014 Y81.096 E44.45552
G1 X119.932 Y81.497 E44.48411
G1 X119.904 Y81.906 E44.51274
G1 X119.932 Y82.315 E44.54138
G1 X120.014 Y82.716 E44.56997
G1 X120.152 Y83.103 E44.59866
G1 X120.341 Y83.466 E44.62725
G1 X120.578 Y83.801 E44.65591
G1 X120.857 Y84.1 E44.68447
G1 X121.174 Y84.359 E44.71307
G1 X121.525 Y84.572 E44.74174
G1 X121.899 Y84.735 E44.77024
G1 X122.296 Y84.848 E44.79907
G1 X122.704 Y84.902 E44.82781
G1 X123.109 Y84.902 E44.8561
G1 X123.517 Y84.848 E44.88485
G1 X123.913 Y84.736 E44.91359
G1 X124.29 Y84.572 E44.94231
G1 X124.639 Y84.358 E44.9709
G1 X124.954 Y84.102 E44.99925
G1 X125.237 Y83.802 E45.02806
M204 S3000
M205 X10 Y10
G0 F3000 X113.058 Y98.786
M204 S1800
M205 X8 Y8
G1 F1800 X87.768 Y127.405 E47.69563
G1 X87.559 Y127.626 E47.71688
G1 X87.356 Y127.81 E47.73601
G1 X87.121 Y127.992 E47.75677
G1 X86.886 Y128.149 E47.77651
G1 X86.661 Y128.275 E47.79452
G1 X86.384 Y128.405 E47.8159
G1 X86.101 Y128.511 E47.837
G1 X85.846 Y128.588 E47.85561
G1 X85.574 Y128.646 E47.87504
G1 X85.286 Y128.685 E47.89533
G1 X85.007 Y128.703 E47.91486
G1 X84.721 Y128.7 E47.93484
G1 X84.428 Y128.675 E47.95538
G1 X84.148 Y128.63 E47.97519
G1 X83.884 Y128.566 E47.99416
G1 X83.607 Y128.476 E48.0145
G1 X83.356 Y128.374 E48.03343
G1 X83.087 Y128.241 E48.05439
G1 X82.852 Y128.101 E48.07349
G1 X82.61 Y127.932 E48.09411
G1 X82.396 Y127.758 E48.11337
G1 X82.179 Y127.55 E48.13437
G1 X81.999 Y127.351 E48.15311
G1 X81.821 Y127.122 E48.17337
G1 X81.669 Y126.892 E48.19262
G1 X81.526 Y126.637 E48.21304
G1 X81.41 Y126.388 E48.23223
G1 X81.306 Y126.113 E48.25277
G1 X81.224 Y125.836 E48.27294
G1 X81.166 Y125.57 E48.29196
G1 X81.125 Y125.276 E48.31269
G1 X81.109 Y125.007 E48.33151
G1 X81.112 Y124.717 E48.35177
G1 X81.137 Y124.428 E48.37203
G1 X81.183 Y124.146 E48.39199
G1 X81.247 Y123.885 E48.41076
G1 X81.342 Y123.591 E48.43234
G1 X81.442 Y123.346 E48.45082
G1 X81.57 Y123.088 E48.47094
G1 X81.715 Y122.845 E48.4907
G1 X81.888 Y122.601 E48.51159
G1 X82.086 Y122.36 E48.53338
G1 X120.053 Y79.398 E52.53797
G1 X120.25 Y79.189 E52.55803
G1 X120.482 Y78.98 E52.57984
G1 X120.675 Y78.831 E52.59687
G1 X120.937 Y78.658 E52.6188
G1 X121.167 Y78.529 E52.63722
G1 X121.439 Y78.403 E52.65816
G1 X121.704 Y78.302 E52.67796
G1 X121.97 Y78.225 E52.69731
G1 X122.253 Y78.163 E52.71754
G1 X122.522 Y78.127 E52.7365
G1 X122.821 Y78.108 E52.75742
G1 X123.101 Y78.113 E52.77698
G1 X123.4 Y78.139 E52.79795
G1 X123.651 Y78.18 E52.81571
G1 X123.93 Y78.248 E52.83577
G1 X124.215 Y78.34 E52.85669
G1 X124.466 Y78.443 E52.87564
G1 X124.733 Y78.575 E52.89644
G1 X124.972 Y78.719 E52.91593
G1 X125.203 Y78.88 E52.9356
G1 X125.422 Y79.058 E52.95531
G1 X125.634 Y79.26 E52.97576
G1 X125.816 Y79.463 E52.9948
G1 X126 Y79.699 E53.0157
G1 X126.146 Y79.92 E53.03421
G1 X126.286 Y80.169 E53.05416
G1 X126.419 Y80.454 E53.07612
G1 X126.503 Y80.68 E53.09296
G1 X126.589 Y80.971 E53.11416
G1 X126.651 Y81.264 E53.13508
G1 X126.687 Y81.533 E53.15403
G1 X126.705 Y81.808 E53.17328
G1 X126.7 Y82.092 E53.19312
G1 X126.672 Y82.398 E53.21458
G1 X126.63 Y82.658 E53.23298
G1 X126.562 Y82.94 E53.25324
G1 X126.474 Y83.213 E53.27327
G1 X126.366 Y83.476 E53.29313
G1 X126.238 Y83.733 E53.31319
G1 X126.092 Y83.976 E53.33299
G1 X125.94 Y84.195 E53.35161
G1 X125.753 Y84.422 E53.37215
G1 X122.937 Y87.61 E53.66925
G1 X122.937 Y130.74 E56.68172
G1 X115.848 Y130.74 E57.17686
G1 X115.745 Y130.74 E57.18405
G1 X115.306 Y130.74 E57.21471
G1 X114.872 Y130.74 E57.24503
G1 X114.871 Y130.39 E57.26947
G1 X115.306 Y130.319 E57.29077
G1 X115.745 Y130.212 E57.3176
G1 X115.843 Y130.181 E57.32458
G1 X116.173 Y130.076 E57.34877
G1 X116.591 Y129.904 E57.38034
G1 X116.987 Y129.701 E57.41142
G1 X117.366 Y129.469 E57.44246
G1 X117.721 Y129.203 E57.47344
G1 X117.939 Y129.009 E57.49382
G1 X118.166 Y128.785 E57.5161
G1 X118.363 Y128.558 E57.53709
G1 X118.539 Y128.322 E57.55765
G1 X118.697 Y128.087 E57.57743
G1 X118.865 Y127.78 E57.60188
G1 X119.072 Y127.278 E57.6398
G1 X119.196 Y126.767 E57.67653
G1 X119.244 Y126.361 E57.70508
G1 X119.241 Y125.856 E57.74036
G1 X119.183 Y125.431 E57.77032
G1 X119.043 Y124.927 E57.80685
G1 X118.907 Y124.592 E57.83211
G1 X118.792 Y124.367 E57.84976
G1 X118.631 Y124.089 E57.87219
G1 X118.45 Y123.833 E57.89409
G1 X118.262 Y123.605 E57.91473
G1 X118.054 Y123.378 E57.93624
G1 X117.722 Y123.077 E57.96754
G1 X117.362 Y122.81 E57.99884
G1 X116.985 Y122.579 E58.02973
G1 X116.588 Y122.377 E58.06084
G1 X116.172 Y122.206 E58.09225
G1 X115.744 Y122.07 E58.12362
G1 X115.305 Y121.963 E58.15518
G1 X114.871 Y121.893 E58.18588
G1 X114.871 Y115.39 E58.6401
G1 X115.306 Y115.319 E58.67088
G1 X115.745 Y115.212 E58.70244
G1 X116.173 Y115.076 E58.73381
G1 X116.591 Y114.904 E58.76538
G1 X116.987 Y114.701 E58.79646
G1 X117.366 Y114.469 E58.8275
G1 X117.721 Y114.203 E58.85848
G1 X117.939 Y114.009 E58.87886
G1 X118.166 Y113.785 E58.90114
G1 X118.363 Y113.558 E58.92213
G1 X118.539 Y113.322 E58.9427
G1 X118.697 Y113.087 E58.96247
G1 X118.865 Y112.78 E58.98692
G1 X119.072 Y112.278 E59.02484
G1 X119.196 Y111.767 E59.06157
G1 X119.244 Y111.361 E59.09013
G1 X119.241 Y110.856 E59.1254
G1 X119.183 Y110.431 E59.15536
G1 X119.043 Y109.927 E59.19189
G1 X118.907 Y109.592 E59.21715
G1 X118.792 Y109.367 E59.2348
G1 X118.631 Y109.089 E59.25724
G1 X118.45 Y108.833 E59.27913
G1 X118.262 Y108.605 E59.29977
G1 X118.054 Y108.378 E59.32128
G1 X117.722 Y108.077 E59.35258
G1 X117.362 Y107.81 E59.38389
G1 X116.985 Y107.579 E59.41477
G1 X116.588 Y107.377 E59.44588
G1 X116.172 Y107.206 E59.47729
G1 X115.744 Y107.07 E59.50866
G1 X115.305 Y106.963 E59.54022
G1 X114.871 Y106.893 E59.57093
