;FLAVOR:Marlin
;TIME:19832
;Filament used: 25.6616m
;Layer height: 0.2
;Generated with Cura_SteamEngine 3.5.0
M140 S60
M105
M190 S60
M104 S200
M105
M109 S200
M82 ;absolute extrusion mode
G21 ;metric values
G90 ;absolute positioning
M82 ;set extruder to absolute mode
M107 ;start with the fan off
G28 X0 Y0 ;move X/Y to min endstops
G28 Z0 ;move Z to min endstops
G1 Z15.0 F120 ;move the platform down 15mm
G92 E0 ;zero the extruded length
G1 F200 E3 ;extrude 3mm of feed stock
G92 E0 ;zero the extruded length again
G1 F120
M117 Printing...
G5
G92 E0
G1 F2400 E-6
;LAYER_COUNT:135
;LAYER:0
M106 S255
M204 S3000
M205 X10 Y10
G0 F3000 X18.221 Y18.246 Z0.3
M204 S1800
M205 X8 Y8
;TYPE:SKIRT
G1 F2400 E0
G1 X18.753 Y17.767 E0.05
G1 X19.335 Y17.352 E0.09993
G1 X19.96 Y17.003 E0.14993
G1 X20.62 Y16.727 E0.19989
G1 X21.306 Y16.526 E0.24982
G1 X22.011 Y16.403 E0.29981
G1 X22.759 Y16.359 E0.35214
G1 X187.241 Y16.36 E11.8406
G1 X187.955 Y16.4 E11.89055
G1 X188.66 Y16.519 E11.94049
G1 X189.348 Y16.717 E11.99049
G1 X190.009 Y16.99 E12.04044
G1 X190.636 Y17.334 E12.09039
G1 X191.22 Y17.747 E12.14035
G1 X191.754 Y18.222 E12.19027
G1 X192.233 Y18.754 E12.24027
G1 X192.648 Y19.336 E12.2902
G1 X192.997 Y19.961 E12.3402
G1 X193.273 Y20.621 E12.39016
G1 X193.474 Y21.307 E12.44009
G1 X193.597 Y22.012 E12.49008
G1 X193.641 Y22.76 E12.54241
G1 X193.641 Y187.241 E24.0308
G1 X193.601 Y187.955 E24.08075
G1 X193.482 Y188.66 E24.13069
G1 X193.284 Y189.348 E24.18069
G1 X193.011 Y190.009 E24.23064
G1 X192.667 Y190.636 E24.28059
G1 X192.254 Y191.22 E24.33055
G1 X191.779 Y191.754 E24.38047
G1 X191.247 Y192.233 E24.43047
G1 X190.665 Y192.648 E24.4804
G1 X190.04 Y192.997 E24.5304
G1 X189.38 Y193.273 E24.58037
G1 X188.694 Y193.474 E24.63029
G1 X187.989 Y193.597 E24.68028
G1 X187.241 Y193.641 E24.73262
G1 X22.759 Y193.641 E36.22107
G1 X22.045 Y193.601 E36.27102
G1 X21.34 Y193.482 E36.32096
G1 X20.652 Y193.284 E36.37096
G1 X19.991 Y193.011 E36.42091
G1 X19.364 Y192.667 E36.47087
G1 X18.78 Y192.254 E36.52083
G1 X18.246 Y191.779 E36.57074
G1 X17.767 Y191.247 E36.62074
G1 X17.352 Y190.665 E36.67067
G1 X17.003 Y190.04 E36.72067
G1 X16.727 Y189.38 E36.77064
G1 X16.526 Y188.694 E36.82057
G1 X16.403 Y187.989 E36.87055
G1 X16.359 Y187.241 E36.92289
G1 X16.359 Y22.759 E48.41134
G1 X16.399 Y22.045 E48.46129
G1 X16.518 Y21.34 E48.51123
G1 X16.716 Y20.652 E48.56123
G1 X16.989 Y19.991 E48.61119
G1 X17.333 Y19.364 E48.66114
G1 X17.746 Y18.78 E48.7111
G1 X18.221 Y18.246 E48.76102
M204 S3000
M205 X10 Y10
G0 F3000 X18.772 Y18.491
M204 S1800
M205 X8 Y8
G1 F2400 X19.298 Y18.055 E48.80873
G1 X19.871 Y17.683 E48.85645
G1 X20.484 Y17.38 E48.90421
G1 X21.127 Y17.152 E48.95186
G1 X21.793 Y16.999 E48.99959
G1 X22.759 Y16.919 E49.06729
G1 X187.241 Y16.92 E60.55575
G1 X187.923 Y16.96 E60.60347
G1 X188.596 Y17.079 E60.6512
G1 X189.25 Y17.276 E60.69891
G1 X189.877 Y17.549 E60.74668
G1 X190.467 Y17.892 E60.79434
G1 X191.014 Y18.302 E60.84209
G1 X191.509 Y18.773 E60.88981
G1 X191.945 Y19.299 E60.93753
G1 X192.317 Y19.872 E60.98525
G1 X192.62 Y20.485 E61.03301
G1 X192.848 Y21.128 E61.08066
G1 X193.001 Y21.794 E61.12839
G1 X193.081 Y22.76 E61.19609
G1 X193.081 Y187.241 E72.68448
G1 X193.041 Y187.923 E72.7322
G1 X192.922 Y188.596 E72.77993
G1 X192.725 Y189.25 E72.82764
G1 X192.452 Y189.877 E72.8754
G1 X192.109 Y190.467 E72.92307
G1 X191.699 Y191.014 E72.97082
G1 X191.228 Y191.509 E73.01854
G1 X190.702 Y191.945 E73.06626
G1 X190.129 Y192.317 E73.11398
G1 X189.516 Y192.62 E73.16174
G1 X188.873 Y192.848 E73.20939
G1 X188.207 Y193.001 E73.25712
G1 X187.241 Y193.081 E73.32482
G1 X22.759 Y193.081 E84.81328
G1 X22.077 Y193.041 E84.861
G1 X21.404 Y192.922 E84.90873
G1 X20.75 Y192.725 E84.95644
G1 X20.123 Y192.452 E85.0042
G1 X19.533 Y192.109 E85.05187
G1 X18.986 Y191.699 E85.09962
G1 X18.491 Y191.228 E85.14734
G1 X18.055 Y190.702 E85.19506
G1 X17.683 Y190.129 E85.24278
G1 X17.38 Y189.516 E85.29054
G1 X17.152 Y188.873 E85.33819
G1 X16.999 Y188.207 E85.38592
G1 X16.919 Y187.241 E85.45362
G1 X16.919 Y22.759 E96.94208
G1 X16.959 Y22.077 E96.98979
G1 X17.078 Y21.404 E97.03753
G1 X17.275 Y20.75 E97.08524
G1 X17.548 Y20.123 E97.133
G1 X17.891 Y19.533 E97.18067
G1 X18.301 Y18.986 E97.22842
G1 X18.772 Y18.491 E97.27614
M204 S3000
M205 X10 Y10
G0 F3000 X18.855 Y19.204
M204 S1800
M205 X8 Y8
G1 F2400 X19.321 Y18.751 E97.32153
G1 X19.839 Y18.36 E97.36686
G1 X20.402 Y18.034 E97.4123
G1 X21 Y17.781 E97.45766
G1 X21.624 Y17.602 E97.503
G1 X22.266 Y17.502 E97.54838
G1 X22.759 Y17.479 E97.58285
G1 X187.241 Y17.48 E109.07131
G1 X187.889 Y17.52 E109.11665
G1 X188.528 Y17.639 E109.16205
G1 X189.147 Y17.836 E109.20742
G1 X189.737 Y18.107 E109.25277
G1 X190.29 Y18.449 E109.29819
G1 X190.796 Y18.856 E109.34354
G1 X191.249 Y19.322 E109.38894
G1 X191.64 Y19.84 E109.43427
G1 X191.966 Y20.403 E109.47971
G1 X192.219 Y21.001 E109.52506
G1 X192.398 Y21.625 E109.5704
G1 X192.498 Y22.267 E109.61578
G1 X192.521 Y22.76 E109.65026
G1 X192.521 Y187.241 E121.13864
G1 X192.481 Y187.889 E121.18399
G1 X192.362 Y188.528 E121.22939
G1 X192.165 Y189.147 E121.27476
G1 X191.894 Y189.737 E121.32011
G1 X191.552 Y190.29 E121.36552
G1 X191.145 Y190.796 E121.41088
G1 X190.679 Y191.249 E121.45627
G1 X190.161 Y191.64 E121.5016
G1 X189.598 Y191.966 E121.54704
G1 X189 Y192.219 E121.59239
G1 X188.376 Y192.398 E121.63774
G1 X187.734 Y192.498 E121.68312
G1 X187.241 Y192.521 E121.71759
G1 X22.759 Y192.521 E133.20605
G1 X22.111 Y192.481 E133.25139
G1 X21.472 Y192.362 E133.29679
G1 X20.853 Y192.165 E133.34216
G1 X20.263 Y191.894 E133.38751
G1 X19.71 Y191.552 E133.43293
G1 X19.204 Y191.145 E133.47828
G1 X18.751 Y190.679 E133.52368
G1 X18.36 Y190.161 E133.56901
G1 X18.034 Y189.598 E133.61445
G1 X17.781 Y189 E133.6598
G1 X17.602 Y188.376 E133.70514
G1 X17.502 Y187.734 E133.75052
G1 X17.479 Y187.241 E133.785
G1 X17.479 Y22.759 E145.27345
G1 X17.519 Y22.111 E145.3188
G1 X17.638 Y21.472 E145.3642
G1 X17.835 Y20.853 E145.40957
G1 X18.106 Y20.263 E145.45492
G1 X18.448 Y19.71 E145.50033
G1 X18.855 Y19.204 E145.54569
M204 S3000
M205 X10 Y10
G1 F2400 E139.54569
G0 F3000 X22.085 Y23.604
G0 X23.604 Y23.604
G0 X27.624 Y32.982
M204 S1800
M205 X8 Y8
;TYPE:WALL-INNER
G1 F2400 E145.54569
G1 F1800 X27.85 Y34.396 E145.6457
G1 X28.498 Y35.668 E145.74541
G1 X29.509 Y36.679 E145.84528
G1 X30.781 Y37.327 E145.94499
G1 X32.195 Y37.553 E146.045
G1 X33.609 Y37.327 E146.14502
G1 X34.881 Y36.679 E146.24473
G1 X35.892 Y35.668 E146.34459
G1 X36.54 Y34.393 E146.44449
G1 X36.763 Y32.982 E146.54426
G1 X36.54 Y31.571 E146.64404
G1 X35.892 Y30.296 E146.74394
G1 X34.881 Y29.285 E146.8438
G1 X33.606 Y28.637 E146.94369
G1 X32.195 Y28.414 E147.04347
G1 X30.784 Y28.637 E147.14325
G1 X29.509 Y29.285 E147.24314
G1 X28.498 Y30.296 E147.34301
G1 X27.85 Y31.568 E147.44272
G1 X27.624 Y32.982 E147.54273
M204 S3000
M205 X10 Y10
G0 F3000 X28.925 Y35.358
G0 X29.819 Y36.252
G0 X30.73 Y36.716
G0 X40.24 Y40.24
M204 S1800
M205 X8 Y8
G1 F1800 X40.24 Y169.76 E156.58922
G1 X169.76 Y169.76 E165.63571
G1 X169.76 Y40.24 E174.6822
G1 X40.24 Y40.24 E183.72869
M204 S3000
M205 X10 Y10
G0 F3000 X172.447 Y32.982
M204 S1800
M205 X8 Y8
G1 F1800 X172.673 Y34.396 E183.82871
G1 X173.321 Y35.668 E183.92842
G1 X174.332 Y36.679 E184.02828
G1 X175.604 Y37.327 E184.12799
G1 X177.018 Y37.553 E184.22801
G1 X178.432 Y37.327 E184.32802
G1 X179.704 Y36.679 E184.42773
G1 X180.715 Y35.668 E184.5276
G1 X181.363 Y34.393 E184.62749
G1 X181.586 Y32.982 E184.72727
G1 X181.363 Y31.571 E184.82705
G1 X180.715 Y30.296 E184.92694
G1 X179.704 Y29.285 E185.02681
G1 X178.429 Y28.637 E185.1267
G1 X177.018 Y28.414 E185.22648
G1 X175.607 Y28.637 E185.32625
G1 X174.332 Y29.285 E185.42615
G1 X173.321 Y30.296 E185.52601
G1 X172.673 Y31.568 E185.62572
G1 X172.447 Y32.982 E185.72574
M204 S3000
M205 X10 Y10
G0 F3000 X172.447 Y177.805
M204 S1800
M205 X8 Y8
G1 F1800 X172.673 Y179.219 E185.82575
G1 X173.321 Y180.491 E185.92546
G1 X174.33 Y181.5 E186.02513
G1 X175.606 Y182.152 E186.12521
G1 X177.018 Y182.375 E186.22506
G1 X178.43 Y182.152 E186.32491
G1 X179.706 Y181.5 E186.42499
G1 X180.715 Y180.491 E186.52466
G1 X181.363 Y179.216 E186.62455
G1 X181.586 Y177.805 E186.72433
G1 X181.363 Y176.394 E186.8241
G1 X180.715 Y175.119 E186.924
G1 X179.704 Y174.108 E187.02386
G1 X178.429 Y173.46 E187.12376
G1 X177.018 Y173.237 E187.22354
G1 X175.607 Y173.46 E187.32331
G1 X174.332 Y174.108 E187.42321
G1 X173.321 Y175.119 E187.52307
G1 X172.673 Y176.391 E187.62278
G1 X172.447 Y177.805 E187.7228
M204 S3000
M205 X10 Y10
G0 F3000 X173.748 Y180.181
G0 X174.641 Y181.074
G0 X175.554 Y181.541
G0 X185.85 Y185.85
M204 S1800
M205 X8 Y8
G1 F1800 X24.15 Y185.85 E199.01694
G1 X24.15 Y24.15 E210.31109
G1 X185.85 Y24.15 E221.60523
G1 X185.85 Y185.85 E232.89937
M204 S3000
M205 X10 Y10
G0 F3000 X32.195 Y181.848
G0 X30.946 Y181.651
G0 X29.818 Y181.074
G0 X29.015 Y180.271
G0 X27.624 Y177.805
M204 S1800
M205 X8 Y8
G1 F1800 X27.85 Y179.219 E232.99939
G1 X28.498 Y180.491 E233.0991
G1 X29.507 Y181.5 E233.19877
G1 X30.783 Y182.152 E233.29885
G1 X32.195 Y182.375 E233.3987
G1 X33.607 Y182.152 E233.49854
G1 X34.883 Y181.5 E233.59863
G1 X35.892 Y180.491 E233.69829
G1 X36.54 Y179.216 E233.79819
G1 X36.763 Y177.805 E233.89796
G1 X36.54 Y176.394 E233.99774
G1 X35.892 Y175.119 E234.09764
G1 X34.881 Y174.108 E234.1975
G1 X33.606 Y173.46 E234.2974
G1 X32.195 Y173.237 E234.39717
G1 X30.784 Y173.46 E234.49695
G1 X29.509 Y174.108 E234.59684
G1 X28.498 Y175.119 E234.69671
G1 X27.85 Y176.391 E234.79642
G1 X27.624 Y177.805 E234.89643
M204 S3000
M205 X10 Y10
G0 F3000 X28.191 Y177.805
M204 S1800
M205 X8 Y8
G1 F1800 X28.389 Y179.043 E234.984
G1 X28.957 Y180.158 E235.0714
G1 X29.841 Y181.042 E235.15872
G1 X30.958 Y181.613 E235.24634
G1 X32.195 Y181.808 E235.33381
G1 X33.432 Y181.613 E235.42128
G1 X34.549 Y181.042 E235.5089
G1 X35.433 Y180.158 E235.59622
G1 X36.001 Y179.041 E235.68374
G1 X36.196 Y177.805 E235.77114
G1 X36.001 Y176.569 E235.85854
G1 X35.433 Y175.452 E235.94606
G1 X34.548 Y174.567 E236.03348
G1 X33.431 Y173.999 E236.12101
G1 X32.195 Y173.804 E236.20841
G1 X30.959 Y173.999 E236.2958
G1 X29.842 Y174.567 E236.38333
G1 X28.957 Y175.452 E236.47075
G1 X28.389 Y176.567 E236.55815
G1 X28.191 Y177.805 E236.64572
M204 S3000
M205 X10 Y10
G0 F3000 X28.091 Y177.805
G0 X40.73 Y40.73
G0 X40.8 Y40.8
M204 S1800
M205 X8 Y8
G1 F1800 X40.8 Y169.2 E245.61398
G1 X169.2 Y169.2 E254.58224
G1 X169.2 Y40.8 E263.55051
G1 X40.8 Y40.8 E272.51877
M204 S3000
M205 X10 Y10
G0 F3000 X40.73 Y40.73
G0 X30.945 Y36.826
G0 X29.819 Y36.252
G0 X28.925 Y35.358
G0 X28.409 Y34.345
G0 X28.091 Y32.982
G0 X28.191 Y32.982
M204 S1800
M205 X8 Y8
G1 F1800 X28.389 Y34.22 E272.60634
G1 X28.957 Y35.335 E272.69374
G1 X29.842 Y36.22 E272.78116
G1 X30.957 Y36.788 E272.86856
G1 X32.195 Y36.986 E272.95613
G1 X33.433 Y36.788 E273.0437
G1 X34.548 Y36.22 E273.1311
G1 X35.433 Y35.335 E273.21852
G1 X36.001 Y34.218 E273.30604
G1 X36.196 Y32.982 E273.39344
G1 X36.001 Y31.746 E273.48084
G1 X35.433 Y30.629 E273.56836
G1 X34.548 Y29.744 E273.65578
G1 X33.431 Y29.176 E273.74331
G1 X32.195 Y28.981 E273.8307
G1 X30.959 Y29.176 E273.9181
G1 X29.842 Y29.744 E274.00563
G1 X28.957 Y30.629 E274.09305
G1 X28.389 Y31.744 E274.18045
G1 X28.191 Y32.982 E274.26802
M204 S3000
M205 X10 Y10
G0 F3000 X28.091 Y32.982
G0 X28.351 Y31.732
G0 X28.925 Y30.606
G0 X29.819 Y29.712
G0 X30.947 Y29.138
G0 X32.07 Y28.961
G0 X172.914 Y32.982
G0 X173.014 Y32.982
M204 S1800
M205 X8 Y8
G1 F1800 X173.212 Y34.22 E274.35558
G1 X173.78 Y35.335 E274.44299
G1 X174.665 Y36.22 E274.5304
G1 X175.78 Y36.788 E274.61781
G1 X177.018 Y36.986 E274.70537
G1 X178.256 Y36.788 E274.79294
G1 X179.371 Y36.22 E274.88034
G1 X180.256 Y35.335 E274.96776
G1 X180.824 Y34.218 E275.05529
G1 X181.019 Y32.982 E275.14269
G1 X180.824 Y31.746 E275.23008
G1 X180.256 Y30.629 E275.31761
G1 X179.371 Y29.744 E275.40503
G1 X178.254 Y29.176 E275.49255
G1 X177.018 Y28.981 E275.57995
G1 X175.782 Y29.176 E275.66735
G1 X174.665 Y29.744 E275.75488
G1 X173.78 Y30.629 E275.84229
G1 X173.212 Y31.744 E275.92969
G1 X173.014 Y32.982 E276.01726
M204 S3000
M205 X10 Y10
G0 F3000 X172.914 Y32.982
G0 X172.914 Y177.805
G0 X173.014 Y177.805
M204 S1800
M205 X8 Y8
G1 F1800 X173.212 Y179.043 E276.10483
G1 X173.78 Y180.158 E276.19223
G1 X174.664 Y181.042 E276.27955
G1 X175.781 Y181.613 E276.36717
G1 X177.018 Y181.808 E276.45464
G1 X178.255 Y181.613 E276.54211
G1 X179.372 Y181.042 E276.62973
G1 X180.256 Y180.158 E276.71705
G1 X180.824 Y179.041 E276.80457
G1 X181.019 Y177.805 E276.89197
G1 X180.824 Y176.569 E276.97937
G1 X180.256 Y175.452 E277.0669
G1 X179.371 Y174.567 E277.15431
G1 X178.254 Y173.999 E277.24184
G1 X177.018 Y173.804 E277.32924
G1 X175.782 Y173.999 E277.41663
G1 X174.665 Y174.567 E277.50416
G1 X173.78 Y175.452 E277.59158
G1 X173.212 Y176.567 E277.67898
G1 X173.014 Y177.805 E277.76655
M204 S3000
M205 X10 Y10
G0 F3000 X172.914 Y177.805
G0 X173.174 Y179.055
G0 X173.748 Y180.181
G0 X174.641 Y181.074
G0 X175.28 Y181.4
G0 X186.34 Y186.34
G0 X186.41 Y186.41
M204 S1800
M205 X8 Y8
G1 F1800 X23.59 Y186.41 E289.13892
G1 X23.59 Y23.59 E300.51129
G1 X186.41 Y23.59 E311.88366
G1 X186.41 Y186.41 E323.25604
M204 S3000
M205 X10 Y10
G0 F3000 X186.97 Y186.97
M204 S1800
M205 X8 Y8
;TYPE:WALL-OUTER
G1 F1800 X23.03 Y186.97 E334.70664
G1 X23.03 Y23.03 E346.15724
G1 X186.97 Y23.03 E357.60784
G1 X186.97 Y186.97 E369.05844
M204 S3000
M205 X10 Y10
G0 F3000 X186.77 Y186.97
G0 X186.34 Y186.34
G0 X175.769 Y181.651
G0 X174.641 Y181.074
G0 X173.748 Y180.181
G0 X173.232 Y179.168
G0 X172.931 Y177.702
G0 X173.581 Y177.805
M204 S1800
M205 X8 Y8
G1 F1800 X173.751 Y178.867 E369.13356
G1 X174.239 Y179.825 E369.20865
G1 X174.998 Y180.584 E369.28362
G1 X175.956 Y181.074 E369.35878
G1 X177.018 Y181.241 E369.43387
G1 X178.08 Y181.074 E369.50896
G1 X179.038 Y180.584 E369.58411
G1 X179.797 Y179.825 E369.65909
G1 X180.285 Y178.866 E369.73424
G1 X180.452 Y177.805 E369.80926
G1 X180.285 Y176.744 E369.88428
G1 X179.797 Y175.785 E369.95944
G1 X179.038 Y175.026 E370.03441
G1 X178.079 Y174.538 E370.10957
G1 X177.018 Y174.371 E370.18458
G1 X175.957 Y174.538 E370.2596
G1 X174.998 Y175.026 E370.33476
G1 X174.239 Y175.785 E370.40973
G1 X173.751 Y176.743 E370.48483
G1 X173.581 Y177.805 E370.55995
M204 S3000
M205 X10 Y10
G0 F3000 X173.612 Y178.002
G0 X172.961 Y178.105
G0 X32.195 Y173.764
G0 X30.947 Y173.961
G0 X29.819 Y174.535
G0 X28.925 Y175.429
G0 X28.409 Y176.442
G0 X28.108 Y177.702
G0 X28.758 Y177.805
M204 S1800
M205 X8 Y8
G1 F1800 X28.928 Y178.867 E370.63507
G1 X29.416 Y179.825 E370.71016
G1 X30.175 Y180.584 E370.78513
G1 X31.133 Y181.074 E370.86029
G1 X32.195 Y181.241 E370.93538
G1 X33.257 Y181.074 E371.01047
G1 X34.215 Y180.584 E371.08563
G1 X34.974 Y179.825 E371.1606
G1 X35.462 Y178.866 E371.23575
G1 X35.629 Y177.805 E371.31077
G1 X35.462 Y176.744 E371.38579
G1 X34.974 Y175.785 E371.46095
G1 X34.215 Y175.026 E371.53592
G1 X33.256 Y174.538 E371.61108
G1 X32.195 Y174.371 E371.6861
G1 X31.134 Y174.538 E371.76112
G1 X30.175 Y175.026 E371.83627
G1 X29.416 Y175.785 E371.91124
G1 X28.928 Y176.743 E371.98634
G1 X28.758 Y177.805 E372.06146
M204 S3000
M205 X10 Y10
G0 F3000 X28.789 Y178.002
G0 X28.138 Y178.105
G0 X40.772 Y40.772
G0 X41.36 Y40.7
G0 X41.36 Y41.36
M204 S1800
M205 X8 Y8
G1 F1800 X41.36 Y168.64 E380.95149
G1 X168.64 Y168.64 E389.84153
G1 X168.64 Y41.36 E398.73156
G1 X41.36 Y41.36 E407.6216
M204 S3000
M205 X10 Y10
G0 F3000 X41.36 Y41.56
G0 X40.7 Y41.56
G0 X29.819 Y36.252
G0 X28.925 Y35.358
G0 X28.409 Y34.345
G0 X28.108 Y32.879
G0 X28.758 Y32.982
M204 S1800
M205 X8 Y8
G1 F1800 X28.928 Y34.044 E407.69672
G1 X29.416 Y35.002 E407.77181
G1 X30.175 Y35.761 E407.84679
G1 X31.133 Y36.249 E407.92188
G1 X32.195 Y36.419 E407.997
G1 X33.257 Y36.249 E408.07212
G1 X34.215 Y35.761 E408.14722
G1 X34.974 Y35.002 E408.22219
G1 X35.462 Y34.043 E408.29734
G1 X35.629 Y32.982 E408.37236
G1 X35.462 Y31.921 E408.44738
G1 X34.974 Y30.962 E408.52254
G1 X34.215 Y30.203 E408.59751
G1 X33.256 Y29.715 E408.67267
G1 X32.195 Y29.548 E408.74769
G1 X31.134 Y29.715 E408.82271
G1 X30.175 Y30.203 E408.89786
G1 X29.416 Y30.962 E408.97283
G1 X28.928 Y31.92 E409.04793
G1 X28.758 Y32.982 E409.12305
M204 S3000
M205 X10 Y10
