;FLAVOR:Marlin
;TIME:1069
;Filament used: 1.10286m
;Layer height: 0.2
;Generated with Cura_SteamEngine 3.5.0
M140 S60
M105
M190 S60
M104 S200
M105
M109 S200
M82 ;absolute extrusion mode
G21 ;metric values
G90 ;absolute positioning
M82 ;set extruder to absolute mode
M107 ;start with the fan off
G28 X0 Y0 ;move X/Y to min endstops
G28 Z0 ;move Z to min endstops
G1 Z15.0 F120 ;move the platform down 15mm
G92 E0 ;zero the extruded length
G1 F200 E3 ;extrude 3mm of feed stock
G92 E0 ;zero the extruded length again
G1 F120
M117 Printing...
G5
G92 E0
G1 F2400 E-6
;LAYER_COUNT:130
;LAYER:0
M106 S255
M204 S3000
M205 X10 Y10
G0 F3000 X95.221 Y95.804 Z0.3
M204 S1800
M205 X8 Y8
;TYPE:SKIRT
G1 F2400 E0
G1 X96.356 Y94.738 E0.10876
G1 X96.926 Y94.257 E0.16085
G1 X97.295 Y93.997 E0.19238
G1 X97.909 Y93.593 E0.24372
G1 X98.886 Y93.057 E0.32155
G1 X100.228 Y92.455 E0.42428
G1 X100.924 Y92.186 E0.4764
G1 X101.802 Y91.963 E0.53967
G1 X103.267 Y91.69 E0.64376
G1 X104.007 Y91.593 E0.69589
G1 X104.761 Y91.575 E0.74857
G1 X105.841 Y91.609 E0.82404
G1 X106.584 Y91.673 E0.87613
G1 X107.235 Y91.795 E0.92239
G1 X109.095 Y92.238 E1.05594
G1 X109.81 Y92.45 E1.10803
G1 X110.679 Y92.827 E1.17419
G1 X111.555 Y93.28 E1.24307
G1 X112.44 Y93.825 E1.31566
G1 X113.339 Y94.476 E1.39319
G1 X114.172 Y95.185 E1.46959
G1 X114.535 Y95.547 E1.5054
G1 X114.669 Y95.684 E1.51879
G1 X115.077 Y96.114 E1.56019
G1 X115.561 Y96.682 E1.61231
G1 X115.938 Y97.229 E1.65871
G1 X116.749 Y98.533 E1.76597
G1 X117.109 Y99.187 E1.81811
G1 X117.35 Y99.749 E1.86082
G1 X117.774 Y100.871 E1.9446
G1 X118 Y101.582 E1.99671
G1 X118.102 Y102.037 E2.02928
G1 X118.284 Y102.999 E2.09766
G1 X118.403 Y104.109 E2.17563
G1 X118.43 Y105.131 E2.24704
G1 X118.409 Y105.877 E2.29917
G1 X118.335 Y106.47 E2.34091
G1 X118.092 Y107.914 E2.44318
G1 X117.929 Y108.642 E2.49529
G1 X117.705 Y109.308 E2.54437
G1 X117.204 Y110.581 E2.63992
G1 X116.895 Y111.259 E2.69196
G1 X116.438 Y112.012 E2.75349
G1 X115.584 Y113.237 E2.85779
G1 X115.125 Y113.826 E2.90994
G1 X114.741 Y114.232 E2.94898
G1 X114.048 Y114.91 E3.01669
G1 X113.488 Y115.402 E3.06876
G1 X113.061 Y115.713 E3.10565
G1 X111.776 Y116.576 E3.21377
G1 X111.136 Y116.958 E3.26583
G1 X110.463 Y117.267 E3.31755
G1 X109.445 Y117.671 E3.39405
G1 X108.738 Y117.909 E3.44616
G1 X108.06 Y118.061 E3.49469
G1 X106.493 Y118.331 E3.60575
G1 X105.752 Y118.418 E3.65786
G1 X104.842 Y118.416 E3.72142
G1 X103.391 Y118.318 E3.823
G1 X102.651 Y118.228 E3.87507
G1 X101.885 Y118.048 E3.93003
G1 X100.432 Y117.618 E4.03586
G1 X99.729 Y117.368 E4.08798
G1 X99.073 Y117.053 E4.1388
G1 X98.122 Y116.534 E4.21448
G1 X97.348 Y116.043 E4.2785
G1 X96.667 Y115.545 E4.33742
G1 X95.872 Y114.867 E4.4104
G1 X95.331 Y114.33 E4.46364
G1 X94.749 Y113.674 E4.5249
G1 X94.061 Y112.793 E4.60297
G1 X93.634 Y112.181 E4.65509
G1 X93.416 Y111.804 E4.68551
G1 X92.958 Y110.952 E4.75307
G1 X92.547 Y110.035 E4.82326
G1 X92.202 Y109.086 E4.89379
G1 X91.985 Y108.372 E4.94591
G1 X91.897 Y107.961 E4.97527
G1 X91.705 Y106.912 E5.04976
G1 X91.61 Y106.172 E5.10187
G1 X91.592 Y105.761 E5.1306
G1 X91.575 Y104.605 E5.21135
G1 X91.604 Y103.86 E5.26343
G1 X91.696 Y103.204 E5.30969
G1 X91.96 Y101.814 E5.40852
G1 X92.138 Y101.09 E5.46059
G1 X92.503 Y100.143 E5.53148
G1 X93.322 Y98.407 E5.66555
G1 X93.676 Y97.751 E5.71761
G1 X94.017 Y97.244 E5.76029
G1 X94.386 Y96.744 E5.80369
G1 X94.86 Y96.169 E5.85574
G1 X95.221 Y95.804 E5.8916
M204 S3000
M205 X10 Y10
G0 F3000 X95.605 Y96.212
M204 S1800
M205 X8 Y8
G1 F2400 X96.74 Y95.146 E6.00036
G1 X97.287 Y94.686 E6.05028
G1 X97.603 Y94.465 E6.07721
G1 X98.217 Y94.061 E6.12855
G1 X99.116 Y93.568 E6.20016
G1 X100.458 Y92.966 E6.30289
G1 X101.125 Y92.71 E6.35279
G1 X101.905 Y92.513 E6.40898
G1 X103.37 Y92.24 E6.51307
G1 X104.079 Y92.149 E6.563
G1 X104.743 Y92.135 E6.60939
G1 X105.823 Y92.169 E6.68486
G1 X106.536 Y92.232 E6.73485
G1 X107.105 Y92.34 E6.7753
G1 X108.965 Y92.783 E6.90885
G1 X109.65 Y92.987 E6.95877
G1 X110.422 Y93.324 E7.01761
G1 X111.298 Y93.777 E7.08649
G1 X112.112 Y94.278 E7.15325
G1 X113.011 Y94.929 E7.23078
G1 X113.776 Y95.581 E7.30098
G1 X114.139 Y95.943 E7.33679
G1 X114.263 Y96.07 E7.34919
G1 X114.671 Y96.5 E7.39059
G1 X115.133 Y97.045 E7.44049
G1 X115.463 Y97.525 E7.48118
G1 X116.274 Y98.829 E7.58844
G1 X116.617 Y99.457 E7.63842
G1 X116.826 Y99.947 E7.67562
G1 X117.25 Y101.069 E7.7594
G1 X117.465 Y101.751 E7.80935
G1 X117.551 Y102.141 E7.83724
G1 X117.733 Y103.103 E7.90562
G1 X117.843 Y104.124 E7.97735
G1 X117.87 Y105.146 E8.04876
G1 X117.849 Y105.861 E8.09872
G1 X117.783 Y106.377 E8.13505
G1 X117.54 Y107.821 E8.23733
G1 X117.382 Y108.519 E8.28732
G1 X117.184 Y109.103 E8.33039
G1 X116.683 Y110.376 E8.42594
G1 X116.385 Y111.026 E8.47588
G1 X115.978 Y111.692 E8.5304
G1 X115.124 Y112.917 E8.6347
G1 X114.683 Y113.48 E8.68465
G1 X114.35 Y113.832 E8.7185
G1 X113.657 Y114.51 E8.78621
G1 X113.118 Y114.981 E8.83621
G1 X112.749 Y115.248 E8.86802
G1 X111.464 Y116.111 E8.97614
G1 X110.849 Y116.476 E9.02609
G1 X110.257 Y116.747 E9.07156
G1 X109.239 Y117.151 E9.14806
G1 X108.56 Y117.377 E9.19804
G1 X107.965 Y117.509 E9.24061
G1 X106.398 Y117.779 E9.35168
G1 X105.687 Y117.861 E9.40166
G1 X104.88 Y117.857 E9.45803
G1 X103.429 Y117.759 E9.55961
G1 X102.719 Y117.671 E9.60958
G1 X102.044 Y117.511 E9.65803
G1 X100.591 Y117.081 E9.76387
G1 X99.917 Y116.84 E9.81387
G1 X99.341 Y116.562 E9.85854
G1 X98.39 Y116.043 E9.93421
G1 X97.678 Y115.591 E9.99311
G1 X96.997 Y115.093 E10.05204
G1 X96.266 Y114.469 E10.11917
G1 X95.725 Y113.932 E10.17241
G1 X95.19 Y113.329 E10.22872
G1 X94.502 Y112.448 E10.30679
G1 X94.094 Y111.861 E10.35672
G1 X93.909 Y111.539 E10.38266
G1 X93.451 Y110.687 E10.45022
G1 X93.073 Y109.844 E10.51475
G1 X92.728 Y108.895 E10.58528
G1 X92.448 Y107.86 E10.66017
G1 X92.256 Y106.811 E10.73466
G1 X92.152 Y105.753 E10.80891
G1 X92.135 Y104.597 E10.88966
G1 X92.164 Y103.882 E10.93964
G1 X92.246 Y103.309 E10.98007
G1 X92.51 Y101.919 E11.07889
G1 X92.683 Y101.225 E11.12885
G1 X93.01 Y100.382 E11.19201
G1 X93.829 Y98.646 E11.32607
G1 X94.17 Y98.017 E11.37605
G1 X94.467 Y97.577 E11.41313
G1 X94.836 Y97.077 E11.45653
G1 X95.293 Y96.526 E11.50653
G1 X95.605 Y96.212 E11.53745
M204 S3000
M205 X10 Y10
G0 F3000 X95.988 Y96.62
M204 S1800
M205 X8 Y8
G1 F2400 X97.123 Y95.554 E11.64621
G1 X97.911 Y94.932 E11.71633
G1 X98.525 Y94.528 E11.76766
G1 X99.345 Y94.079 E11.83296
G1 X100.687 Y93.477 E11.93569
G1 X101.325 Y93.234 E11.98338
G1 X102.007 Y93.064 E12.03247
G1 X103.472 Y92.791 E12.13656
G1 X104.15 Y92.705 E12.18429
G1 X104.726 Y92.695 E12.22453
G1 X105.806 Y92.729 E12.3
G1 X106.486 Y92.79 E12.34769
G1 X106.975 Y92.885 E12.38248
G1 X108.835 Y93.328 E12.51603
G1 X109.489 Y93.525 E12.56373
G1 X110.165 Y93.822 E12.61531
G1 X111.041 Y94.275 E12.68419
G1 X111.783 Y94.732 E12.74506
G1 X112.682 Y95.383 E12.82258
G1 X113.381 Y95.978 E12.8867
G1 X113.744 Y96.34 E12.9225
G1 X113.856 Y96.455 E12.93372
G1 X114.264 Y96.885 E12.97512
G1 X114.705 Y97.408 E13.0229
G1 X114.987 Y97.821 E13.05783
G1 X115.798 Y99.125 E13.16509
G1 X116.124 Y99.725 E13.21278
G1 X116.302 Y100.145 E13.24464
G1 X116.726 Y101.267 E13.32842
G1 X117.001 Y102.245 E13.39938
G1 X117.183 Y103.207 E13.46776
G1 X117.283 Y104.139 E13.53323
G1 X117.31 Y105.161 E13.60464
G1 X117.288 Y105.844 E13.65237
G1 X117.231 Y106.284 E13.68336
G1 X116.988 Y107.728 E13.78564
G1 X116.835 Y108.394 E13.83337
G1 X116.663 Y108.898 E13.87056
G1 X116.162 Y110.171 E13.96611
G1 X115.875 Y110.791 E14.01383
G1 X115.519 Y111.372 E14.06143
G1 X114.665 Y112.597 E14.16573
G1 X114.242 Y113.133 E14.21342
G1 X113.958 Y113.431 E14.24217
G1 X113.265 Y114.109 E14.30989
G1 X112.75 Y114.558 E14.35761
G1 X112.437 Y114.783 E14.38453
G1 X111.152 Y115.646 E14.49265
G1 X110.563 Y115.993 E14.5404
G1 X110.05 Y116.226 E14.57975
G1 X109.032 Y116.63 E14.65625
G1 X108.384 Y116.845 E14.70394
G1 X107.87 Y116.957 E14.74068
G1 X106.303 Y117.227 E14.85174
G1 X105.624 Y117.304 E14.89947
G1 X104.917 Y117.299 E14.94885
G1 X103.466 Y117.201 E15.05043
G1 X102.789 Y117.115 E15.0981
G1 X102.203 Y116.974 E15.1402
G1 X100.75 Y116.544 E15.24603
G1 X100.107 Y116.312 E15.29378
G1 X99.609 Y116.07 E15.33245
G1 X98.658 Y115.551 E15.40812
G1 X98.009 Y115.139 E15.46182
G1 X97.328 Y114.641 E15.52074
G1 X96.661 Y114.072 E15.58198
G1 X96.12 Y113.535 E15.63522
G1 X95.631 Y112.984 E15.68668
G1 X94.943 Y112.103 E15.76475
G1 X94.402 Y111.274 E15.83389
G1 X93.944 Y110.422 E15.90145
G1 X93.599 Y109.652 E15.96039
G1 X93.254 Y108.703 E16.03092
G1 X92.998 Y107.759 E16.09923
G1 X92.806 Y106.71 E16.17372
G1 X92.712 Y105.745 E16.24144
G1 X92.695 Y104.589 E16.32219
G1 X92.725 Y103.906 E16.36994
G1 X92.797 Y103.413 E16.40474
G1 X93.061 Y102.023 E16.50356
G1 X93.227 Y101.361 E16.55123
G1 X93.516 Y100.621 E16.60672
G1 X94.335 Y98.885 E16.74079
G1 X94.662 Y98.285 E16.78852
G1 X94.918 Y97.909 E16.82029
G1 X95.287 Y97.409 E16.86369
G1 X95.724 Y96.884 E16.9114
G1 X95.988 Y96.62 E16.93748
M204 S3000
M205 X10 Y10
G0 F3000 X96.371 Y97.028
M204 S1800
M205 X8 Y8
G1 F2400 X97.506 Y95.962 E17.04624
G1 X98.219 Y95.4 E17.10965
G1 X98.833 Y94.996 E17.16099
G1 X99.574 Y94.59 E17.22
G1 X100.916 Y93.988 E17.32273
G1 X101.524 Y93.759 E17.36811
G1 X102.11 Y93.614 E17.41028
G1 X103.575 Y93.341 E17.51436
G1 X104.219 Y93.262 E17.55968
G1 X104.708 Y93.255 E17.59384
G1 X105.788 Y93.289 E17.66931
G1 X106.435 Y93.349 E17.7147
G1 X106.845 Y93.43 E17.74389
G1 X108.705 Y93.873 E17.87743
G1 X109.327 Y94.062 E17.92284
G1 X109.907 Y94.319 E17.96715
G1 X110.783 Y94.772 E18.03603
G1 X111.455 Y95.186 E18.09116
G1 X112.354 Y95.837 E18.16869
G1 X112.985 Y96.374 E18.22656
G1 X113.348 Y96.736 E18.26237
G1 X113.45 Y96.841 E18.27259
G1 X113.858 Y97.271 E18.31399
G1 X114.276 Y97.769 E18.35941
G1 X114.512 Y98.117 E18.38877
G1 X115.323 Y99.421 E18.49603
G1 X115.631 Y99.992 E18.54135
G1 X115.778 Y100.343 E18.56792
G1 X116.202 Y101.465 E18.6517
G1 X116.451 Y102.349 E18.71585
G1 X116.633 Y103.311 E18.78423
G1 X116.723 Y104.154 E18.84345
G1 X116.75 Y105.176 E18.91486
G1 X116.727 Y105.825 E18.96021
G1 X116.679 Y106.191 E18.986
G1 X116.436 Y107.635 E19.08827
G1 X116.289 Y108.268 E19.13366
G1 X116.142 Y108.693 E19.16507
G1 X115.641 Y109.966 E19.26062
G1 X115.367 Y110.554 E19.30593
G1 X115.059 Y111.052 E19.34683
G1 X114.205 Y112.277 E19.45113
G1 X113.802 Y112.786 E19.49648
G1 X113.566 Y113.031 E19.52024
G1 X112.873 Y113.709 E19.58796
G1 X112.125 Y114.318 E19.65533
G1 X110.84 Y115.181 E19.76344
G1 X110.279 Y115.51 E19.80887
G1 X109.844 Y115.706 E19.84219
G1 X108.826 Y116.11 E19.91869
G1 X108.208 Y116.312 E19.9641
G1 X107.775 Y116.405 E19.99504
G1 X106.208 Y116.675 E20.1061
G1 X105.562 Y116.746 E20.15149
G1 X104.955 Y116.74 E20.19389
G1 X103.504 Y116.642 E20.29547
G1 X102.86 Y116.558 E20.34083
G1 X102.362 Y116.437 E20.37662
G1 X100.909 Y116.007 E20.48246
G1 X100.298 Y115.785 E20.52787
G1 X99.878 Y115.579 E20.56054
G1 X98.927 Y115.06 E20.63621
G1 X98.339 Y114.687 E20.68485
G1 X97.658 Y114.189 E20.74378
G1 X97.055 Y113.674 E20.79916
G1 X96.514 Y113.137 E20.8524
G1 X96.073 Y112.64 E20.89881
G1 X95.385 Y111.759 E20.97689
G1 X94.895 Y111.009 E21.03946
G1 X94.437 Y110.157 E21.10702
G1 X94.126 Y109.461 E21.16027
G1 X93.781 Y108.512 E21.2308
G1 X93.549 Y107.659 E21.29254
G1 X93.357 Y106.61 E21.36703
G1 X93.272 Y105.737 E21.42829
G1 X93.255 Y104.581 E21.50904
G1 X93.285 Y103.932 E21.55442
G1 X93.347 Y103.518 E21.58366
G1 X93.611 Y102.128 E21.68248
G1 X93.771 Y101.498 E21.72788
G1 X94.023 Y100.86 E21.77579
G1 X94.842 Y99.124 E21.90986
G1 X95.155 Y98.555 E21.95522
G1 X95.369 Y98.242 E21.98171
G1 X95.738 Y97.742 E22.02511
G1 X96.371 Y97.028 E22.09176
M204 S3000
M205 X10 Y10
G1 F2400 E16.09176
G0 F3000 X101.662 Y98.673
G0 X102.437 Y99.984
G0 X106.004 Y100.02
M204 S1800
M205 X8 Y8
;TYPE:WALL-INNER
G1 F2400 E22.09176
G1 F1800 X106.966 Y100.306 E22.16186
G1 X107.671 Y100.671 E22.2173
G1 X108.308 Y101.134 E22.27231
G1 X108.933 Y101.772 E22.33469
G1 X109.607 Y102.859 E22.42402
G1 X109.924 Y103.716 E22.48784
G1 X110.055 Y104.404 E22.53676
G1 X110.08 Y105.271 E22.59734
G1 X110.005 Y105.936 E22.64409
G1 X109.826 Y106.611 E22.69286
G1 X109.478 Y107.416 E22.75412
G1 X108.735 Y108.458 E22.8435
G1 X108.068 Y109.057 E22.90612
G1 X107.488 Y109.444 E22.95482
G1 X106.923 Y109.718 E22.99868
G1 X106.34 Y109.915 E23.04166
G1 X105.701 Y110.045 E23.08721
G1 X105.099 Y110.092 E23.12938
G1 X104.21 Y110.025 E23.19165
G1 X102.927 Y109.648 E23.28506
G1 X102.318 Y109.323 E23.33327
G1 X101.688 Y108.872 E23.38739
G1 X101.202 Y108.39 E23.4352
G1 X100.759 Y107.823 E23.48545
G1 X100.342 Y107.055 E23.54649
G1 X100.101 Y106.396 E23.5955
G1 X99.937 Y105.516 E23.65802
G1 X99.909 Y104.828 E23.70612
G1 X99.967 Y104.211 E23.7494
G1 X100.133 Y103.51 E23.79972
G1 X100.441 Y102.723 E23.85875
G1 X100.777 Y102.148 E23.90526
G1 X101.035 Y101.795 E23.9358
G1 X101.576 Y101.233 E23.99029
G1 X102.09 Y100.817 E24.03648
G1 X102.68 Y100.469 E24.08432
G1 X103.541 Y100.12 E24.14921
G1 X104.463 Y99.934 E24.2149
G1 X105.047 Y99.907 E24.25574
G1 X106.004 Y100.02 E24.32305
M204 S3000
M205 X10 Y10
G0 F3000 X106.246 Y99.511
M204 S1800
M205 X8 Y8
G1 F1800 X107.174 Y99.784 E24.39061
G1 X107.968 Y100.195 E24.45306
G1 X108.676 Y100.709 E24.51417
G1 X109.376 Y101.424 E24.58405
G1 X110.102 Y102.595 E24.68029
G1 X110.147 Y102.697 E24.68808
G1 X110.465 Y103.566 E24.75271
G1 X110.614 Y104.345 E24.8081
G1 X110.641 Y105.29 E24.87414
G1 X110.556 Y106.042 E24.927
G1 X110.356 Y106.795 E24.98141
G1 X109.968 Y107.693 E25.04974
G1 X109.155 Y108.834 E25.1476
G1 X108.412 Y109.501 E25.21733
G1 X107.769 Y109.93 E25.27132
G1 X107.137 Y110.236 E25.32037
G1 X106.482 Y110.458 E25.36867
G1 X105.784 Y110.6 E25.41843
G1 X105.1 Y110.653 E25.46634
G1 X104.108 Y110.579 E25.53582
G1 X102.712 Y110.168 E25.63747
G1 X102.019 Y109.798 E25.69234
G1 X101.328 Y109.304 E25.75167
G1 X100.783 Y108.763 E25.8053
G1 X100.29 Y108.132 E25.86123
G1 X99.83 Y107.285 E25.92855
G1 X99.558 Y106.541 E25.98388
G1 X99.379 Y105.58 E26.05216
G1 X99.347 Y104.813 E26.10578
G1 X99.412 Y104.123 E26.15419
G1 X99.596 Y103.346 E26.20996
G1 X99.937 Y102.475 E26.27529
G1 X100.308 Y101.84 E26.32666
G1 X100.605 Y101.434 E26.36179
G1 X101.194 Y100.823 E26.42107
G1 X101.772 Y100.355 E26.47302
G1 X102.429 Y99.967 E26.52631
G1 X103.344 Y99.593 E26.59535
G1 X103.404 Y99.576 E26.59971
G1 X104.393 Y99.377 E26.67017
G1 X105.069 Y99.346 E26.71744
G1 X106.127 Y99.471 E26.79185
G1 X106.246 Y99.511 E26.80062
M204 S3000
M205 X10 Y10
G0 F3000 X106.216 Y99.606
G0 X102.149 Y109.754
G0 X101.839 Y110.333
M204 S1800
M205 X8 Y8
;TYPE:WALL-OUTER
G1 F1800 X101.732 Y110.282 E26.80889
G1 X100.968 Y109.736 E26.87448
G1 X100.364 Y109.136 E26.93395
G1 X99.821 Y108.441 E26.99555
G1 X99.318 Y107.515 E27.06915
G1 X99.017 Y106.692 E27.13036
G1 X98.82 Y105.637 E27.20532
G1 X98.785 Y104.798 E27.26397
G1 X98.857 Y104.035 E27.3175
G1 X99.059 Y103.182 E27.37873
G1 X99.433 Y102.227 E27.45037
G1 X99.839 Y101.532 E27.50659
G1 X100.175 Y101.073 E27.54632
G1 X100.812 Y100.412 E27.61043
G1 X101.454 Y99.893 E27.6681
G1 X102.169 Y99.47 E27.72612
G1 X102.308 Y99.408 E27.73675
G1 X103.168 Y99.06 E27.80155
G1 X103.269 Y99.032 E27.80887
G1 X104.321 Y98.82 E27.88383
G1 X105.091 Y98.785 E27.93766
G1 X106.248 Y98.922 E28.01904
G1 X106.413 Y98.977 E28.03119
G1 X107.385 Y99.262 E28.10194
G1 X108.262 Y99.717 E28.17095
G1 X109.044 Y100.284 E28.23841
G1 X109.812 Y101.069 E28.31512
G1 X109.9 Y101.2 E28.32614
G1 X110.6 Y102.335 E28.41928
G1 X110.667 Y102.489 E28.43101
G1 X111.006 Y103.415 E28.49989
G1 X111.173 Y104.285 E28.56176
G1 X111.202 Y105.309 E28.63331
G1 X111.107 Y106.148 E28.69229
G1 X110.886 Y106.979 E28.75235
G1 X110.461 Y107.964 E28.82728
G1 X110.378 Y108.089 E28.83776
G1 X109.59 Y109.188 E28.93221
G1 X109.53 Y109.254 E28.93844
G1 X108.756 Y109.945 E29.01091
G1 X108.05 Y110.416 E29.07019
G1 X107.354 Y110.753 E29.1242
G1 X106.621 Y111.001 E29.17825
G1 X105.867 Y111.155 E29.232
G1 X105.097 Y111.215 E29.28595
G1 X104.077 Y111.142 E29.35737
G1 X103.983 Y111.126 E29.36403
G1 X102.496 Y110.688 E29.47231
G1 X101.839 Y110.333 E29.52446
M204 S3000
M205 X10 Y10
G0 F3000 X101.732 Y110.282
G0 X101.666 Y110.235
G0 X102.051 Y109.698
G0 X102.614 Y108.857
