;FLAVOR:Marlin
;TIME:4133
;Filament used: 7.98838m
;Layer height: 0.3
;Generated with Cura_SteamEngine 3.4.1
M190 S60
M104 S200
M109 S200
M82 ;absolute extrusion mode
G21 ;metric values
G90 ;absolute positioning
M82 ;set extruder to absolute mode
M107 ;start with the fan off
G28 X0 Y0 ;move X/Y to min endstops
G28 Z0 ;move Z to min endstops
G1 Z15.0 F100 ;move the platform down 15mm
G92 E0 ;zero the extruded length
G1 F200 E3 ;extrude 3mm of feed stock
G92 E0 ;zero the extruded length again
G1 F100
M117 Printing...
G5
G92 E0
G1 F2400 E-6
;LAYER_COUNT:83
;LAYER:0
M106 S255
M204 S3000
M205 X10 Y10
G0 F3000 X60.747 Y79.873 Z0.3
M204 S1800
M205 X8 Y8
;TYPE:SKIRT
G1 F2400 E0
G1 X61.328 Y79.456 E0.04995
G1 X62.106 Y79.033 E0.1118
G1 X65.414 Y77.52 E0.36588
G1 X70.183 Y75.066 E0.74049
G1 X74.727 Y72.393 E1.10871
G1 X79.137 Y69.451 E1.47898
G1 X83.374 Y66.264 E1.84929
G1 X87.421 Y62.844 E2.21938
G1 X90.39 Y60.078 E2.5028
G1 X90.94 Y59.621 E2.55275
G1 X91.538 Y59.227 E2.60276
G1 X92.175 Y58.903 E2.65268
G1 X92.845 Y58.652 E2.70265
G1 X93.538 Y58.477 E2.75258
G1 X94.247 Y58.381 E2.80255
G1 X94.752 Y58.361 E2.83785
G1 X141.915 Y58.355 E6.13201
G1 X142.588 Y58.39 E6.17908
G1 X143.658 Y58.503 E6.25423
G1 X144.364 Y58.618 E6.30419
G1 X145.11 Y58.831 E6.35838
G1 X145.616 Y59.009 E6.39585
G1 X146.276 Y59.283 E6.44576
G1 X147.141 Y59.788 E6.51572
G1 X147.968 Y60.362 E6.58603
G1 X148.532 Y60.802 E6.63599
G1 X148.939 Y61.192 E6.67537
G1 X149.262 Y61.529 E6.70797
G1 X149.728 Y62.072 E6.75795
G1 X150.27 Y62.91 E6.82766
G1 X150.637 Y63.588 E6.8815
G1 X150.942 Y64.235 E6.93146
G1 X151.167 Y64.893 E6.98004
G1 X151.371 Y65.614 E7.03237
G1 X151.527 Y66.312 E7.08233
G1 X151.613 Y67.354 E7.15535
G1 X151.64 Y140.243 E12.24638
G1 X151.6 Y140.957 E12.29633
G1 X151.481 Y141.662 E12.34627
G1 X151.284 Y142.35 E12.39625
G1 X151.011 Y143.011 E12.4462
G1 X150.667 Y143.638 E12.49616
G1 X150.254 Y144.222 E12.54611
G1 X149.773 Y144.763 E12.59668
G1 X145.272 Y149.279 E13.04202
G1 X145.203 Y149.347 E13.04878
G1 X144.712 Y149.825 E13.09664
G1 X144.173 Y150.294 E13.14655
G1 X143.584 Y150.701 E13.19655
G1 X142.954 Y151.039 E13.24649
G1 X142.29 Y151.305 E13.29645
G1 X141.6 Y151.495 E13.34644
G1 X140.894 Y151.606 E13.39636
G1 X140.25 Y151.639 E13.4414
G1 X137.266 Y151.64 E13.64982
G1 X136.552 Y151.6 E13.69977
G1 X135.847 Y151.481 E13.7497
G1 X135.159 Y151.284 E13.79969
G1 X134.498 Y151.011 E13.84964
G1 X133.871 Y150.667 E13.89959
G1 X133.287 Y150.254 E13.94955
G1 X132.743 Y149.77 E14.00041
G1 X127.738 Y144.775 E14.4943
G1 X127.654 Y144.69 E14.50265
G1 X123.262 Y140.14 E14.94435
G1 X119.375 Y136.569 E15.31302
G1 X115.272 Y133.206 E15.68356
G1 X111.017 Y130.106 E16.05127
G1 X106.542 Y127.216 E16.42335
G1 X101.952 Y124.608 E16.79208
G1 X97.178 Y122.243 E17.1642
G1 X93.862 Y120.787 E17.41715
G1 X93.224 Y120.464 E17.4671
G1 X92.755 Y120.164 E17.50598
G1 X91.972 Y119.614 E17.57282
G1 X91.411 Y119.171 E17.62275
G1 X90.902 Y118.668 E17.67273
G1 X90.623 Y118.336 E17.70302
G1 X87.062 Y113.814 E18.10504
G1 X83.571 Y109.831 E18.47497
G1 X79.81 Y106 E18.84994
G1 X77.954 Y104.266 E19.02735
G1 X73.906 Y100.789 E19.40007
G1 X69.673 Y97.551 E19.77231
G1 X66.136 Y95.119 E20.07212
G1 X65.57 Y94.682 E20.12207
G1 X65.237 Y94.372 E20.15385
G1 X60.242 Y89.379 E20.64714
G1 X59.766 Y88.846 E20.69705
G1 X59.351 Y88.263 E20.74704
G1 X59.005 Y87.638 E20.79693
G1 X58.73 Y86.977 E20.84694
G1 X58.53 Y86.29 E20.89692
G1 X58.409 Y85.585 E20.94688
G1 X58.367 Y84.871 E20.99683
G1 X58.405 Y84.157 E21.04677
G1 X58.522 Y83.452 E21.09669
G1 X58.718 Y82.764 E21.14666
G1 X58.989 Y82.102 E21.19662
G1 X59.332 Y81.474 E21.2466
G1 X59.743 Y80.889 E21.29653
G1 X60.216 Y80.353 E21.34646
G1 X60.747 Y79.873 E21.39646
M204 S3000
M205 X10 Y10
G0 F3000 X60.927 Y80.453
M204 S1800
M205 X8 Y8
G1 F2400 X61.467 Y80.035 E21.44416
G1 X62.338 Y79.542 E21.51406
G1 X65.679 Y78.014 E21.77067
G1 X70.438 Y75.565 E22.14449
G1 X75.037 Y72.86 E22.51716
G1 X79.466 Y69.905 E22.88904
G1 X83.714 Y66.71 E23.2603
G1 X87.8 Y63.257 E23.63396
G1 X90.772 Y60.488 E23.91767
G1 X91.298 Y60.052 E23.96539
G1 X91.872 Y59.681 E24.01313
G1 X92.485 Y59.379 E24.06086
G1 X93.129 Y59.151 E24.10858
G1 X93.795 Y59 E24.15628
G1 X94.752 Y58.921 E24.22335
G1 X141.915 Y58.915 E27.51751
G1 X142.529 Y58.947 E27.56045
G1 X143.599 Y59.06 E27.6356
G1 X144.273 Y59.172 E27.68332
G1 X144.924 Y59.359 E27.73063
G1 X145.43 Y59.537 E27.7681
G1 X146.06 Y59.801 E27.81581
G1 X146.822 Y60.248 E27.87751
G1 X147.649 Y60.822 E27.94783
G1 X148.186 Y61.244 E27.99553
G1 X148.535 Y61.579 E28.02932
G1 X148.858 Y61.916 E28.06192
G1 X149.301 Y62.436 E28.10963
G1 X149.778 Y63.177 E28.17119
G1 X150.145 Y63.855 E28.22504
G1 X150.434 Y64.474 E28.27275
G1 X150.628 Y65.045 E28.31487
G1 X150.832 Y65.766 E28.36721
G1 X150.98 Y66.433 E28.41493
G1 X151.053 Y67.354 E28.47946
G1 X151.08 Y140.243 E33.57048
G1 X151.04 Y140.925 E33.6182
G1 X150.921 Y141.598 E33.66594
G1 X150.724 Y142.252 E33.71364
G1 X150.452 Y142.879 E33.76138
G1 X150.109 Y143.469 E33.80905
G1 X149.699 Y144.016 E33.8568
G1 X149.376 Y144.368 E33.89016
G1 X144.875 Y148.884 E34.3355
G1 X144.813 Y148.946 E34.34163
G1 X144.322 Y149.424 E34.38949
G1 X143.805 Y149.871 E34.43722
G1 X143.24 Y150.254 E34.4849
G1 X142.634 Y150.57 E34.53264
G1 X141.995 Y150.812 E34.58036
G1 X141.332 Y150.978 E34.6281
G1 X140.654 Y151.065 E34.67584
G1 X140.25 Y151.079 E34.70408
G1 X137.266 Y151.08 E34.9125
G1 X136.584 Y151.04 E34.96022
G1 X135.911 Y150.921 E35.00795
G1 X135.257 Y150.724 E35.05566
G1 X134.63 Y150.452 E35.1034
G1 X134.039 Y150.109 E35.15112
G1 X133.493 Y149.699 E35.19881
G1 X133.139 Y149.374 E35.23238
G1 X128.134 Y144.379 E35.72627
G1 X128.057 Y144.301 E35.73392
G1 X123.657 Y139.742 E36.17647
G1 X119.741 Y136.145 E36.54786
G1 X115.626 Y132.773 E36.91945
G1 X111.312 Y129.629 E37.2923
G1 X106.85 Y126.748 E37.66327
G1 X102.214 Y124.114 E38.03569
G1 X97.419 Y121.737 E38.4095
G1 X94.087 Y120.275 E38.66364
G1 X93.478 Y119.964 E38.7114
G1 X93.077 Y119.706 E38.74471
G1 X92.294 Y119.156 E38.81154
G1 X91.759 Y118.731 E38.85927
G1 X91.063 Y117.99 E38.93027
G1 X87.492 Y113.455 E39.33344
G1 X83.97 Y109.438 E39.70658
G1 X80.208 Y105.606 E40.08166
G1 X78.33 Y103.85 E40.26124
G1 X74.254 Y100.349 E40.63653
G1 X70.021 Y97.111 E41.00877
G1 X66.453 Y94.658 E41.3112
G1 X65.914 Y94.239 E41.35888
G1 X65.633 Y93.976 E41.38576
G1 X60.638 Y88.983 E41.87906
G1 X60.184 Y88.473 E41.92675
G1 X59.793 Y87.913 E41.97446
G1 X59.469 Y87.311 E42.02221
G1 X59.219 Y86.675 E42.06994
G1 X59.044 Y86.015 E42.11763
G1 X58.947 Y85.339 E42.16533
G1 X58.93 Y84.656 E42.21305
G1 X58.993 Y83.975 E42.26082
G1 X59.135 Y83.307 E42.30852
G1 X59.354 Y82.66 E42.35623
G1 X59.648 Y82.043 E42.40396
G1 X60.011 Y81.464 E42.45169
G1 X60.439 Y80.932 E42.49939
G1 X60.927 Y80.453 E42.54715
M204 S3000
M205 X10 Y10
G0 F3000 X61.644 Y80.595
M204 S1800
M205 X8 Y8
G1 F2400 X62.191 Y80.244 E42.59254
G1 X62.571 Y80.051 E42.62231
G1 X65.927 Y78.517 E42.88004
G1 X70.714 Y76.053 E43.25609
G1 X75.334 Y73.335 E43.63048
G1 X79.775 Y70.372 E44.00337
G1 X84.071 Y67.141 E44.37882
G1 X88.181 Y63.668 E44.75466
G1 X91.154 Y60.898 E45.03847
G1 X91.656 Y60.485 E45.08388
G1 X92.204 Y60.137 E45.12922
G1 X92.791 Y59.859 E45.17458
G1 X93.408 Y59.655 E45.21997
G1 X94.045 Y59.529 E45.26533
G1 X94.752 Y59.481 E45.31482
G1 X141.915 Y59.475 E48.60898
G1 X142.471 Y59.504 E48.64787
G1 X143.541 Y59.617 E48.72302
G1 X144.181 Y59.725 E48.76835
G1 X144.738 Y59.887 E48.80887
G1 X145.244 Y60.065 E48.84634
G1 X145.843 Y60.318 E48.89175
G1 X146.503 Y60.708 E48.9453
G1 X147.33 Y61.282 E49.01561
G1 X147.839 Y61.685 E49.06096
G1 X148.131 Y61.966 E49.08926
G1 X148.454 Y62.303 E49.12186
G1 X148.874 Y62.799 E49.16726
G1 X149.285 Y63.444 E49.22068
G1 X149.652 Y64.122 E49.27453
G1 X149.926 Y64.711 E49.3199
G1 X150.09 Y65.198 E49.35579
G1 X150.294 Y65.919 E49.40813
G1 X150.432 Y66.553 E49.45345
G1 X150.493 Y67.354 E49.50956
G1 X150.52 Y140.243 E54.60058
G1 X150.48 Y140.891 E54.64593
G1 X150.361 Y141.53 E54.69133
G1 X150.165 Y142.149 E54.73668
G1 X149.894 Y142.74 E54.78209
G1 X149.552 Y143.292 E54.82745
G1 X148.98 Y143.972 E54.88951
G1 X144.479 Y148.488 E55.33485
G1 X144.422 Y148.544 E55.34043
G1 X143.931 Y149.022 E55.38829
G1 X143.439 Y149.446 E55.43366
G1 X142.898 Y149.806 E55.47905
G1 X142.317 Y150.097 E55.52443
G1 X141.705 Y150.314 E55.56979
G1 X141.071 Y150.455 E55.61515
G1 X140.25 Y150.519 E55.67267
G1 X137.266 Y150.52 E55.88109
G1 X136.617 Y150.48 E55.92651
G1 X135.979 Y150.361 E55.97184
G1 X135.36 Y150.165 E56.01719
G1 X134.769 Y149.893 E56.06263
G1 X134.217 Y149.552 E56.10795
G1 X133.534 Y148.977 E56.17031
G1 X128.529 Y143.982 E56.6642
G1 X128.46 Y143.912 E56.67106
G1 X124.043 Y139.336 E57.11528
G1 X120.116 Y135.729 E57.48771
G1 X115.961 Y132.324 E57.86293
G1 X111.639 Y129.174 E58.23647
G1 X107.14 Y126.269 E58.61052
G1 X102.467 Y123.614 E58.98592
G1 X97.66 Y121.231 E59.36066
G1 X94.312 Y119.762 E59.61603
G1 X93.734 Y119.465 E59.66141
G1 X93.399 Y119.248 E59.68929
G1 X92.616 Y118.698 E59.75613
G1 X92.108 Y118.292 E59.80155
G1 X91.503 Y117.643 E59.86352
G1 X87.93 Y113.105 E60.26694
G1 X84.386 Y109.063 E60.64241
G1 X80.594 Y105.201 E61.02044
G1 X78.707 Y103.436 E61.20091
G1 X74.609 Y99.917 E61.57819
G1 X70.345 Y96.656 E61.95313
G1 X66.77 Y94.197 E62.2562
G1 X66.029 Y93.58 E62.32354
G1 X61.034 Y88.587 E62.81684
G1 X60.604 Y88.101 E62.86216
G1 X60.237 Y87.565 E62.90754
G1 X59.938 Y86.988 E62.95293
G1 X59.712 Y86.379 E62.9983
G1 X59.563 Y85.747 E63.04365
G1 X59.493 Y85.101 E63.08904
G1 X59.502 Y84.451 E63.13444
G1 X59.592 Y83.808 E63.17979
G1 X59.759 Y83.18 E63.22518
G1 X60.002 Y82.578 E63.27052
G1 X60.318 Y82.01 E63.31592
G1 X60.701 Y81.485 E63.36131
G1 X61.145 Y81.011 E63.40667
G1 X61.644 Y80.595 E63.45205
M204 S3000
M205 X10 Y10
G1 F2400 E57.45205
G0 F3000 X66.796 Y84.185
G0 X66.796 Y85.697
G0 X96.15 Y88.45
M204 S1800
M205 X8 Y8
;TYPE:WALL-INNER
G1 F2400 E63.45205
G1 F1800 X70.33 Y88.45 E65.25548
G1 X68.607 Y86.727 E65.42568
G1 X68.13 Y86.25 E65.47279
G1 X68.804 Y86.25 E65.49813
G1 X68.805 Y86.25 E65.4982
G1 X96.15 Y86.25 E67.40815
G1 X96.15 Y66.15 E68.81206
G1 X142.194 Y66.15 E72.02806
G1 X142.437 Y66.167 E72.04507
G1 X142.765 Y66.249 E72.06869
G1 X143.075 Y66.384 E72.0923
G1 X143.183 Y66.457 E72.10141
G1 X143.544 Y66.82 E72.13717
G1 X143.618 Y66.931 E72.14648
G1 X143.754 Y67.238 E72.16994
G1 X143.835 Y67.575 E72.19414
G1 X143.85 Y67.795 E72.20955
G1 X143.85 Y139.67 E77.22975
G1 X142.127 Y141.393 E77.39994
G1 X141.65 Y141.87 E77.44706
G1 X141.65 Y141.196 E77.4724
G1 X141.65 Y141.195 E77.47247
G1 X141.65 Y113.853 E79.3822
G1 X97.802 Y113.85 E82.44482
G1 X97.608 Y113.836 E82.45841
G1 X97.009 Y113.651 E82.5022
G1 X96.756 Y113.497 E82.52288
G1 X96.648 Y113.403 E82.53288
G1 X96.457 Y113.165 E82.5542
G1 X96.214 Y112.639 E82.59467
G1 X96.15 Y112.16 E82.62842
G1 X96.15 Y88.45 E84.28448
M204 S3000
M205 X10 Y10
G0 F3000 X100.406 Y104.906
M204 S1800
M205 X8 Y8
G1 F1800 X99.882 Y105.595 E84.34494
G1 X99.55 Y106.393 E84.40531
G1 X99.438 Y107.25 E84.46567
G1 X99.55 Y108.107 E84.52604
G1 X99.882 Y108.905 E84.58641
G1 X100.406 Y109.594 E84.64687
G1 X101.095 Y110.118 E84.70733
G1 X101.893 Y110.45 E84.7677
G1 X102.75 Y110.562 E84.82807
G1 X103.607 Y110.45 E84.88843
G1 X104.405 Y110.118 E84.9488
G1 X105.094 Y109.594 E85.00926
G1 X105.618 Y108.905 E85.06972
G1 X105.95 Y108.107 E85.13009
G1 X106.062 Y107.25 E85.19046
G1 X105.95 Y106.393 E85.25083
G1 X105.618 Y105.595 E85.31119
G1 X105.094 Y104.906 E85.37165
G1 X104.405 Y104.382 E85.43212
G1 X103.607 Y104.05 E85.49248
G1 X102.75 Y103.938 E85.55285
G1 X101.893 Y104.05 E85.61322
G1 X101.095 Y104.382 E85.67359
G1 X100.406 Y104.906 E85.73405
M204 S3000
M205 X10 Y10
G0 F3000 X102.029 Y104.558
G0 X102.612 Y104.482
G0 X134.906 Y104.906
M204 S1800
M205 X8 Y8
G1 F1800 X134.382 Y105.595 E85.79451
G1 X134.05 Y106.393 E85.85488
G1 X133.938 Y107.25 E85.91524
G1 X134.05 Y108.107 E85.97561
G1 X134.382 Y108.905 E86.03598
G1 X134.906 Y109.594 E86.09644
G1 X135.595 Y110.118 E86.1569
G1 X136.393 Y110.45 E86.21727
G1 X137.25 Y110.562 E86.27764
G1 X138.107 Y110.45 E86.338
G1 X138.905 Y110.118 E86.39837
G1 X139.594 Y109.594 E86.45883
G1 X140.118 Y108.905 E86.51929
G1 X140.45 Y108.107 E86.57966
G1 X140.562 Y107.25 E86.64003
G1 X140.45 Y106.393 E86.7004
G1 X140.118 Y105.595 E86.76076
G1 X139.594 Y104.906 E86.82122
G1 X138.905 Y104.382 E86.88169
G1 X138.107 Y104.05 E86.94205
G1 X137.25 Y103.938 E87.00242
G1 X136.393 Y104.05 E87.06279
G1 X135.595 Y104.382 E87.12316
G1 X134.906 Y104.906 E87.18362
M204 S3000
M205 X10 Y10
G0 F3000 X134.463 Y72.75
G0 X134.489 Y72.546
G0 X134.906 Y70.406
M204 S1800
M205 X8 Y8
G1 F1800 X134.382 Y71.095 E87.24408
G1 X134.05 Y71.893 E87.30445
G1 X133.938 Y72.75 E87.36481
G1 X134.05 Y73.607 E87.42518
G1 X134.382 Y74.405 E87.48555
G1 X134.906 Y75.094 E87.54601
G1 X135.595 Y75.618 E87.60647
G1 X136.393 Y75.95 E87.66684
G1 X137.25 Y76.062 E87.72721
G1 X138.107 Y75.95 E87.78757
G1 X138.905 Y75.618 E87.84794
G1 X139.594 Y75.094 E87.9084
G1 X140.118 Y74.405 E87.96886
G1 X140.45 Y73.607 E88.02923
G1 X140.562 Y72.75 E88.0896
G1 X140.45 Y71.893 E88.14997
G1 X140.118 Y71.095 E88.21033
G1 X139.594 Y70.406 E88.2708
G1 X138.905 Y69.882 E88.33126
G1 X138.107 Y69.55 E88.39162
G1 X137.25 Y69.438 E88.45199
G1 X136.393 Y69.55 E88.51236
G1 X135.595 Y69.882 E88.57273
G1 X134.906 Y70.406 E88.63319
M204 S3000
M205 X10 Y10
G0 F3000 X102.75 Y69.963
G0 X102.546 Y69.989
G0 X100.406 Y70.406
M204 S1800
M205 X8 Y8
G1 F1800 X99.882 Y71.095 E88.69365
G1 X99.55 Y71.893 E88.75402
G1 X99.438 Y72.75 E88.81438
G1 X99.55 Y73.607 E88.87475
G1 X99.882 Y74.405 E88.93512
G1 X100.406 Y75.094 E88.99558
G1 X101.095 Y75.618 E89.05604
G1 X101.881 Y75.944 E89.11547
G1 X102.732 Y76.06 E89.17546
G1 X103.593 Y75.952 E89.23607
G1 X104.412 Y75.612 E89.29801
G1 X105.092 Y75.094 E89.35772
G1 X105.618 Y74.405 E89.41826
G1 X105.95 Y73.607 E89.47863
G1 X106.062 Y72.75 E89.539
G1 X105.95 Y71.893 E89.59936
G1 X105.618 Y71.095 E89.65973
G1 X105.094 Y70.406 E89.72019
G1 X104.405 Y69.882 E89.78065
G1 X103.607 Y69.55 E89.84102
G1 X102.75 Y69.438 E89.90139
G1 X101.893 Y69.55 E89.96176
G1 X101.095 Y69.882 E90.02213
G1 X100.406 Y70.406 E90.08259
M204 S3000
M205 X10 Y10
G0 F3000 X100.058 Y72.029
G0 X99.963 Y72.75
G0 X100.058 Y73.471
G0 X100.337 Y74.142
G0 X100.778 Y74.722
G0 X101.358 Y75.163
G0 X102.018 Y75.437
G0 X102.598 Y75.516
G0 X103.473 Y75.502
G0 X103.448 Y75.406
M204 S1800
M205 X8 Y8
G1 F1800 X104.13 Y75.123 E90.13416
G1 X104.693 Y74.694 E90.1836
G1 X105.129 Y74.123 E90.23378
G1 X105.404 Y73.461 E90.28385
G1 X105.497 Y72.75 E90.33393
G1 X105.404 Y72.039 E90.38401
G1 X105.129 Y71.377 E90.43408
G1 X104.694 Y70.806 E90.48422
G1 X104.123 Y70.371 E90.53436
G1 X103.461 Y70.096 E90.58443
G1 X102.75 Y70.003 E90.63451
G1 X102.039 Y70.096 E90.68459
G1 X101.377 Y70.371 E90.73466
G1 X100.806 Y70.806 E90.7848
G1 X100.371 Y71.377 E90.83494
G1 X100.096 Y72.039 E90.88501
G1 X100.003 Y72.75 E90.93509
G1 X100.096 Y73.461 E90.98517
G1 X100.371 Y74.123 E91.03524
G1 X100.806 Y74.694 E91.08538
G1 X101.377 Y75.129 E91.13552
G1 X102.028 Y75.399 E91.18474
G1 X102.735 Y75.495 E91.23458
G1 X103.448 Y75.406 E91.28476
M204 S3000
M205 X10 Y10
G0 F3000 X103.473 Y75.502
G0 X95.66 Y88.94
G0 X95.59 Y89.01
M204 S1800
M205 X8 Y8
G1 F1800 X70.098 Y89.01 E93.06528
G1 X67.255 Y86.167 E93.34611
G1 X66.778 Y85.69 E93.39323
G1 X67.452 Y85.69 E93.41856
G1 X67.453 Y85.69 E93.41863
G1 X95.59 Y85.69 E95.3839
G1 X95.59 Y65.59 E96.78781
G1 X142.219 Y65.59 E100.04467
G1 X142.522 Y65.611 E100.06588
G1 X142.946 Y65.717 E100.09641
G1 X143.346 Y65.892 E100.12691
G1 X143.541 Y66.023 E100.14331
G1 X143.979 Y66.463 E100.18668
G1 X144.111 Y66.66 E100.20324
G1 X144.288 Y67.06 E100.23379
G1 X144.391 Y67.489 E100.26461
G1 X144.41 Y67.773 E100.28449
G1 X144.41 Y139.902 E105.32243
G1 X141.567 Y142.745 E105.60326
G1 X141.09 Y143.222 E105.65037
G1 X141.09 Y142.548 E105.67571
G1 X141.09 Y142.547 E105.67578
G1 X141.09 Y114.413 E107.64083
G1 X97.777 Y114.41 E110.66609
G1 X97.506 Y114.391 E110.68506
G1 X96.778 Y114.166 E110.73828
G1 X96.422 Y113.949 E110.7674
G1 X96.24 Y113.79 E110.78428
G1 X95.979 Y113.465 E110.8134
